
 (Filename: DRAAK.cnc)
 (Post processor: USBCNC.scpost)
 (Date: 2-10-2010)
 G21 (Units: Metric)
 G40 G90
 F1
 (Part: DRAAK)
 (Operation: No Offset, LAAG_1, T1: V cutter, 2 mm diameter, 0,1 mm Deep)
 M6 T1  (V cutter, 2 mm diameter)
 G43 H1
 G00 Z4.0000
 M03 S10000
 X33.5507 Y19.4130
 Z0.5000
 G01 Z-0.1000 F100
 X33.8064 Y19.7250 F2000
 X34.0553 Y20.0879
 X34.7596 Y21.2974
 X35.0106 Y21.8052
 X35.1941 Y22.2443
 X35.3336 Y22.6564
 X35.3909 Y22.9129
 X35.2263 Y22.7056
 X34.4666 Y21.5558
 X34.0679 Y21.1413
 X34.0332 Y21.1139
 X34.0117 Y21.1411
 X33.9716 Y21.4317
 X33.9563 Y22.0243
 X34.1440 Y23.9085
 X34.1568 Y24.4590
 X34.1520 Y24.9990
 X34.1695 Y25.5875
 X34.1592 Y26.1737
 X34.1177 Y26.5201
 X34.0357 Y26.8630
 X33.9326 Y26.2280
 X33.8789 Y25.7137
 X33.8302 Y24.6383
 X33.7832 Y23.9215
 X33.5239 Y21.7428
 X33.4433 Y21.2765
 X33.3246 Y20.8196
 X32.6115 Y18.7728
 X32.5811 Y18.6716
 X32.8628 Y18.8208
 X33.2888 Y19.1486
 X33.5507 Y19.4130
 G00 Z4.0000
 X36.5602 Y19.0874
 Z0.5000
 G01 Z-0.1000 F100
 X36.2102 Y20.5917 F2000
 X36.0570 Y21.4153
 X35.9461 Y22.2408
 X35.9213 Y22.3386
 X35.8725 Y22.1668
 X35.8063 Y21.6917
 X35.8124 Y21.3732
 X35.8570 Y21.0333
 X35.9435 Y20.6628
 X36.0780 Y20.2469
 X36.5602 Y19.0874
 G00 Z4.0000
 X36.9906 Y19.6358
 Z0.5000
 G01 Z-0.1000 F100
 X36.9141 Y20.0634 F2000
 X36.9028 Y20.3825
 X36.9694 Y21.3286
 X36.9753 Y21.8858
 X36.9506 Y22.7441
 X36.9173 Y22.9955
 X36.8630 Y23.1699
 X36.7885 Y23.3089
 X36.6046 Y23.5009
 X36.5674 Y23.2665
 X36.5459 Y22.9977
 X36.5264 Y22.4818
 X36.5322 Y21.9627
 X36.5602 Y21.4418
 G02 X36.5548 Y23.5674 I2.2361 J1.0685 F2000.0
 G01 X36.6104 Y23.6751 F2000
 X36.5365 Y22.8276
 X36.5257 Y22.3105
 X36.5602 Y21.4418
 X36.6107 Y20.9873
 X36.6992 Y20.5656
 X36.8334 Y20.0975
 X36.9906 Y19.6358
 G00 Z4.0000
 X37.1525 Y17.9114
 Z0.5000
 G01 Z-0.1000 F100
 X36.6957 Y18.9177 F2000
 X36.5948 Y18.2650
 X37.1525 Y17.9114
 G00 Z4.0000
 X37.7268 Y16.9601
 Z0.5000
 G01 Z-0.1000 F100
 X38.1906 Y17.5871 F2000
 X38.3962 Y17.9286
 X38.5134 Y18.1685
 X38.8625 Y19.3694
 X38.9279 Y19.7032
 X38.9453 Y19.9669
 X38.8892 Y20.5752
 X38.8229 Y20.7407
 X38.7143 Y20.9165
 X38.3558 Y21.3744
 X38.3226 Y20.6291
 X38.3391 Y20.5252
 X38.8698 Y20.4931
 X38.8402 Y20.3026
 X38.6437 Y19.6986
 X38.4511 Y19.2572
 X38.0546 Y18.4507
 X37.6009 Y18.3449
 X37.4927 Y18.3022
 X37.5136 Y18.0043
 X37.6176 Y17.3695
 X37.7268 Y16.9601
 G00 Z4.0000
 X37.4970 Y15.0270
 Z0.5000
 G01 Z-0.1000 F100
 X37.5921 Y15.1016 F2000
 X38.3230 Y16.0807
 X38.5904 Y16.5050
 X38.7974 Y16.8889
 X38.9575 Y17.2472
 X39.0841 Y17.6080
 X39.1760 Y17.9783
 X39.2286 Y18.3582
 X39.2248 Y18.4719
 X37.9776 Y16.2125
 X37.5558 Y15.5367
 X37.1021 Y14.8854
 X37.4970 Y15.0270
 G00 Z4.0000
 X41.9001 Y17.8294
 Z0.5000
 G01 Z-0.1000 F100
 X41.9770 Y17.8809 F2000
 X42.0179 Y17.9527
 X42.0338 Y18.0509
 X42.0183 Y18.1513
 X41.9764 Y18.2424
 X41.9148 Y18.3109
 X41.8441 Y18.3470
 X41.7635 Y18.3488
 X41.6765 Y18.3077
 X41.6052 Y18.1841
 X41.6027 Y18.0841
 X41.6303 Y17.9850
 X41.6827 Y17.8992
 X41.7499 Y17.8417
 X41.8215 Y17.8182
 X41.9001 Y17.8294
 G00 Z4.0000
 X40.9714 Y19.4051
 Z0.5000
 G01 Z-0.1000 F100
 X40.4254 Y20.9358 F2000
 X40.2088 Y21.6967
 X40.1062 Y21.9156
 X39.9655 Y22.1196
 X40.0102 Y21.5882
 X40.0906 Y21.1858
 X40.2115 Y20.7823
 X40.3722 Y20.3836
 X40.5711 Y19.9963
 X40.8949 Y19.5042
 X40.9714 Y19.4051
 G00 Z4.0000
 X41.3717 Y20.3045
 Z0.5000
 G01 Z-0.1000 F100
 X41.3754 Y20.4685 F2000
 X41.4010 Y21.4008
 X41.5510 Y22.6027
 X41.6171 Y23.2499
 X41.6184 Y23.5520
 X41.1809 Y24.0379
 X40.9299 Y24.2571
 X40.6599 Y24.4573
 X40.5856 Y23.6655
 X40.5586 Y23.0494
 X40.5681 Y22.5599
 X40.6059 Y22.1377
 X40.6688 Y21.7630
 X40.7547 Y21.4254
 X40.8625 Y21.1188
 X40.9915 Y20.8384
 X41.1486 Y20.5702
 X41.3363 Y20.3150
 X41.3717 Y20.3045
 G00 Z4.0000
 X42.1629 Y21.1920
 Z0.5000
 G01 Z-0.1000 F100
 X41.9599 Y21.5501 F2000
 X41.8487 Y21.8213
 X41.7634 Y22.1284
 X41.7019 Y22.4860
 X41.6258 Y23.5423
 X41.5911 Y22.9344
 X41.4269 Y21.6854
 X41.3876 Y21.0533
 X41.3904 Y20.9563
 X41.6003 Y21.5639
 X41.6323 Y21.6323
 X41.8505 Y21.2544
 X42.1629 Y21.1920
 G00 Z4.0000
 X42.6253 Y20.0021
 Z0.5000
 G01 Z-0.1000 F100
 F2000
 G00 Z4.0000
 X44.1201 Y23.2928
 Z0.5000
 G01 Z-0.1000 F100
 X44.4570 Y23.4015 F2000
 X44.5087 Y23.4376
 X44.6323 Y24.0405
 X44.6479 Y24.2893
 X44.6391 Y24.4087
 X44.5315 Y24.4946
 X44.4155 Y24.5618
 X44.2283 Y24.6336
 X43.9998 Y24.6835
 X43.6065 Y24.7258
 X43.1420 Y24.2899
 X43.0082 Y24.1168
 X42.9531 Y23.9962
 X42.9400 Y23.8972
 X42.9635 Y23.7998
 X43.0300 Y23.7049
 X43.1504 Y23.6106
 X43.3689 Y23.4023
 X43.5255 Y23.3239
 X43.7028 Y23.2782
 X43.9015 Y23.2668
 X44.1201 Y23.2928
 G00 Z4.0000
 X45.7654 Y22.3287
 Z0.5000
 G01 Z-0.1000 F100
 X45.9393 Y22.3826 F2000
 X46.0702 Y22.4646
 X46.1812 Y22.5791
 X46.2767 Y22.7315
 X46.3601 Y22.9329
 X46.5433 Y23.6497
 X46.5718 Y23.7437
 X45.9012 Y23.9875
 X45.2173 Y24.1523
 X45.0843 Y23.8191
 X44.4473 Y22.5597
 X44.4088 Y22.4701
 X45.2422 Y22.3168
 X45.5224 Y22.3049
 X45.7654 Y22.3287
 G00 Z4.0000
 X46.8630 Y20.8342
 Z0.5000
 G01 Z-0.1000 F100
 X47.0687 Y21.0781 F2000
 X47.1821 Y21.2753
 X47.2641 Y21.4864
 X47.3117 Y21.7071
 X47.3221 Y21.9332
 X47.2923 Y22.1603
 X47.2223 Y22.4327
 X47.1634 Y22.5102
 X47.0755 Y22.5632
 X46.9730 Y22.5839
 X46.8673 Y22.5713
 X46.7696 Y22.5242
 X46.6913 Y22.4414
 X46.0498 Y21.9623
 X45.6337 Y21.6916
 X45.5754 Y21.5175
 X45.9537 Y21.1812
 X46.2578 Y20.9365
 X46.4194 Y20.8514
 X46.5616 Y20.8103
 X46.7079 Y20.8027
 X46.8630 Y20.8342
 G00 Z4.0000
 X47.1657 Y20.3236
 Z0.5000
 G01 Z-0.1000 F100
 F2000
 G00 Z4.0000
 X48.3957 Y19.7621
 Z0.5000
 G01 Z-0.1000 F100
 X48.5361 Y19.8463 F2000
 X48.6565 Y19.9632
 X48.7583 Y20.1154
 X48.8402 Y20.3061
 X48.8988 Y20.5375
 X48.9316 Y20.9613
 X48.9288 Y21.0466
 X48.8816 Y21.0732
 X47.8142 Y21.1452
 X47.6451 Y21.1287
 X47.5436 Y21.0414
 X47.4584 Y20.9402
 X47.3540 Y20.7685
 X47.1657 Y20.3236
 X47.9293 Y19.8091
 X48.1520 Y19.6989
 X48.3957 Y19.7621
 G00 Z4.0000
 X48.7750 Y18.4262
 Z0.5000
 G01 Z-0.1000 F100
 F2000
 G00 Z4.0000
 X49.9358 Y18.5912
 Z0.5000
 G01 Z-0.1000 F100
 X50.4583 Y19.3416 F2000
 X50.2602 Y19.3798
 X49.5542 Y19.4239
 X49.0967 Y19.4177
 X48.6393 Y19.3750
 X49.0291 Y19.0977
 X49.6764 Y18.7065
 X49.9358 Y18.5912
 G00 Z4.0000
 X50.5069 Y20.1751
 Z0.5000
 G01 Z-0.1000 F100
 X50.6165 Y20.2548 F2000
 X50.7208 Y20.3862
 X50.8369 Y20.5759
 X50.9388 Y20.8123
 X51.0103 Y21.0759
 X51.0499 Y21.3690
 X51.0557 Y21.6773
 X51.0366 Y21.8488
 X50.4193 Y21.8102
 X50.2002 Y21.7559
 X50.0213 Y21.6803
 X49.8558 Y21.5720
 X49.7067 Y21.4253
 X49.6100 Y21.3548
 X49.4958 Y21.2297
 X49.4190 Y21.0883
 X49.3700 Y20.9197
 X49.3474 Y20.7128
 X49.3678 Y20.0616
 X49.3971 Y20.0334
 X49.7344 Y20.0223
 X50.0199 Y20.0427
 X50.2676 Y20.0913
 X50.5069 Y20.1751
 G00 Z4.0000
 X49.1401 Y21.7574
 Z0.5000
 G01 Z-0.1000 F100
 X49.5406 Y21.8799 F2000
 X49.6044 Y21.9365
 X49.8140 Y22.5161
 X49.8898 Y22.8743
 X49.9145 Y23.2499
 X49.9109 Y23.3437
 X48.7902 Y23.6242
 X48.6589 Y23.3982
 X48.5311 Y23.2229
 X48.3152 Y22.9810
 X48.0439 Y22.7317
 X47.7415 Y22.4924
 X47.9543 Y21.7864
 X48.0132 Y21.7531
 X48.2521 Y21.7152
 X48.4920 Y21.6977
 X48.8172 Y21.7075
 X49.1401 Y21.7574
 G00 Z4.0000
 X50.4522 Y22.3237
 Z0.5000
 G01 Z-0.1000 F100
 X50.6475 Y22.4144 F2000
 X50.7894 Y22.5101
 X50.9477 Y22.6586
 X51.0815 Y22.8371
 X51.1898 Y23.0463
 X51.2703 Y23.2859
 X51.3188 Y23.5484
 X51.3334 Y23.8162
 X51.3165 Y24.0819
 X50.3506 Y23.5933
 X50.4522 Y22.3237
 G00 Z4.0000
 X51.7083 Y22.3903
 Z0.5000
 G01 Z-0.1000 F100
 X52.5577 Y22.7004 F2000
 X52.8166 Y22.8410
 X52.9838 Y22.9671
 X53.0265 Y23.1510
 X53.0167 Y23.2764
 X52.9724 Y23.3924
 X52.6135 Y23.8336
 X51.7060 Y24.7794
 X51.7582 Y24.1324
 X51.7579 Y23.5895
 X51.7170 Y23.0491
 X51.6230 Y22.4483
 X51.6290 Y22.3650
 X51.7083 Y22.3903
 G00 Z4.0000
 X50.3233 Y24.0712
 Z0.5000
 G01 Z-0.1000 F100
 X50.4391 Y24.1426 F2000
 X50.5673 Y24.2538
 X50.6907 Y24.4083
 X50.7962 Y24.6004
 X50.8875 Y24.8428
 X50.9741 Y25.1797
 X50.9911 Y25.3724
 X50.3318 Y25.8242
 X49.9941 Y25.9892
 X49.6390 Y26.1177
 X49.5563 Y25.6946
 X49.4531 Y25.4272
 X49.3015 Y25.1325
 X48.8236 Y24.3482
 X48.8288 Y24.3050
 X48.9845 Y24.1950
 X49.3168 Y24.0585
 X49.5546 Y24.0159
 X49.8270 Y24.0053
 X50.1011 Y24.0252
 X50.3233 Y24.0712
 G00 Z4.0000
 X48.5736 Y25.0028
 Z0.5000
 G01 Z-0.1000 F100
 X48.6999 Y25.1645 F2000
 G03 X48.9605 Y25.5036 I-2.1525 J1.9246 F2000.0
 X48.9363 Y26.3078 I-0.6330 J0.3834
 G01 X48.8127 Y26.4648 F2000
 X48.5191 Y26.7625
 X48.0656 Y26.1477
 X47.5889 Y25.5419
 X47.6730 Y25.4136
 X47.8099 Y25.2727
 X47.9691 Y25.1652
 X48.1603 Y25.0820
 X48.3647 Y25.0284
 X48.5736 Y25.0028
 G00 Z4.0000
 X47.2432 Y26.1546
 Z0.5000
 G01 Z-0.1000 F100
 X47.4100 Y26.2332 F2000
 X47.5638 Y26.3392
 X47.7010 Y26.4688
 X47.8180 Y26.6183
 X47.9110 Y26.7843
 X47.9536 Y26.9197
 X47.6908 Y27.0941
 X47.2064 Y27.3603
 X46.9017 Y27.4828
 X46.7181 Y27.5384
 X46.3767 Y26.8077
 X46.3356 Y26.6335
 X46.3347 Y26.5009
 X46.3673 Y26.3816
 X46.4388 Y26.2703
 X46.5558 Y26.1687
 X46.7013 Y26.1189
 X46.8852 Y26.0938
 X47.0671 Y26.1069
 X47.2432 Y26.1546
 G00 Z4.0000
 X45.8368 Y26.7710
 Z0.5000
 G01 Z-0.1000 F100
 X46.0369 Y27.3794 F2000
 X46.0652 Y27.5755
 X46.0546 Y27.7187
 X46.0157 Y27.8398
 X45.9449 Y27.9462
 X45.5913 Y28.2277
 X45.3363 Y28.3896
 X45.1158 Y28.4938
 X44.8930 Y28.5619
 X44.6583 Y28.5915
 X44.6258 Y28.1991
 X44.6235 Y27.7050
 X44.6582 Y26.6420
 X44.7017 Y26.6197
 X44.9190 Y26.6045
 X45.3696 Y26.6509
 X45.8368 Y26.7710
 G00 Z4.0000
 X45.2213 Y25.1821
 Z0.5000
 G01 Z-0.1000 F100
 X45.4329 Y25.2424 F2000
 X45.5714 Y25.3195
 X45.6639 Y25.4105
 X45.7582 Y25.5415
 X46.0051 Y26.0829
 X44.9992 Y26.0606
 X44.4960 Y26.0795
 X43.9974 Y26.1348
 Y25.1926
 X44.0266 Y25.1679
 X44.9657 Y25.1459
 X45.2213 Y25.1821
 G00 Z4.0000
 X46.7123 Y24.4670
 Z0.5000
 G01 Z-0.1000 F100
 X46.8436 Y24.5599 F2000
 X47.0092 Y24.7141
 X47.0906 Y24.8440
 X47.1480 Y25.0050
 X47.2145 Y25.5544
 X47.1800 Y25.5802
 X46.4033 Y25.6777
 X45.8854 Y24.9573
 X45.6344 Y24.6567
 X45.6720 Y24.6201
 X46.0323 Y24.4661
 X46.2498 Y24.4100
 X46.4236 Y24.3962
 X46.5713 Y24.4144
 X46.7123 Y24.4670
 G00 Z4.0000
 X47.8050 Y23.2467
 Z0.5000
 G01 Z-0.1000 F100
 X48.0824 Y23.3592 F2000
 X48.2223 Y23.4630
 X48.3817 Y24.3908
 X47.9777 Y24.5146
 X47.7926 Y24.5506
 X47.6870 Y24.5494
 X47.5728 Y24.5050
 X47.2376 Y24.2756
 X46.8607 Y23.9831
 X46.9346 Y23.4921
 X47.0441 Y23.0363
 X47.3544 Y23.0937
 X47.6088 Y23.1672
 X47.8050 Y23.2467
 G00 Z4.0000
 X43.5562 Y26.4466
 Z0.5000
 G01 Z-0.1000 F100
 X43.7027 Y26.5232 F2000
 X43.8519 Y26.6601
 X43.9509 Y26.7815
 X44.0133 Y26.9199
 X44.1111 Y27.4363
 X42.6081 Y27.3884
 X42.5915 Y26.6416
 X42.6098 Y26.4068
 X43.3934 Y26.4073
 X43.5562 Y26.4466
 G00 Z4.0000
 X43.8359 Y28.0864
 Z0.5000
 G01 Z-0.1000 F100
 X43.9506 Y28.1565 F2000
 X44.0400 Y28.2578
 X44.1544 Y28.6556
 X44.1560 Y28.8083
 X44.1192 Y28.9462
 X44.0456 Y29.0732
 X43.9339 Y29.1889
 X43.7832 Y29.2895
 X43.5960 Y29.3678
 X43.3837 Y29.4144
 X43.1674 Y29.4216
 X42.9519 Y28.4639
 X42.8978 Y28.0176
 X43.4145 Y28.0067
 X43.6808 Y28.0370
 X43.8359 Y28.0864
 G00 Z4.0000
 X42.4234 Y28.1691
 Z0.5000
 G01 Z-0.1000 F100
 X42.4861 Y28.7714 F2000
 X42.3756 Y28.8056
 X41.4564 Y28.8796
 X41.0098 Y28.1684
 X41.0234 Y28.1475
 X41.3114 Y28.1159
 X41.8957 Y28.1032
 X42.2516 Y28.1294
 X42.4234 Y28.1691
 G00 Z4.0000
 X43.0121 Y29.4429
 Z0.5000
 G01 Z-0.1000 F100
 X42.9394 Y29.5469 F2000
 X42.7108 Y29.7682
 X42.5127 Y29.8943
 X42.2626 Y30.0118
 X41.5239 Y30.2856
 X41.7534 Y29.6178
 X41.8413 Y29.4818
 X42.6278 Y29.4141
 X42.9328 Y29.4293
 X43.0121 Y29.4429
 G00 Z4.0000
 X43.6512 Y29.7944
 Z0.5000
 G01 Z-0.1000 F100
 X43.7380 Y29.8502 F2000
 X43.7958 Y29.9273
 X43.8128 Y30.0112
 X43.7947 Y30.0969
 X43.7476 Y30.1731
 X43.6790 Y30.2315
 X43.5976 Y30.2632
 X43.5094 Y30.2614
 X43.4216 Y30.2178
 X43.3693 Y30.1750
 X43.3252 Y30.0965
 X43.3209 Y30.0117
 X43.3500 Y29.9278
 X43.4056 Y29.8552
 X43.4802 Y29.8031
 X43.5636 Y29.7808
 X43.6512 Y29.7944
 G00 Z4.0000
 X43.0227 Y30.4224
 Z0.5000
 G01 Z-0.1000 F100
 X42.7080 Y31.0595 F2000
 X42.5631 Y31.2583
 X42.4794 Y31.3353
 X42.3693 Y31.3814
 X42.2756 Y31.3846
 X42.1990 Y31.3501
 X42.1307 Y31.2781
 X41.8797 Y30.7258
 X42.0779 Y30.6233
 X42.3591 Y30.5125
 X42.6332 Y30.4421
 X42.9148 Y30.4073
 X43.0227 Y30.4224
 G00 Z4.0000
 X43.9807 Y30.9969
 Z0.5000
 G01 Z-0.1000 F100
 F2000
 G00 Z4.0000
 X45.8119 Y31.1837
 Z0.5000
 G01 Z-0.1000 F100
 X46.0650 Y31.2286 F2000
 X46.6690 Y31.4902
 X46.1224 Y31.6832
 X44.9158 Y32.1658
 X43.7024 Y32.6942
 X43.4436 Y32.8602
 X42.7131 Y33.4458
 X42.3237 Y33.7117
 X41.8046 Y34.0269
 X41.4205 Y34.3124
 X40.4964 Y35.1004
 X40.3157 Y35.2461
 X39.9823 Y35.0458
 X41.5692 Y33.8460
 X42.0998 Y33.4733
 X42.5963 Y33.1591
 X43.7613 Y32.5115
 X44.0763 Y32.2909
 X44.3681 Y32.0350
 X44.4154 Y31.9479
 X44.3169 Y31.8917
 X44.0493 Y31.7978
 X43.8455 Y31.7748
 X43.6217 Y31.7871
 X43.3637 Y31.8374
 X42.4488 Y32.1139
 X42.1328 Y32.1639
 X42.1933 Y32.0859
 X42.9122 Y31.4925
 X43.2335 Y31.5530
 X43.5911 Y31.5743
 X43.9484 Y31.5562
 X44.3537 Y31.4992
 X45.5672 Y31.2268
 X45.8119 Y31.1837
 G00 Z4.0000
 X42.3172 Y32.7746
 Z0.5000
 G01 Z-0.1000 F100
 X42.1895 Y32.8844 F2000
 X41.6680 Y33.2227
 X40.9481 Y33.6057
 X41.0938 Y33.2694
 X41.3143 Y32.8337
 X41.4016 Y32.7270
 X41.5526 Y32.7348
 X42.3172 Y32.7746
 G00 Z4.0000
 X40.7269 Y31.5964
 Z0.5000
 G01 Z-0.1000 F100
 X41.4053 Y32.3329 F2000
 X40.6769 Y32.1150
 X40.7269 Y31.5964
 G00 Z4.0000
 X39.9532 Y31.2391
 Z0.5000
 G01 Z-0.1000 F100
 X40.3147 Y31.6669 F2000
 X40.2841 Y31.6987
 X40.0102 Y31.8350
 X39.8208 Y31.8866
 X39.6304 Y31.9022
 X39.4405 Y31.8793
 X39.2524 Y31.8156
 X39.0675 Y31.7085
 X38.9837 Y31.2232
 X39.9532 Y31.2391
 G00 Z4.0000
 X40.8518 Y30.4208
 Z0.5000
 G01 Z-0.1000 F100
 X41.0629 Y30.5103 F2000
 X41.1988 Y30.5928
 X40.4919 Y31.0724
 X39.9823 Y30.7427
 X40.0752 Y30.3025
 X40.3462 Y30.3151
 X40.6161 Y30.3557
 X40.8518 Y30.4208
 G00 Z4.0000
 X39.1113 Y29.7918
 Z0.5000
 G01 Z-0.1000 F100
 X39.2142 Y29.8339 F2000
 X39.2693 Y29.8936
 X39.3332 Y30.0241
 X39.3749 Y30.1628
 X39.4291 Y30.6116
 X39.4265 Y30.7293
 X38.7213 Y30.8184
 X38.5684 Y30.7952
 X38.4276 Y30.7345
 X37.8308 Y30.2856
 X37.9113 Y29.9184
 X37.9771 Y29.8829
 X38.4641 Y29.7739
 X38.7411 Y29.7422
 X38.9378 Y29.7516
 X39.1113 Y29.7918
 G00 Z4.0000
 X37.9921 Y30.7629
 Z0.5000
 G01 Z-0.1000 F100
 X38.0175 Y30.7881 F2000
 X38.0697 Y31.1411
 X38.0737 Y31.2795
 X38.0382 Y31.4090
 X37.9269 Y31.5649
 X37.8167 Y31.6597
 X37.6851 Y31.7291
 X37.5394 Y31.7728
 X37.3882 Y31.7891
 X37.2432 Y31.7767
 X37.1162 Y31.7377
 X37.0076 Y31.6721
 X36.9218 Y31.5782
 X36.8652 Y31.4545
 X37.0598 Y31.0767
 X37.1954 Y30.8733
 X37.5790 Y30.7938
 X37.9921 Y30.7629
 G00 Z4.0000
 X37.1253 Y29.8109
 Z0.5000
 G01 Z-0.1000 F100
 X36.5250 Y31.1303 F2000
 X35.2326 Y33.7706
 X34.6118 Y35.0970
 X34.7884 Y34.3549
 X34.9696 Y33.7907
 X35.1974 Y33.2072
 X35.4774 Y32.5953
 X35.8184 Y31.9404
 X36.2362 Y31.2168
 X37.1253 Y29.8109
 G00 Z4.0000
 X37.5307 Y29.3164
 Z0.5000
 G01 Z-0.1000 F100
 X37.5662 Y29.3995 F2000
 X37.5748 Y29.4739
 X37.5584 Y29.5431
 X37.5119 Y29.5839
 X37.4337 Y29.5963
 X37.3057 Y29.5737
 X37.2779 Y29.3822
 X37.3066 Y29.3293
 X37.3618 Y29.3017
 X37.5307 Y29.3164
 G00 Z4.0000
 X37.6613 Y29.0485
 Z0.5000
 G01 Z-0.1000 F100
 F2000
 G00 Z4.0000
 X38.3635 Y26.6121
 Z0.5000
 G01 Z-0.1000 F100
 X38.4327 Y26.6431 F2000
 X38.2081 Y27.0900
 X37.6064 Y28.1278
 X37.1352 Y28.8444
 X36.6449 Y29.5404
 X36.6517 Y29.2559
 X36.7019 Y28.8562
 X36.7902 Y28.4670
 X36.9263 Y28.0259
 X37.1265 Y27.4763
 X37.2185 Y27.2713
 X37.2956 Y27.2772
 X37.8827 Y27.3156
 X37.9440 Y26.9862
 X38.0070 Y26.7989
 X38.0725 Y26.7017
 X38.1470 Y26.6440
 X38.2425 Y26.6127
 X38.3635 Y26.6121
 G00 Z4.0000
 X38.8291 Y26.1101
 Z0.5000
 G01 Z-0.1000 F100
 X38.9106 Y26.1609 F2000
 X38.9585 Y26.2348
 X38.9754 Y26.3222
 X38.9633 Y26.4109
 X38.9249 Y26.4896
 X38.8663 Y26.5451
 X38.7888 Y26.5713
 X38.6948 Y26.5583
 X38.5680 Y26.4921
 X38.5266 Y26.4176
 X38.5160 Y26.3305
 X38.5340 Y26.2429
 X38.5778 Y26.1661
 X38.6433 Y26.1124
 X38.7281 Y26.0910
 X38.8291 Y26.1101
 G00 Z4.0000
 X40.2706 Y25.6735
 Z0.5000
 G01 Z-0.1000 F100
 X40.2276 Y25.7499 F2000
 X39.6437 Y26.6808
 X39.3483 Y27.0564
 X38.9932 Y27.4402
 X38.6254 Y27.8941
 X38.2746 Y28.3600
 X37.9853 Y28.7153
 X37.6613 Y29.0485
 X37.9217 Y28.5601
 X38.2692 Y27.9881
 X38.6507 Y27.4372
 X39.0726 Y26.8988
 X39.5245 Y26.3871
 X40.2018 Y25.7202
 X40.2706 Y25.6735
 G00 Z4.0000
 X39.9456 Y24.6950
 Z0.5000
 G01 Z-0.1000 F100
 X39.9660 Y24.7413 F2000
 X39.9800 Y25.0937
 X39.9774 Y25.2012
 X39.5757 Y25.1014
 X39.5102 Y24.7087
 X39.9456 Y24.6950
 G00 Z4.0000
 X41.6258 Y23.5423
 Z0.5000
 G01 Z-0.1000 F100
 F2000
 G00 Z4.0000
 X42.5306 Y24.3785
 Z0.5000
 G01 Z-0.1000 F100
 X42.9274 Y24.7042 F2000
 X43.1377 Y24.9188
 X43.2754 Y25.1030
 X43.3750 Y25.2921
 X43.4384 Y25.4992
 X43.4583 Y25.7349
 X43.4323 Y25.8021
 X42.9080 Y25.9333
 X42.4372 Y26.0206
 X42.0186 Y26.0682
 X41.6183 Y26.0823
 X41.2159 Y26.0611
 X40.8125 Y25.9995
 X41.2518 Y25.4363
 X41.5734 Y25.1084
 X41.9374 Y24.7928
 X42.4159 Y24.4433
 X42.5306 Y24.3785
 G00 Z4.0000
 X41.7164 Y26.6137
 Z0.5000
 G01 Z-0.1000 F100
 X41.9223 Y26.7097 F2000
 X41.9874 Y26.7704
 X42.1314 Y27.4113
 X41.2506 Y27.5418
 X40.8485 Y27.6374
 X40.8076 Y27.6014
 X40.3551 Y26.7955
 X40.6621 Y26.6319
 X40.8698 Y26.5640
 X41.0811 Y26.5276
 X41.2938 Y26.5233
 X41.5063 Y26.5518
 X41.7164 Y26.6137
 G00 Z4.0000
 X40.2197 Y27.2549
 Z0.5000
 G01 Z-0.1000 F100
 X40.3536 Y27.9912 F2000
 X39.6031 Y28.0627
 X39.2895 Y28.1257
 X39.0285 Y28.2120
 X38.7793 Y28.3369
 X39.0493 Y28.1284
 X39.5041 Y27.5595
 X39.6626 Y27.4056
 X39.8038 Y27.3146
 X39.9659 Y27.2588
 X40.1542 Y27.2466
 X40.2197 Y27.2549
 G00 Z4.0000
 X40.4612 Y28.5262
 Z0.5000
 G01 Z-0.1000 F100
 X40.7986 Y28.7176 F2000
 X40.8960 Y28.8233
 X40.9698 Y28.9584
 X41.0237 Y29.1325
 X41.1142 Y29.7458
 X41.0676 Y29.7624
 X40.1871 Y29.7891
 X39.8399 Y29.7613
 X39.7250 Y29.7412
 X38.9150 Y29.1676
 X39.5322 Y28.7058
 X39.7645 Y28.5774
 X39.9535 Y28.5073
 X40.1208 Y28.4768
 X40.2903 Y28.4811
 X40.4612 Y28.5262
 G00 Z4.0000
 X39.0729 Y32.1390
 Z0.5000
 G01 Z-0.1000 F100
 X39.2369 Y32.2084 F2000
 X39.2218 Y32.8244
 X39.1019 Y32.8381
 X38.0851 Y32.7588
 X38.0324 Y32.4449
 X38.0016 Y32.1416
 X38.3866 Y32.0504
 X38.6163 Y32.0479
 X38.8459 Y32.0787
 X39.0729 Y32.1390
 G00 Z4.0000
 X38.7248 Y33.4160
 Z0.5000
 G01 Z-0.1000 F100
 X38.6818 Y33.6514 F2000
 X38.6125 Y33.8766
 X38.5211 Y34.0765
 X38.4088 Y34.2533
 X38.2740 Y34.4109
 X38.1437 Y34.5171
 X37.9593 Y34.4248
 X37.6288 Y34.1938
 X37.4572 Y34.0214
 X37.3141 Y33.8254
 X37.2038 Y33.6057
 X37.5099 Y33.5159
 X37.8909 Y33.4418
 X38.2758 Y33.4006
 X38.5204 Y33.3886
 X38.7248 Y33.4160
 G00 Z4.0000
 X40.1827 Y33.2856
 Z0.5000
 G01 Z-0.1000 F100
 X40.2382 Y33.3425 F2000
 X40.2748 Y33.4204
 X40.2755 Y33.4832
 X40.2444 Y33.5155
 X40.1771 Y33.5179
 X40.0501 Y33.4707
 X40.0611 Y33.3676
 X40.0919 Y33.2933
 X40.1346 Y33.2699
 X40.1827 Y33.2856
 G00 Z4.0000
 X37.9157 Y34.8982
 Z0.5000
 G01 Z-0.1000 F100
 X37.9324 Y35.4348 F2000
 X37.8944 Y35.5002
 X37.4436 Y35.8456
 X37.4140 Y35.8390
 X37.1362 Y35.2494
 X37.9157 Y34.8982
 G00 Z4.0000
 X38.5594 Y35.7850
 Z0.5000
 G01 Z-0.1000 F100
 X38.6317 Y35.8463 F2000
 X38.6724 Y35.9283
 X38.6831 Y36.0200
 X38.6659 Y36.1105
 X38.6232 Y36.1880
 X38.5596 Y36.2417
 X38.4756 Y36.2653
 X38.3726 Y36.2492
 X38.2501 Y36.1803
 X38.1979 Y36.0997
 X38.1742 Y36.0061
 X38.1785 Y35.9114
 X38.2096 Y35.8286
 X38.2627 Y35.7698
 X38.3386 Y35.7390
 X38.4368 Y35.7456
 X38.5594 Y35.7850
 G00 Z4.0000
 X38.7670 Y36.6825
 Z0.5000
 G01 Z-0.1000 F100
 X39.0812 Y36.8144 F2000
 X38.6269 Y36.8673
 X38.1525 Y36.8588
 X38.2255 Y36.7770
 X38.3411 Y36.6967
 X38.4652 Y36.6567
 X38.6049 Y36.6515
 X38.7670 Y36.6825
 G00 Z4.0000
 X38.9212 Y37.8764
 Z0.5000
 G01 Z-0.1000 F100
 X38.9308 Y37.9246 F2000
 X38.9151 Y38.2810
 X38.8261 Y38.2832
 X38.4703 Y38.2015
 X38.2574 Y38.1275
 X38.0509 Y38.0281
 X38.5608 Y37.9261
 X38.9212 Y37.8764
 G00 Z4.0000
 X38.0782 Y38.4897
 Z0.5000
 G01 Z-0.1000 F100
 X38.2323 Y38.5466 F2000
 X38.2796 Y38.6098
 X38.2938 Y38.6889
 X38.2765 Y38.7699
 X38.2327 Y38.8416
 X38.1693 Y38.8918
 X38.0902 Y38.9120
 X38.0003 Y38.8918
 X37.8930 Y38.8376
 X37.8515 Y38.7713
 X37.8430 Y38.6910
 X37.8652 Y38.6107
 X37.9132 Y38.5417
 X37.9785 Y38.4966
 X38.0573 Y38.4820
 X38.0782 Y38.4897
 G00 Z4.0000
 X38.5006 Y39.2993
 Z0.5000
 G01 Z-0.1000 F100
 X38.5937 Y39.3554 F2000
 X38.6662 Y39.4355
 X38.7173 Y39.5430
 X38.7434 Y39.6805
 X38.7392 Y39.7711
 X37.9355 Y39.5323
 X37.6784 Y39.4172
 X38.0439 Y39.2827
 X38.2268 Y39.2574
 X38.3796 Y39.2649
 X38.5006 Y39.2993
 G00 Z4.0000
 X38.2594 Y40.7180
 Z0.5000
 G01 Z-0.1000 F100
 G03 X38.5325 Y40.8552 I-0.3205 J0.9785 F2000.0
 X38.7594 Y41.4155 I-0.3370 J0.4625
 G01 X38.2289 Y41.2892 F2000
 X37.6952 Y41.1103
 X37.6982 Y40.6203
 X37.7742 Y40.6263
 G03 X38.1998 Y40.7005 I-0.1941 J2.3723 F2000.0
 X38.2594 Y40.7180 I-0.2609 J0.9960
 G00 Z4.0000
 X37.1700 Y41.2978
 Z0.5000
 G01 Z-0.1000 F100
 F2000
 X37.7069 Y41.5145
 X38.3077 Y41.8243
 X38.3672 Y41.8784
 X38.2385 Y41.8994
 G03 X37.1700 Y41.2978 I-0.1241 J-1.0294 F2000.0
 G00 Z4.0000
 X36.9999 Y41.9500
 Z0.5000
 G01 Z-0.1000 F100
 X36.9856 Y42.5308 F2000
 X36.9926 Y42.8828
 X37.0342 Y43.3286
 X36.5019 Y43.6332
 X36.2563 Y43.7286
 X36.0465 Y43.7783
 X35.8593 Y43.7928
 X35.6734 Y43.7742
 X35.4887 Y43.7178
 X35.3063 Y43.6184
 G03 X35.4524 Y42.8545 I1.4885 J-0.1112 F2000.0
 X35.8808 Y42.3189 I1.4275 J0.7027
 X36.8916 Y41.9276 I1.1164 J1.3827
 G01 X36.9999 Y41.9500 F2000
 G00 Z4.0000
 X37.7293 Y42.9409
 Z0.5000
 G01 Z-0.1000 F100
 F2000
 G00 Z4.0000
 X38.0955 Y43.4301
 Z0.5000
 G01 Z-0.1000 F100
 X38.1436 Y43.4496 F2000
 X38.1977 Y43.5114
 X38.2306 Y43.5919
 X38.2280 Y43.6544
 X38.1947 Y43.6860
 X38.1263 Y43.6863
 X38.0003 Y43.6355
 X38.0174 Y43.5187
 X38.0516 Y43.4494
 X38.0955 Y43.4301
 G00 Z4.0000
 X38.9044 Y44.0178
 Z0.5000
 G01 Z-0.1000 F100
 X39.2927 Y44.5678 F2000
 X39.1693 Y44.6065
 X38.6842 Y44.6775
 X38.0509 Y44.7198
 Y44.1825
 X38.9044 Y44.0178
 G00 Z4.0000
 X39.8857 Y43.6707
 Z0.5000
 G01 Z-0.1000 F100
 X40.0586 Y43.7642 F2000
 X40.3685 Y44.0313
 X40.5396 Y44.2322
 X40.6870 Y44.4518
 X40.8098 Y44.6870
 X40.9070 Y44.9345
 X40.9775 Y45.1910
 X40.9990 Y45.3775
 X40.9813 Y45.5507
 X40.9254 Y45.7356
 X40.8267 Y45.9405
 X40.4905 Y46.4817
 X40.2710 Y45.8032
 X40.1377 Y45.0921
 X40.0315 Y44.3775
 X39.8857 Y43.6707
 G00 Z4.0000
 X39.2182 Y45.1422
 Z0.5000
 G01 Z-0.1000 F100
 X39.2076 Y45.1622 F2000
 X38.8137 Y45.3608
 G03 X38.3986 Y45.4569 I-0.5387 J-1.3814 F2000.0
 X37.6276 Y45.1094 I-0.0832 J-0.8445
 G01 X39.2182 Y45.1422 F2000
 G00 Z4.0000
 X39.2627 Y45.6498
 Z0.5000
 G01 Z-0.1000 F100
 X39.6038 Y46.2013 F2000
 X39.6330 Y46.2684
 X39.4960 Y46.3472
 X39.3551 Y46.4057
 X39.1406 Y46.4600
 X38.8994 Y46.4827
 X38.6189 Y46.4735
 X38.2712 Y46.4310
 X38.3838 Y46.2187
 X38.5173 Y46.0558
 X38.6856 Y45.9112
 X38.8930 Y45.7831
 X39.1306 Y45.6774
 X39.2627 Y45.6498
 G00 Z4.0000
 X38.2712 Y46.4310
 Z0.5000
 G01 Z-0.1000 F100
 F2000
 G00 Z4.0000
 X37.4927 Y46.0650
 Z0.5000
 G01 Z-0.1000 F100
 X37.5732 Y46.5294 F2000
 X37.6483 Y46.8126
 X37.7484 Y47.0792
 X37.8767 Y47.3355
 X37.9879 Y47.5138
 X37.1361 Y47.4810
 X36.2721 Y47.4809
 X36.3478 Y47.2011
 X36.4443 Y46.9410
 X36.5654 Y46.6950
 X36.6956 Y46.4883
 X36.8554 Y46.3717
 X37.2315 Y46.1799
 X37.4927 Y46.0650
 G00 Z4.0000
 X35.8584 Y45.7029
 Z0.5000
 G01 Z-0.1000 F100
 X36.0278 Y45.7524 F2000
 X36.1575 Y45.8206
 X36.2576 Y45.9064
 X36.3370 Y46.0180
 X36.3451 Y46.0925
 X36.0050 Y46.9338
 X35.8388 Y47.3899
 X35.7402 Y47.4099
 X35.2831 Y47.3694
 X35.0522 Y47.3144
 X34.8779 Y47.2419
 X34.7261 Y47.1419
 X34.5950 Y47.0068
 X34.5569 Y46.7094
 X34.5346 Y46.3209
 X34.5585 Y46.1347
 X34.6058 Y45.9980
 X34.6776 Y45.8880
 X34.7812 Y45.7982
 X34.9213 Y45.7326
 X35.6320 Y45.6767
 X35.8584 Y45.7029
 G00 Z4.0000
 X34.9431 Y44.1301
 Z0.5000
 G01 Z-0.1000 F100
 X35.6423 Y44.4250 F2000
 X35.4742 Y44.7973
 X35.3423 Y44.9698
 X35.1856 Y45.1146
 X35.0065 Y45.2291
 X34.8073 Y45.3106
 X34.5903 Y45.3562
 X34.3579 Y45.3634
 X34.3340 Y44.6974
 X34.3515 Y44.4901
 X34.6261 Y44.2893
 X34.9431 Y44.1301
 G00 Z4.0000
 X34.9411 Y42.0663
 Z0.5000
 G01 Z-0.1000 F100
 X35.1679 Y42.2001 F2000
 X35.2466 Y42.2822
 X35.1236 Y42.5723
 X34.9451 Y43.1757
 X34.8444 Y43.7205
 X34.3237 Y43.7881
 X34.2998 Y42.4346
 X34.3066 Y41.8438
 X34.5618 Y41.9120
 X34.9411 Y42.0663
 G00 Z4.0000
 X35.6453 Y41.7381
 Z0.5000
 G01 Z-0.1000 F100
 F2000
 G00 Z4.0000
 X36.5438 Y40.6738
 Z0.5000
 G01 Z-0.1000 F100
 X36.6614 Y41.3145 F2000
 X36.0157 Y41.6684
 X35.8343 Y41.7230
 X35.6453 Y41.7381
 X35.2666 Y41.5670
 X34.8122 Y41.3030
 X34.7265 Y41.2225
 X34.9820 Y40.7576
 X35.0603 Y40.6660
 X35.5718 Y40.6050
 X35.9527 Y40.6055
 X36.3308 Y40.6390
 X36.5438 Y40.6738
 G00 Z4.0000
 X36.9156 Y39.2782
 Z0.5000
 G01 Z-0.1000 F100
 X36.8996 Y40.2646 F2000
 X36.8656 Y40.2691
 X36.5452 Y40.1496
 X36.2043 Y39.9930
 X36.1575 Y39.8660
 X36.1615 Y39.7533
 X36.2519 Y39.4430
 X36.2717 Y39.3370
 X36.7923 Y39.2756
 X36.9156 Y39.2782
 G00 Z4.0000
 X36.6784 Y37.6379
 Z0.5000
 G01 Z-0.1000 F100
 G03 X37.3855 Y38.3721 I-0.3271 J1.0227 F2000.0
 G01 X37.3836 Y38.4739 F2000
 X36.7639 Y38.6738
 X36.4250 Y38.8304
 X36.0997 Y39.0156
 X35.7907 Y39.2276
 X35.5918 Y39.3822
 X34.4594 Y38.7733
 X34.8022 Y38.4142
 X35.0969 Y38.1498
 G03 X35.6094 Y37.8055 I1.9416 J2.3362 F2000.0
 X36.0872 Y37.6199 I1.0304 J1.9442
 X36.6784 Y37.6379 I0.2640 J1.0408
 G00 Z4.0000
 X37.5620 Y36.1879
 Z0.5000
 G01 Z-0.1000 F100
 X37.5732 Y36.2233 F2000
 X37.4758 Y37.3921
 X36.3059 Y37.1302
 X36.3523 Y36.7822
 X36.4145 Y36.7286
 X37.5620 Y36.1879
 G00 Z4.0000
 X36.1266 Y35.3648
 Z0.5000
 G01 Z-0.1000 F100
 X36.3779 Y35.4471 F2000
 X36.9310 Y35.6915
 X36.3264 Y36.2191
 X35.9282 Y36.5287
 X35.7970 Y36.4844
 X34.9844 Y35.9946
 X34.9681 Y35.6570
 X34.9931 Y35.6125
 X35.4929 Y35.4177
 X35.7934 Y35.3172
 X36.1266 Y35.3648
 G00 Z4.0000
 X36.4699 Y33.9739
 Z0.5000
 G01 Z-0.1000 F100
 X37.2709 Y34.3225 F2000
 X37.2184 Y34.6735
 X37.1811 Y34.7831
 X36.7891 Y34.8760
 X36.4923 Y34.8977
 X36.1457 Y34.8875
 X35.2051 Y34.7920
 X35.6890 Y34.0010
 X35.7743 Y33.9309
 X36.0478 Y33.8941
 X36.2474 Y33.9145
 X36.4699 Y33.9739
 G00 Z4.0000
 X37.0221 Y32.1492
 Z0.5000
 G01 Z-0.1000 F100
 X37.1919 Y32.2234 F2000
 X37.3527 Y32.3361
 X37.5014 Y32.4879
 X37.6295 Y32.6726
 X37.7280 Y32.8782
 X36.8195 Y33.3728
 X36.5882 Y33.4525
 X36.3880 Y33.4896
 X36.1814 Y33.4922
 X35.9672 Y33.4534
 X36.4533 Y32.2497
 X36.5275 Y32.1394
 X36.6897 Y32.1119
 X36.8444 Y32.1128
 X37.0221 Y32.1492
 G00 Z4.0000
 X34.0199 Y31.0733
 Z0.5000
 G01 Z-0.1000 F100
 X34.3398 Y32.3268 F2000
 X34.5136 Y32.9450
 X34.6802 Y33.4163
 X34.7146 Y33.5358
 X34.2900 Y33.4878
 X34.1659 Y32.6003
 X34.0199 Y31.0733
 G00 Z4.0000
 X32.9822 Y33.8743
 Z0.5000
 G01 Z-0.1000 F100
 X32.9990 Y33.9225 F2000
 X32.9707 Y34.4434
 X32.9455 Y34.4707
 X32.6808 Y34.4870
 X32.5335 Y33.7770
 X32.9822 Y33.8743
 G00 Z4.0000
 X33.6874 Y34.0571
 Z0.5000
 G01 Z-0.1000 F100
 X33.7058 Y34.0824 F2000
 X33.8773 Y34.8839
 X33.6562 Y34.4882
 X33.4430 Y35.8423
 X33.4113 Y35.0325
 X33.4231 Y34.7055
 X33.4629 Y34.4872
 X33.5273 Y34.3055
 X33.6262 Y34.1345
 X33.6874 Y34.0571
 G00 Z4.0000
 X33.6654 Y34.5049
 Z0.5000
 G01 Z-0.1000 F100
 X33.9501 Y35.0270 F2000
 X33.9760 Y35.5545
 X33.9577 Y36.1767
 X33.9194 Y36.4835
 X33.7321 Y37.4615
 X33.4349 Y37.3409
 X33.2712 Y37.3325
 X33.0944 Y37.3626
 X32.9009 Y37.4349
 X33.3236 Y37.1600
 X33.1268 Y36.2909
 X33.4495 Y35.8123
 X33.5388 Y35.2934
 X33.6268 Y34.6076
 X33.6654 Y34.5049
 G00 Z4.0000
 X33.9524 Y35.0452
 Z0.5000
 G01 Z-0.1000 F100
 X34.0005 Y35.0829 F2000
 X34.1192 Y35.2819
 X34.1613 Y35.4411
 X34.1683 Y35.6166
 X34.1382 Y35.8116
 X34.0673 Y36.0278
 X33.9511 Y36.2657
 X33.9734 Y35.4277
 X33.9524 Y35.0452
 G00 Z4.0000
 X34.8964 Y36.4758
 Z0.5000
 G01 Z-0.1000 F100
 X35.0008 Y36.5357 F2000
 X35.7254 Y37.0663
 X35.1116 Y37.4967
 X34.8543 Y37.6193
 X34.5782 Y37.7060
 X34.5898 Y37.4676
 X34.6420 Y37.1516
 X34.7331 Y36.8456
 X34.8600 Y36.5480
 X34.8964 Y36.4758
 G00 Z4.0000
 X33.5183 Y38.6546
 Z0.5000
 G01 Z-0.1000 F100
 X33.2273 Y39.9395 F2000
 X33.1210 Y38.6378
 X33.5183 Y38.6546
 G00 Z4.0000
 X33.9949 Y39.0425
 Z0.5000
 G01 Z-0.1000 F100
 X34.0166 Y39.1721 F2000
 X34.0148 Y39.3519
 X33.9809 Y39.6168
 X33.8262 Y40.3367
 X33.8043 Y40.5080
 X33.8813 Y41.4101
 X33.9283 Y42.3630
 X33.9494 Y44.2691
 X33.9335 Y44.3795
 X33.6631 Y43.7710
 X33.6208 Y43.1965
 X33.6050 Y42.3546
 X33.7127 Y39.7383
 X33.7547 Y39.5797
 X33.9949 Y39.0425
 G00 Z4.0000
 X34.5984 Y39.4497
 Z0.5000
 G01 Z-0.1000 F100
 X34.8081 Y39.5433 F2000
 X35.1858 Y39.7568
 X35.3862 Y39.9196
 X35.4326 Y39.9662
 X35.3190 Y40.0616
 X34.8871 Y40.3319
 X34.3068 Y40.6366
 X34.3182 Y40.4119
 X34.3656 Y40.1082
 X34.4410 Y39.8072
 X34.5557 Y39.4498
 X34.5984 Y39.4497
 G00 Z4.0000
 X38.2194 Y42.3410
 Z0.5000
 G01 Z-0.1000 F100
 G03 X38.6150 Y42.5605 I-0.4088 J1.2026 F2000.0
 G01 X38.8691 Y42.8262 F2000
 X38.9061 Y42.8776
 X38.8797 Y42.9088
 X38.6754 Y42.9867
 X38.5149 Y43.0186
 X38.2900 Y43.0292
 X38.0336 Y43.0044
 X37.7293 Y42.9409
 X37.7218 Y42.8457
 G03 X37.6963 Y42.5153 I252.1063 J-19.5881 F2000.0
 X37.6849 Y42.2796 I1.2561 J-0.1792
 X38.2194 Y42.3410 I0.1257 J1.2640
 G00 Z4.0000
 X37.1019 Y43.9240
 Z0.5000
 G01 Z-0.1000 F100
 X37.1326 Y43.9766 F2000
 X37.1922 Y44.2643
 X37.3616 Y45.5286
 X37.2466 Y45.6760
 X36.8651 Y45.5839
 X36.5050 Y45.4441
 X35.7978 Y45.1265
 X35.9641 Y44.7434
 X36.0961 Y44.5345
 X36.2448 Y44.3527
 X36.4104 Y44.1979
 X36.5953 Y44.0718
 X36.7985 Y43.9806
 X37.0190 Y43.9306
 X37.1019 Y43.9240
 G00 Z4.0000
 X33.8496 Y46.3293
 Z0.5000
 G01 Z-0.1000 F100
 X34.0268 Y46.3988 F2000
 X34.1194 Y46.4810
 X34.1844 Y46.5892
 X34.2253 Y46.7295
 X34.2419 Y46.9146
 X34.2292 Y47.2259
 X34.2060 Y47.3258
 X34.1251 Y47.2120
 X33.9595 Y46.8629
 X33.8886 Y46.5976
 X33.8496 Y46.3293
 G00 Z4.0000
 X33.4010 Y46.7662
 Z0.5000
 G01 Z-0.1000 F100
 X33.4806 Y46.8001 F2000
 X33.5410 Y46.8621
 X33.5774 Y46.9406
 X33.5861 Y47.0244
 X33.5655 Y47.0992
 X33.5131 Y47.1587
 X33.4260 Y47.1930
 X33.3354 Y47.1972
 X33.2542 Y47.1639
 X33.1934 Y47.1024
 X33.1565 Y47.0240
 X33.1471 Y46.9401
 X33.1671 Y46.8651
 X33.2187 Y46.8051
 X33.3049 Y46.7701
 X33.4010 Y46.7662
 G00 Z4.0000
 X32.6997 Y48.2477
 Z0.5000
 G01 Z-0.1000 F100
 X33.0262 Y48.4811 F2000
 X33.3838 Y48.7855
 X33.6678 Y49.0688
 X33.9226 Y49.3763
 X34.0175 Y49.5112
 X34.6151 Y51.8915
 X35.3226 Y54.3104
 X35.3544 Y54.4261
 X34.8469 Y54.1603
 X34.6068 Y53.9984
 X34.3747 Y53.8173
 X34.2735 Y53.4234
 X34.2293 Y53.0768
 X34.2126 Y52.6639
 X34.2211 Y52.1382
 X34.1925 Y52.0977
 X33.4368 Y51.8520
 X33.3783 Y51.8046
 X34.1358 Y51.5480
 X33.5201 Y50.3230
 X33.1985 Y49.7921
 X32.3238 Y48.5215
 X32.1220 Y48.1695
 X31.9967 Y47.8871
 X31.9421 Y47.7062
 X32.6997 Y48.2477
 G00 Z4.0000
 X32.4432 Y49.8884
 Z0.5000
 G01 Z-0.1000 F100
 X33.1187 Y50.3476 F2000
 X33.0526 Y50.3718
 X32.3754 Y50.4121
 X32.4432 Y49.8884
 G00 Z4.0000
 X32.8681 Y51.6528
 Z0.5000
 G01 Z-0.1000 F100
 X32.8927 Y51.7605 F2000
 X32.8922 Y51.8528
 X32.8633 Y51.9169
 X32.8064 Y51.9519
 X32.7176 Y51.9564
 X32.5788 Y51.9199
 X32.5527 Y51.7065
 X32.5840 Y51.6501
 X32.6443 Y51.6214
 X32.7405 Y51.6207
 X32.8681 Y51.6528
 G00 Z4.0000
 X30.8458 Y51.2902
 Z0.5000
 G01 Z-0.1000 F100
 X30.9141 Y51.3545 F2000
 X30.9560 Y51.4418
 X30.9552 Y51.5242
 X30.9189 Y51.5981
 X30.8565 Y51.6551
 X30.7778 Y51.6892
 X30.6938 Y51.6946
 X30.6133 Y51.6660
 X30.5458 Y51.5978
 X30.5044 Y51.5193
 X30.5020 Y51.4351
 X30.5373 Y51.3617
 X30.6000 Y51.3049
 X30.6796 Y51.2704
 X30.7645 Y51.2640
 X30.8458 Y51.2902
 G00 Z4.0000
 X29.4799 Y52.2859
 Z0.5000
 G01 Z-0.1000 F100
 X29.6240 Y52.3724 F2000
 X29.9214 Y52.7644
 X30.8792 Y54.2121
 X30.6515 Y54.4071
 X30.2859 Y54.6596
 X29.9801 Y54.8286
 X29.9414 Y54.7308
 X29.6365 Y53.6429
 X29.5347 Y53.4518
 X29.3894 Y53.2571
 X28.8182 Y52.6973
 X28.5788 Y52.4209
 X28.7931 Y52.3243
 X29.0122 Y52.2558
 X29.1857 Y52.2333
 X29.3357 Y52.2436
 X29.4799 Y52.2859
 G00 Z4.0000
 X28.0978 Y52.7920
 Z0.5000
 G01 Z-0.1000 F100
 X28.3586 Y52.9787 F2000
 X28.6023 Y53.1885
 X28.8270 Y53.4190
 X29.0304 Y53.6677
 X29.2091 Y53.9300
 X29.3033 Y54.1289
 X29.3682 Y54.4925
 X29.4058 Y54.8623
 X29.4004 Y55.1246
 X29.3619 Y55.3628
 X29.2832 Y55.5953
 X29.2398 Y55.6806
 X28.0893 Y55.0540
 X27.4173 Y55.0090
 X26.6709 Y54.9910
 X26.6062 Y54.4197
 X26.5539 Y54.1134
 X26.4602 Y53.7891
 X26.3192 Y53.4339
 X26.1156 Y53.0165
 X25.7696 Y52.3801
 X26.2939 Y52.2884
 X26.6125 Y52.2870
 X26.9268 Y52.3229
 X27.2345 Y52.3937
 X27.5336 Y52.4971
 X27.8221 Y52.6306
 X28.0978 Y52.7920
 G00 Z4.0000
 X29.0819 Y50.5460
 Z0.5000
 G01 Z-0.1000 F100
 X29.4495 Y50.8782 F2000
 X29.7891 Y51.2276
 X30.1012 Y51.5998
 X30.3813 Y51.9961
 X30.7481 Y52.5855
 X30.9223 Y52.7957
 X31.1768 Y53.1690
 X31.3982 Y53.5633
 X31.9099 Y54.6157
 X29.5824 Y51.5113
 X29.0390 Y50.8476
 X28.5292 Y50.2781
 X27.9876 Y49.7341
 X28.6594 Y50.2069
 X29.0819 Y50.5460
 G00 Z4.0000
 X30.1293 Y49.7352
 Z0.5000
 G01 Z-0.1000 F100
 X30.6153 Y49.9352 F2000
 X31.1686 Y50.2050
 X31.3081 Y50.3035
 X31.3732 Y50.3887
 X31.4175 Y50.5016
 X31.4239 Y50.6218
 X31.3930 Y50.7538
 X31.3214 Y50.9000
 X31.2199 Y51.0372
 X30.9117 Y50.9222
 X30.2106 Y50.7301
 X29.9518 Y50.6269
 X29.7576 Y50.5129
 X29.0575 Y49.9050
 X28.5448 Y49.4103
 X28.9366 Y49.4294
 X29.2445 Y49.4803
 X29.6752 Y49.5853
 X30.1293 Y49.7352
 G00 Z4.0000
 X28.9796 Y48.6442
 Z0.5000
 G01 Z-0.1000 F100
 X29.0788 Y48.6626 F2000
 X29.6452 Y48.8060
 X30.2004 Y48.9858
 X30.7422 Y49.2022
 X31.2681 Y49.4553
 X32.1557 Y49.9960
 X32.2321 Y50.0534
 X30.2603 Y49.2809
 X29.5840 Y49.0396
 X29.0885 Y48.8967
 X28.6197 Y48.7963
 X28.1403 Y48.7348
 X27.7645 Y48.7086
 X27.4384 Y48.7141
 X27.2323 Y48.7507
 X27.0394 Y48.8257
 X26.7610 Y49.0523
 X25.8214 Y48.5912
 X25.7582 Y48.5404
 X25.9390 Y48.4874
 X26.4167 Y48.4216
 X26.7813 Y48.4195
 X27.9097 Y48.4832
 X28.5037 Y48.5555
 X28.9796 Y48.6442
 G00 Z4.0000
 X28.9194 Y48.0741
 Z0.5000
 G01 Z-0.1000 F100
 F2000
 G00 Z4.0000
 X30.6983 Y47.1760
 Z0.5000
 G01 Z-0.1000 F100
 F2000
 X31.2270 Y47.7365
 X31.5068 Y48.1031
 X31.7531 Y48.4918
 X32.0063 Y49.0073
 X31.9327 Y48.9699
 X31.5661 Y48.6179
 X31.3199 Y48.3173
 X31.0926 Y47.9782
 X30.8851 Y47.5986
 X30.6983 Y47.1760
 G00 Z4.0000
 X30.3371 Y45.5022
 Z0.5000
 G01 Z-0.1000 F100
 X30.7115 Y45.6727 F2000
 X31.1001 Y45.8916
 X31.5093 Y46.1653
 X31.9497 Y46.5037
 X33.1914 Y47.5828
 X33.5239 Y47.9288
 X33.8519 Y48.4166
 X33.8765 Y48.4666
 X33.8432 Y48.4638
 X33.5895 Y48.3361
 X33.1001 Y48.0001
 X32.2776 Y47.2585
 X31.7657 Y46.8203
 X31.3158 Y46.5304
 X31.0513 Y46.3957
 X30.8581 Y46.3323
 X30.6936 Y46.3093
 X30.5458 Y46.3182
 X30.4080 Y46.3560
 X30.2708 Y46.4261
 X30.1752 Y46.4966
 X30.1178 Y46.4263
 X29.5234 Y45.6423
 X29.2586 Y45.2453
 X29.4572 Y45.2656
 X29.9722 Y45.3758
 X30.3371 Y45.5022
 G00 Z4.0000
 X28.9517 Y45.8497
 Z0.5000
 G01 Z-0.1000 F100
 X29.1713 Y46.0293 F2000
 X29.6077 Y46.4814
 X29.8699 Y46.8249
 X30.1334 Y47.2310
 X30.4161 Y47.7324
 X30.8043 Y48.4914
 X30.8438 Y48.6094
 X29.4121 Y48.1898
 X28.9194 Y48.0741
 X28.9146 Y46.2523
 X28.9517 Y45.8497
 G00 Z4.0000
 X27.8341 Y44.5755
 Z0.5000
 G01 Z-0.1000 F100
 X27.8920 Y44.6129 F2000
 X28.1364 Y44.9836
 X28.2455 Y45.2419
 X28.3266 Y45.5315
 X28.3799 Y45.8615
 X28.4054 Y46.2478
 X28.3942 Y46.9708
 X27.9295 Y46.7026
 X27.5937 Y46.5390
 X27.1251 Y46.3490
 X26.6256 Y46.1887
 X26.0902 Y46.0580
 X25.9269 Y46.0829
 X25.2988 Y46.2814
 X25.0874 Y46.3188
 X24.9223 Y46.3155
 X24.8338 Y46.2848
 X25.2497 Y45.9907
 X26.2358 Y45.3862
 X26.9587 Y45.0010
 X27.8341 Y44.5755
 G00 Z4.0000
 X26.8060 Y46.7417
 Z0.5000
 G01 Z-0.1000 F100
 X26.9513 Y46.7863 F2000
 X27.2160 Y46.9013
 X27.4683 Y47.0447
 X27.7050 Y47.2139
 X27.9232 Y47.4063
 X28.1199 Y47.6196
 X28.2919 Y47.8512
 X28.3505 Y47.9911
 X26.3951 Y47.9895
 X25.7345 Y48.0064
 X25.3017 Y46.8400
 X25.3228 Y46.8072
 X25.8282 Y46.6596
 X26.1125 Y46.6362
 X26.3965 Y46.6512
 X26.6771 Y46.7021
 X26.8060 Y46.7417
 G00 Z4.0000
 X24.4523 Y46.5983
 Z0.5000
 G01 Z-0.1000 F100
 X24.6437 Y46.7584 F2000
 X24.7657 Y46.8982
 X24.9071 Y47.1107
 X25.0443 Y47.3839
 X25.2843 Y47.9982
 X23.5830 Y48.8028
 X23.3755 Y48.1453
 X23.1837 Y47.4594
 X23.2032 Y47.4125
 X24.2503 Y46.6998
 X24.4523 Y46.5983
 G00 Z4.0000
 X23.3208 Y46.5962
 Z0.5000
 G01 Z-0.1000 F100
 X23.0781 Y46.9388 F2000
 X22.9413 Y47.0801
 X21.2585 Y48.4025
 X20.5246 Y49.0259
 X19.9236 Y49.5757
 X19.3546 Y50.1425
 X18.8159 Y50.7364
 X16.6452 Y53.5715
 X16.0554 Y54.4157
 X15.5368 Y55.2166
 X15.0513 Y56.0404
 X13.9882 Y57.9767
 X13.5181 Y58.8963
 X13.1750 Y59.6353
 X12.9010 Y60.2960
 X12.7287 Y60.7873
 X12.4862 Y61.6919
 X12.3036 Y62.1965
 X12.0948 Y62.6908
 X11.8644 Y63.1757
 X11.4143 Y64.8430
 X11.2661 Y65.2663
 X11.0799 Y65.6761
 X11.2986 Y64.5464
 X11.9813 Y61.9809
 X12.5471 Y60.8426
 X12.8423 Y60.1251
 X13.3372 Y58.7920
 X13.6947 Y57.9914
 X14.1336 Y57.0999
 X14.6382 Y56.1617
 X15.2025 Y55.1889
 X15.7915 Y54.2326
 X16.8498 Y52.7613
 X17.4913 Y51.8088
 X17.8731 Y51.2760
 X18.2861 Y50.7688
 X18.8507 Y50.2086
 X19.0649 Y50.0208
 X20.2565 Y48.6958
 X20.6199 Y48.3689
 X21.7800 Y47.4703
 X22.6708 Y46.7361
 X22.8112 Y46.6785
 X23.2252 Y46.6004
 X23.3208 Y46.5962
 G00 Z4.0000
 X22.2757 Y46.4139
 Z0.5000
 G01 Z-0.1000 F100
 X22.1949 Y46.5408 F2000
 X21.9471 Y46.8147
 X21.7767 Y46.9400
 X21.5875 Y47.0340
 X21.3805 Y47.0917
 X21.5220 Y46.7729
 X21.6607 Y46.5106
 X22.2757 Y46.4139
 G00 Z4.0000
 X22.8084 Y47.9056
 Z0.5000
 G01 Z-0.1000 F100
 X22.8242 Y47.9625 F2000
 X22.9498 Y48.6008
 X22.9711 Y48.8796
 X22.9514 Y48.9900
 X22.6841 Y49.0148
 X22.4219 Y49.0617
 X22.0561 Y49.1604
 X21.6509 Y49.3074
 X20.6012 Y49.7850
 X20.8592 Y49.3773
 X21.0861 Y49.1076
 X21.3589 Y48.8428
 X21.6844 Y48.5795
 X22.0737 Y48.3119
 X22.7097 Y47.9391
 X22.8084 Y47.9056
 G00 Z4.0000
 X23.6012 Y49.8778
 Z0.5000
 G01 Z-0.1000 F100
 X23.8044 Y50.0197 F2000
 X23.9952 Y50.2000
 X24.1731 Y50.4212
 X24.3367 Y50.6856
 X24.4830 Y50.9941
 X24.6549 Y51.5118
 X24.6833 Y51.6281
 X23.7032 Y51.6175
 X23.3046 Y51.6385
 X23.0272 Y51.6867
 X22.5303 Y51.8562
 X21.9564 Y52.0216
 X21.8659 Y51.3787
 X21.7983 Y51.0123
 X21.7263 Y50.8178
 X21.3621 Y50.2596
 X21.3165 Y50.1348
 X21.3148 Y50.0414
 X21.3437 Y49.9585
 X21.3916 Y49.8920
 X21.4918 Y49.8348
 X22.0797 Y49.6830
 X22.4000 Y49.6363
 X22.6692 Y49.6275
 X22.9108 Y49.6490
 X23.3824 Y49.7715
 X23.6012 Y49.8778
 G00 Z4.0000
 X25.8368 Y49.1467
 Z0.5000
 G01 Z-0.1000 F100
 X26.1091 Y49.2539 F2000
 X26.4589 Y49.4300
 X27.3767 Y49.9801
 X27.5946 Y50.1468
 X27.7748 Y50.3226
 X27.9362 Y50.5192
 X28.0731 Y50.7303
 X28.1812 Y50.9488
 X28.2583 Y51.1687
 X28.3043 Y51.3851
 X28.3199 Y51.5951
 X28.3064 Y51.7971
 X28.2632 Y51.9956
 X28.2061 Y52.1029
 X27.5977 Y51.9533
 X26.9382 Y51.7350
 X26.7262 Y51.6844
 X26.4977 Y51.6719
 X26.2484 Y51.6955
 X25.9650 Y51.7582
 X25.2094 Y52.0045
 X25.1480 Y51.8227
 X24.8490 Y50.7077
 X24.5722 Y50.2533
 X24.0131 Y49.5472
 X23.7523 Y49.1894
 X24.5530 Y49.0212
 X24.8651 Y48.9863
 X25.1167 Y48.9932
 X25.4618 Y49.0415
 X25.7926 Y49.1293
 X25.8368 Y49.1467
 G00 Z4.0000
 X24.0265 Y52.2030
 Z0.5000
 G01 Z-0.1000 F100
 X24.7229 Y52.3698 F2000
 X24.9741 Y52.5022
 X25.1970 Y52.6641
 X25.4019 Y52.8606
 X25.5903 Y53.0947
 X25.7631 Y53.3704
 X25.9205 Y53.6929
 X26.0627 Y54.0686
 X26.1859 Y54.4893
 X25.9756 Y54.9774
 X25.6034 Y54.7624
 X25.3439 Y54.6625
 X25.0580 Y54.5932
 X24.7370 Y54.5541
 X24.3659 Y54.5456
 X23.1931 Y54.6308
 X22.7345 Y53.0410
 X22.4849 Y52.3768
 X23.5046 Y52.1043
 X23.7685 Y52.1412
 X24.0265 Y52.2030
 G00 Z4.0000
 X21.6531 Y52.3300
 Z0.5000
 G01 Z-0.1000 F100
 X21.8268 Y52.4366 F2000
 X21.9844 Y52.5786
 X22.1271 Y52.7591
 X22.2548 Y52.9822
 X22.3662 Y53.2525
 X22.4586 Y53.5735
 X22.5539 Y54.1445
 X22.5633 Y54.2740
 X21.9963 Y54.2055
 X21.3660 Y54.1867
 X21.1430 Y54.2315
 X20.9011 Y54.3175
 X20.2416 Y54.6617
 X19.7710 Y54.8843
 X19.7437 Y54.6366
 X19.6673 Y54.2939
 X19.5535 Y53.9645
 X19.3926 Y53.6128
 X18.8670 Y52.7094
 X19.3099 Y52.4550
 X19.6637 Y52.2880
 X19.9678 Y52.1778
 X20.2403 Y52.1103
 X20.4993 Y52.0778
 X20.7591 Y52.0809
 X21.0180 Y52.1249
 X21.6531 Y52.3300
 G00 Z4.0000
 X20.4941 Y50.3632
 Z0.5000
 G01 Z-0.1000 F100
 X20.7911 Y50.4562 F2000
 X20.9269 Y50.5500
 X21.0479 Y50.6797
 X21.1572 Y50.8514
 X21.2587 Y51.0787
 X21.3647 Y51.4060
 X21.3901 Y51.5842
 X20.9753 Y51.6181
 X20.1936 Y51.6346
 X19.7932 Y51.6678
 X19.3541 Y51.8521
 X18.2462 Y52.5301
 X18.3744 Y52.1836
 X18.5221 Y51.9099
 X18.7191 Y51.6223
 X19.6962 Y50.4853
 X19.8093 Y50.3946
 X19.9387 Y50.3405
 X20.0941 Y50.3159
 X20.2797 Y50.3227
 X20.4941 Y50.3632
 G00 Z4.0000
 X19.9925 Y48.1799
 Z0.5000
 G01 Z-0.1000 F100
 X20.0170 Y48.2877 F2000
 X20.0165 Y48.3800
 X19.9875 Y48.4440
 X19.9306 Y48.4790
 X19.8419 Y48.4835
 X19.7032 Y48.4469
 X19.6770 Y48.2335
 X19.7083 Y48.1772
 X19.7686 Y48.1485
 X19.8648 Y48.1478
 X19.9925 Y48.1799
 G00 Z4.0000
 X16.9266 Y50.4950
 Z0.5000
 G01 Z-0.1000 F100
 X17.0576 Y51.6146 F2000
 X16.7046 Y51.5978
 X16.6965 Y50.9049
 X16.6708 Y50.4801
 X16.9266 Y50.4950
 G00 Z4.0000
 X16.1345 Y48.9871
 Z0.5000
 G01 Z-0.1000 F100
 X16.2404 Y49.5443 F2000
 X16.3015 Y50.4898
 X16.3399 Y52.1348
 X16.3482 Y52.2509
 X16.1536 Y51.9991
 X15.8702 Y51.4902
 X15.5187 Y50.6325
 X15.6147 Y50.1709
 X15.7279 Y49.7894
 X15.8784 Y49.4227
 X16.1014 Y49.0346
 X16.1345 Y48.9871
 G00 Z4.0000
 X15.7552 Y53.2655
 Z0.5000
 G01 Z-0.1000 F100
 X15.8292 Y53.3127 F2000
 X15.8774 Y53.3893
 X15.8850 Y53.4708
 X15.8564 Y53.5538
 X15.7929 Y53.6288
 X15.7058 Y53.6842
 X15.6062 Y53.7146
 X15.5091 Y53.7151
 X15.4206 Y53.6830
 X15.3493 Y53.6137
 X15.3144 Y53.5028
 X15.3300 Y53.4191
 X15.3828 Y53.3427
 X15.4628 Y53.2852
 X15.5595 Y53.2508
 X15.6623 Y53.2436
 X15.7552 Y53.2655
 G00 Z4.0000
 X15.3493 Y53.6137
 Z0.5000
 G01 Z-0.1000 F100
 F2000
 G00 Z4.0000
 X15.1057 Y54.4423
 Z0.5000
 G01 Z-0.1000 F100
 X14.8571 Y54.9856 F2000
 X14.6634 Y55.3309
 X14.4635 Y55.6194
 X14.2311 Y55.8838
 X14.2687 Y54.9066
 X14.3141 Y54.4583
 X15.1057 Y54.4423
 G00 Z4.0000
 X16.0165 Y55.8204
 Z0.5000
 G01 Z-0.1000 F100
 X16.0603 Y56.2683 F2000
 X15.9932 Y56.3104
 X15.3493 Y56.4770
 Y56.1421
 X15.4356 Y56.0763
 X16.0165 Y55.8204
 G00 Z4.0000
 X18.0081 Y56.9499
 Z0.5000
 G01 Z-0.1000 F100
 X18.2367 Y57.1050 F2000
 X18.4767 Y57.3123
 X18.7472 Y57.5924
 X19.1655 Y58.0726
 X19.1459 Y58.0907
 X18.2250 Y58.2465
 X17.7521 Y58.3672
 X17.2917 Y58.5204
 X16.8471 Y58.7105
 X16.1315 Y59.1354
 X16.0759 Y59.1763
 X16.0476 Y59.1600
 X15.9499 Y58.9887
 X15.6795 Y58.6551
 X15.0739 Y58.0241
 X14.9322 Y57.8210
 X14.8240 Y57.5953
 G03 X16.3811 Y56.7210 I2.0274 J1.7870 F2000.0
 G01 X16.6770 Y56.6865 F2000
 X16.9758 Y56.6868
 X17.5402 Y56.7629
 X17.7828 Y56.8384
 X18.0081 Y56.9499
 G00 Z4.0000
 X19.5616 Y55.3595
 Z0.5000
 G01 Z-0.1000 F100
 X19.8107 Y55.4233 F2000
 X20.0889 Y55.6134
 X20.3196 Y55.8181
 X20.5449 Y56.0687
 X20.7617 Y56.3668
 X21.0177 Y56.8049
 X21.0709 Y56.9088
 X20.0646 Y57.5885
 X19.6779 Y57.7927
 X19.5769 Y57.8227
 X19.0264 Y57.1770
 X18.7393 Y56.8989
 X18.4765 Y56.6859
 X18.2257 Y56.5203
 X17.9666 Y56.3871
 X17.6914 Y56.2864
 X17.3992 Y56.2230
 X17.3400 Y55.9109
 X17.3574 Y55.8465
 X17.5614 Y55.7028
 X17.8231 Y55.5590
 X18.0971 Y55.4483
 X18.3810 Y55.3698
 X18.6720 Y55.3226
 X18.9675 Y55.3057
 X19.2650 Y55.3183
 X19.5616 Y55.3595
 G00 Z4.0000
 X18.2160 Y53.0456
 Z0.5000
 G01 Z-0.1000 F100
 X18.3930 Y53.1381 F2000
 X18.5610 Y53.2692
 X18.7221 Y53.4431
 X18.8779 Y53.6660
 X19.0292 Y53.9454
 X19.2494 Y54.4790
 X19.2680 Y54.5651
 X18.6680 Y54.6908
 X18.2552 Y54.8091
 X17.9437 Y54.9304
 X17.6549 Y55.0807
 X17.4273 Y55.2411
 X16.7385 Y55.9015
 X16.3100 Y55.4410
 X16.1897 Y55.2647
 X16.1539 Y55.1555
 X16.3025 Y54.8662
 X16.7221 Y54.1696
 X17.0096 Y53.7792
 X17.3266 Y53.4167
 X17.6980 Y53.0701
 X17.8068 Y52.9827
 X17.9302 Y52.9755
 X18.2160 Y53.0456
 G00 Z4.0000
 X23.0598 Y55.0634
 Z0.5000
 G01 Z-0.1000 F100
 X23.2212 Y55.1778 F2000
 X23.3501 Y55.3154
 X23.5012 Y55.5161
 X23.6474 Y55.7708
 X23.7682 Y56.0589
 X23.8628 Y56.3834
 X23.9302 Y56.7526
 X23.9688 Y57.2224
 X23.9723 Y57.4036
 X23.0742 Y57.0539
 X22.6740 Y56.9319
 X22.3073 Y56.8518
 X21.9327 Y56.8057
 X21.5498 Y56.7991
 X21.0633 Y56.0274
 X20.4870 Y55.1990
 X20.4387 Y55.1164
 X20.5613 Y55.0306
 X20.9059 Y54.8556
 X21.1698 Y54.7745
 X21.4520 Y54.7286
 X21.7529 Y54.7190
 X22.0715 Y54.7479
 X22.4054 Y54.8172
 X22.7390 Y54.9245
 X23.0598 Y55.0634
 G00 Z4.0000
 X24.9862 Y55.0477
 Z0.5000
 G01 Z-0.1000 F100
 X25.1824 Y55.1189 F2000
 X25.4433 Y55.2612
 X25.6914 Y55.4284
 X25.9179 Y55.6151
 X26.1182 Y55.8168
 X26.2892 Y56.0291
 X26.4295 Y56.2485
 X26.5390 Y56.4723
 X26.6182 Y56.6989
 X26.6678 Y56.9271
 X26.6885 Y57.1576
 X26.6772 Y57.3561
 X26.1812 Y57.2193
 X25.4326 Y57.0991
 X24.9476 Y57.0733
 X24.4470 Y57.0870
 X24.3345 Y56.5308
 X23.8737 Y55.0705
 X24.6934 Y55.0322
 X24.9862 Y55.0477
 G00 Z4.0000
 X26.2879 Y57.7696
 Z0.5000
 G01 Z-0.1000 F100
 X26.5667 Y57.8320 F2000
 X26.6072 Y58.3316
 X26.5990 Y58.5476
 X26.5665 Y58.6949
 X26.3902 Y58.8625
 X25.9105 Y59.2168
 X25.4344 Y59.4975
 X25.3089 Y59.3158
 X24.7217 Y58.2589
 X24.5317 Y57.8155
 X25.0772 Y57.7168
 X25.4511 Y57.6998
 X25.8628 Y57.7186
 X26.2879 Y57.7696
 G00 Z4.0000
 X27.5077 Y57.8902
 Z0.5000
 G01 Z-0.1000 F100
 X27.7752 Y58.6850 F2000
 X27.9288 Y58.9785
 X28.0136 Y59.0712
 X28.9753 Y59.1411
 X29.3463 Y59.2056
 X29.5339 Y59.2624
 X29.7133 Y59.3593
 X29.9081 Y59.5015
 X30.1253 Y59.7031
 X30.6670 Y60.2916
 X30.4143 Y60.2324
 X29.9550 Y60.0137
 X29.2922 Y59.5941
 X28.9734 Y59.5021
 X27.8547 Y59.3978
 X27.5599 Y59.3375
 X27.3432 Y59.1585
 X27.0761 Y58.8768
 X27.0144 Y58.7789
 X27.4143 Y57.9983
 X27.5077 Y57.8902
 G00 Z4.0000
 X29.4800 Y57.4562
 Z0.5000
 G01 Z-0.1000 F100
 X29.8172 Y57.6275 F2000
 X30.1572 Y57.7639
 X30.3353 Y57.8814
 X30.5091 Y58.0405
 X31.2289 Y58.9695
 X31.3343 Y59.1413
 X30.9110 Y59.7672
 X30.7475 Y59.6632
 X29.9484 Y59.0101
 X29.6142 Y58.7982
 X29.1438 Y58.7371
 X28.2741 Y58.7105
 X28.0288 Y58.2032
 X28.5864 Y57.7521
 X28.8755 Y57.5626
 X29.0989 Y57.4542
 X29.2431 Y57.4147
 X29.3539 Y57.4199
 X29.4800 Y57.4562
 G00 Z4.0000
 X27.9917 Y55.7248
 Z0.5000
 G01 Z-0.1000 F100
 G03 X28.9514 Y56.2950 I-0.9881 J2.7556 F2000.0
 G01 X29.0093 Y56.3716 F2000
 X28.7050 Y56.6440
 X28.1995 Y56.9671
 X27.3270 Y57.4091
 X26.6651 Y55.7002
 X26.6311 Y55.5771
 G03 X27.0110 Y55.5530 I0.3747 J2.9024 F2000.0
 X27.9917 Y55.7248 I-0.0074 J2.9274
 G00 Z4.0000
 X31.4729 Y54.7071
 Z0.5000
 G01 Z-0.1000 F100
 X31.3881 Y54.8310 F2000
 X31.1671 Y55.0452
 X30.4248 Y55.5158
 X30.2166 Y55.6779
 X30.0894 Y55.8162
 X30.0008 Y55.9594
 X29.9421 Y56.1244
 X29.9186 Y56.3152
 X29.9272 Y56.5167
 X29.9709 Y56.6793
 X30.0487 Y56.8220
 X30.1632 Y56.9529
 X30.3214 Y57.0775
 X31.2203 Y57.5445
 X31.8055 Y58.3756
 X31.2111 Y58.3918
 X31.0029 Y58.0075
 X30.8099 Y57.7009
 X30.6736 Y57.5478
 X30.5403 Y57.4431
 X30.3859 Y57.3666
 X30.2070 Y57.3242
 X29.8131 Y57.1490
 X29.6406 Y57.0277
 X29.5101 Y56.9006
 X29.4198 Y56.7724
 X29.3652 Y56.6447
 X29.3420 Y56.5170
 X29.3485 Y56.3856
 X29.4001 Y56.2354
 X29.5845 Y55.9620
 X29.7932 Y55.7029
 X30.0184 Y55.4685
 X30.2556 Y55.2624
 X30.5011 Y55.0868
 X30.7520 Y54.9423
 X31.0060 Y54.8287
 X31.2638 Y54.7449
 X31.4729 Y54.7071
 G00 Z4.0000
 X31.7042 Y55.4654
 Z0.5000
 G01 Z-0.1000 F100
 X32.0078 Y55.7271 F2000
 X32.1805 Y55.9136
 X32.4066 Y56.2069
 X32.6102 Y56.5272
 X32.7242 Y56.7347
 X32.7474 Y56.8830
 X32.7161 Y57.2242
 X32.6160 Y57.7185
 X32.5824 Y57.7516
 X31.8504 Y57.7989
 X31.7890 Y57.6370
 X31.6776 Y57.4464
 X31.5385 Y57.2856
 X31.3621 Y57.1392
 X31.1378 Y57.0007
 X30.3622 Y56.6530
 X30.2785 Y56.5804
 X30.3421 Y56.3396
 X30.4322 Y56.1702
 X30.5594 Y56.0131
 X30.7269 Y55.8670
 X30.9385 Y55.7325
 X31.1892 Y55.6153
 X31.4496 Y55.5250
 X31.7042 Y55.4654
 G00 Z4.0000
 X33.0194 Y56.0346
 Z0.5000
 G01 Z-0.1000 F100
 X33.4842 Y56.3949 F2000
 X34.0044 Y56.8648
 X35.1085 Y57.9460
 X35.1997 Y58.0744
 X34.8982 Y57.9035
 X34.6110 Y57.7160
 X34.2270 Y57.4253
 X33.8407 Y57.0850
 X33.4431 Y56.6846
 X33.0194 Y56.2062
 Y56.1991
 Y56.0346
 G00 Z4.0000
 X33.9353 Y57.7806
 Z0.5000
 G01 Z-0.1000 F100
 X34.0038 Y57.8054 F2000
 X34.2280 Y58.0896
 X34.1745 Y58.1131
 X33.6122 Y58.1714
 Y58.1615
 Y57.7752
 X33.9353 Y57.7806
 G00 Z4.0000
 X34.7941 Y58.7768
 Z0.5000
 G01 Z-0.1000 F100
 X35.1978 Y58.8519 F2000
 X35.5945 Y58.9602
 X35.9822 Y59.1049
 X36.3591 Y59.2889
 X36.9812 Y59.6382
 X37.3020 Y59.8444
 X37.4764 Y59.9963
 X37.6132 Y60.1606
 X37.7210 Y60.3543
 X36.6406 Y59.9248
 X35.5269 Y59.5268
 X35.0304 Y59.4356
 X34.6016 Y59.4005
 X33.4505 Y59.3772
 X33.1275 Y59.3591
 X33.0133 Y59.3092
 X32.7599 Y59.1173
 X32.4809 Y58.8289
 X33.4451 Y58.7261
 X33.9324 Y58.7138
 X34.3799 Y58.7315
 X34.7941 Y58.7768
 G00 Z4.0000
 X33.9005 Y60.3401
 Z0.5000
 G01 Z-0.1000 F100
 X34.2730 Y60.6473 F2000
 X34.5980 Y60.9683
 X35.9631 Y62.5703
 X36.2612 Y62.8741
 X36.5649 Y63.1278
 X36.8898 Y63.3504
 X37.2869 Y63.5789
 X39.0902 Y64.4182
 X38.3878 Y64.2544
 X37.9288 Y64.0965
 X37.4745 Y63.8985
 X37.0258 Y63.6600
 X36.5839 Y63.3805
 X36.1506 Y63.0597
 X35.7284 Y62.6980
 X35.3200 Y62.2963
 X34.9289 Y61.8562
 X34.5592 Y61.3808
 X34.2151 Y60.8741
 X33.9005 Y60.3401
 G00 Z4.0000
 X31.8504 Y57.7989
 Z0.5000
 G01 Z-0.1000 F100
 F2000
 G00 Z4.0000
 X30.0062 Y60.5364
 Z0.5000
 G01 Z-0.1000 F100
 X30.0775 Y60.6596 F2000
 X30.1290 Y60.7906
 X30.1700 Y60.9868
 X30.1753 Y61.2020
 X30.1421 Y61.4320
 X30.0684 Y61.6686
 X29.9577 Y61.8953
 X29.8159 Y62.0992
 X29.6480 Y62.2715
 X29.8166 Y61.4902
 X29.9720 Y60.6104
 X30.0062 Y60.5364
 G00 Z4.0000
 X29.1984 Y60.0859
 Z0.5000
 G01 Z-0.1000 F100
 X29.2829 Y60.3057 F2000
 X29.5693 Y61.3400
 X29.2670 Y61.8574
 X29.2065 Y61.9037
 X28.8478 Y61.9472
 X28.4249 Y61.3822
 X28.2846 Y61.2443
 X28.1477 Y61.1565
 X27.6444 Y60.9969
 X27.2002 Y60.8960
 X26.3041 Y60.7455
 X26.2065 Y60.7190
 X26.1896 Y60.6080
 X26.2171 Y60.3289
 X26.2779 Y60.1691
 X26.3669 Y60.0227
 X26.4800 Y59.8943
 X26.6129 Y59.7884
 X26.7614 Y59.7097
 X26.9213 Y59.6625
 X27.0882 Y59.6516
 X27.2581 Y59.6813
 X27.8903 Y59.8904
 X28.2804 Y59.9650
 X29.1984 Y60.0859
 G00 Z4.0000
 X27.7219 Y61.4191
 Z0.5000
 G01 Z-0.1000 F100
 X27.8863 Y61.4892 F2000
 X28.0261 Y61.5910
 X28.1589 Y61.7334
 X28.6032 Y62.4574
 X28.0512 Y61.9640
 X27.7950 Y61.6858
 X27.5641 Y61.3901
 X27.7219 Y61.4191
 G00 Z4.0000
 X27.2039 Y61.8625
 Z0.5000
 G01 Z-0.1000 F100
 X27.3866 Y61.9180 F2000
 G03 X27.9634 Y62.7823 I-1.0189 J1.3046 F2000.0
 G01 X28.0114 Y63.0160 F2000
 X28.0270 Y63.2558
 X28.0098 Y63.4981
 X27.9596 Y63.7393
 X27.9013 Y63.8684
 X27.6938 Y63.8967
 X27.5461 Y63.8923
 X27.3436 Y63.8535
 X27.1318 Y63.7751
 X26.8981 Y63.6505
 X26.2258 Y63.2032
 X25.9019 Y63.1627
 X24.6440 Y63.1283
 X24.5544 Y63.1188
 X24.5316 Y63.0080
 X24.5429 Y62.6962
 X24.5893 Y62.5074
 X24.6627 Y62.3272
 X24.7607 Y62.1603
 X24.8807 Y62.0119
 X25.0203 Y61.8870
 X25.1769 Y61.7904
 X25.3481 Y61.7271
 X25.5315 Y61.7022
 X26.1048 Y61.7859
 X26.8370 Y61.8201
 X27.2039 Y61.8625
 G00 Z4.0000
 X26.1634 Y63.6734
 Z0.5000
 G01 Z-0.1000 F100
 X26.3670 Y63.7823 F2000
 X26.5589 Y63.9168
 X26.7353 Y64.0689
 X25.1753 Y63.6942
 X25.3655 Y63.6085
 X25.5552 Y63.5662
 X25.7489 Y63.5626
 X25.9506 Y63.5974
 X26.1634 Y63.6734
 G00 Z4.0000
 X26.3766 Y64.5847
 Z0.5000
 G01 Z-0.1000 F100
 G03 X26.7560 Y64.7911 I-1.3783 J2.9846 F2000.0
 G01 X27.0421 Y64.9948 F2000
 X27.2756 Y65.2083
 X27.2513 Y65.7969
 X26.7285 Y65.9613
 X25.5818 Y65.2871
 X25.2942 Y65.2912
 X23.9982 Y65.4194
 X23.8517 Y65.4032
 X23.8270 Y64.7797
 X23.8367 Y64.5256
 X23.9308 Y64.4852
 G03 X24.4101 Y64.3423 I1.0438 J2.6277 F2000.0
 X25.0932 Y64.2832 I0.6000 J2.9549
 X26.3766 Y64.5847 I-0.0949 J3.2861
 G00 Z4.0000
 X27.8778 Y65.1147
 Z0.5000
 G01 Z-0.1000 F100
 X27.9057 Y65.2293 F2000
 G03 X27.9366 Y65.8177 I-3.0756 J0.4565 F2000.0
 X27.8547 Y66.2704 I-1.6784 J-0.0698
 X27.2363 Y66.9238 I-1.0004 J-0.3275
 G01 X27.0956 Y66.9489 F2000
 X26.9486 Y66.9368
 X26.7874 Y66.8862
 X26.6012 Y66.7909
 X26.0564 Y66.4390
 X26.1201 Y66.1194
 X26.1455 Y66.1123
 X26.5246 Y66.3611
 X26.7434 Y66.4740
 X26.8832 Y66.5105
 X27.0056 Y66.5085
 X27.1252 Y66.4658
 X27.3760 Y66.2729
 X27.4952 Y66.1406
 X27.5814 Y65.9868
 X27.8513 Y65.1654
 X27.8778 Y65.1147
 G00 Z4.0000
 X28.6108 Y63.9821
 Z0.5000
 G01 Z-0.1000 F100
 X28.2835 Y64.3771 F2000
 X28.0764 Y64.5778
 X27.9149 Y64.6893
 X27.7874 Y64.7412
 X27.4710 Y64.6365
 X27.1406 Y64.4906
 X28.0517 Y64.2014
 X28.6108 Y63.9821
 G00 Z4.0000
 X27.0960 Y67.4917
 Z0.5000
 G01 Z-0.1000 F100
 X27.1385 Y67.5808 F2000
 X27.2260 Y68.0556
 X27.2335 Y68.2971
 X27.2086 Y68.5044
 X27.1471 Y68.7062
 X26.8910 Y69.1713
 X26.7505 Y69.3548
 X26.6243 Y69.4696
 X26.5058 Y69.5378
 X26.3837 Y69.5712
 X26.2509 Y69.5682
 X25.7345 Y69.4373
 X26.4009 Y69.0896
 X26.6140 Y68.9437
 X26.7505 Y68.8334
 X26.8588 Y68.6941
 X26.9317 Y68.5368
 X26.9827 Y68.3406
 X27.0591 Y67.6690
 X27.0960 Y67.4917
 G00 Z4.0000
 X25.5639 Y66.5941
 Z0.5000
 G01 Z-0.1000 F100
 X25.6723 Y66.6133 F2000
 X25.8426 Y66.6734
 X26.0952 Y66.8731
 X26.2463 Y67.0513
 X26.3705 Y67.2577
 X26.4672 Y67.4945
 X26.5303 Y67.7456
 X26.5621 Y68.0059
 X26.5644 Y68.2703
 X26.5418 Y68.4741
 X26.0563 Y68.6046
 X25.8632 Y68.6146
 X25.6901 Y68.5904
 X25.5245 Y68.5264
 X25.2621 Y68.3421
 X25.0514 Y68.2327
 X24.8319 Y68.1630
 X24.5943 Y68.1279
 X24.3349 Y68.1285
 X24.0500 Y68.1673
 X23.7351 Y68.2479
 X23.3857 Y68.3750
 X22.9898 Y68.5566
 X22.9693 Y68.5276
 X22.6032 Y68.0771
 X23.0212 Y67.3333
 X23.2530 Y66.9589
 X23.7044 Y66.9137
 X24.9755 Y66.5968
 X25.2425 Y66.5697
 X25.4676 Y66.5770
 X25.5639 Y66.5941
 G00 Z4.0000
 X24.5642 Y68.5533
 Z0.5000
 G01 Z-0.1000 F100
 X24.7042 Y68.5821 F2000
 X24.8573 Y68.6496
 X25.2422 Y68.9140
 X25.3142 Y68.9787
 X24.6256 Y68.9506
 X24.3923 Y68.9778
 X24.2039 Y69.0315
 X23.9839 Y69.1269
 X23.7041 Y69.2083
 X23.4166 Y69.2509
 X23.0823 Y69.2642
 X22.1935 Y69.2172
 X22.0539 Y68.3542
 X22.0613 Y68.2508
 X22.4792 Y68.7189
 X22.6243 Y68.8452
 X22.7527 Y68.9126
 X23.1897 Y68.9763
 X23.3768 Y68.9505
 X23.5842 Y68.8859
 X24.2029 Y68.6174
 X24.4096 Y68.5602
 X24.5642 Y68.5533
 G00 Z4.0000
 X25.4094 Y69.6449
 Z0.5000
 G01 Z-0.1000 F100
 X25.5907 Y69.7505 F2000
 X25.7521 Y69.8844
 X25.8912 Y70.0424
 X26.0054 Y70.2200
 X26.0925 Y70.4129
 X26.1500 Y70.6169
 X26.1755 Y70.8274
 X26.1666 Y71.0401
 X26.1235 Y71.1393
 X25.9518 Y71.2729
 X25.8301 Y71.3095
 X25.6981 Y71.3096
 X25.5473 Y71.2725
 X24.5669 Y70.7615
 X24.3920 Y70.7181
 X24.2061 Y70.7111
 X24.0008 Y70.7409
 X23.7636 Y70.8120
 X22.9302 Y71.1690
 X22.7488 Y71.2274
 X22.6349 Y71.2303
 X22.3637 Y70.8855
 X22.2863 Y70.7435
 X22.2568 Y70.6166
 X22.2675 Y70.4884
 X22.3152 Y70.3547
 X22.5396 Y69.9671
 X22.8365 Y69.9512
 X23.4835 Y69.8141
 X24.1196 Y69.6070
 X24.4554 Y69.5286
 X24.7107 Y69.5035
 X24.9700 Y69.5191
 X25.2105 Y69.5722
 X25.4094 Y69.6449
 G00 Z4.0000
 X24.7857 Y70.8774
 Z0.5000
 G01 Z-0.1000 F100
 F2000
 G00 Z4.0000
 X24.5808 Y71.2508
 Z0.5000
 G01 Z-0.1000 F100
 X24.7582 Y71.2840 F2000
 X24.9217 Y71.3443
 X25.0789 Y71.4342
 X25.1753 Y71.5216
 X24.9524 Y71.5326
 X24.4557 Y71.6140
 X23.2900 Y71.9209
 X22.9151 Y71.9869
 X22.6193 Y72.0077
 X22.3740 Y71.9980
 X22.1827 Y71.9542
 X22.0550 Y71.8660
 X21.9433 Y71.7614
 X21.8170 Y71.5962
 X21.7169 Y71.4012
 X21.6473 Y71.1800
 X21.6130 Y70.9399
 X21.6177 Y70.6914
 X21.9969 Y71.2037
 X22.1954 Y71.4344
 X22.3403 Y71.5528
 X22.4778 Y71.6268
 X22.6183 Y71.6685
 X22.7755 Y71.6811
 X22.9620 Y71.6518
 X23.7920 Y71.3715
 X24.1443 Y71.2770
 X24.3816 Y71.2465
 X24.5808 Y71.2508
 G00 Z4.0000
 X25.0629 Y72.3128
 Z0.5000
 G01 Z-0.1000 F100
 X25.2949 Y72.4440 F2000
 X25.5106 Y72.6047
 X25.7068 Y72.7863
 X25.8490 Y72.9624
 X25.8950 Y73.1324
 X25.9179 Y73.3047
 X25.9183 Y73.5532
 X25.8844 Y73.8458
 X25.8067 Y74.2603
 X25.7209 Y74.2943
 X24.9789 Y74.3338
 X23.9519 Y74.3144
 X23.7113 Y74.3382
 X23.0901 Y74.6238
 X22.8607 Y74.6843
 X22.6416 Y74.7070
 X22.4141 Y74.6895
 X22.2592 Y74.5065
 X22.1931 Y74.3554
 X22.1564 Y74.1775
 X22.1502 Y73.9649
 X22.1784 Y73.7023
 X22.2571 Y73.3123
 X22.2971 Y73.1733
 X22.3942 Y73.0050
 X22.5272 Y72.8486
 X22.6936 Y72.7118
 X22.8997 Y72.5911
 X23.1556 Y72.4838
 X23.4795 Y72.3847
 X24.4101 Y72.1729
 X24.6213 Y72.1801
 X24.8387 Y72.2261
 X25.0629 Y72.3128
 G00 Z4.0000
 X26.7106 Y71.5354
 Z0.5000
 G01 Z-0.1000 F100
 X26.5399 Y72.0166 F2000
 X26.4620 Y72.1449
 X26.3797 Y72.2214
 X26.2739 Y72.2720
 X26.1047 Y72.3111
 X25.9409 Y72.3121
 X25.7898 Y72.2745
 X25.6353 Y72.1978
 X24.9892 Y71.6568
 X25.4151 Y71.7255
 X25.6980 Y71.7359
 X25.9758 Y71.7179
 X26.2478 Y71.6720
 X26.7106 Y71.5354
 G00 Z4.0000
 X26.3210 Y74.5050
 Z0.5000
 G01 Z-0.1000 F100
 X26.1055 Y74.9371 F2000
 X26.0181 Y75.0583
 X25.2094 Y74.8758
 X26.3210 Y74.5050
 G00 Z4.0000
 X26.2827 Y75.7063
 Z0.5000
 G01 Z-0.1000 F100
 X26.3162 Y76.0451 F2000
 X26.3384 Y76.7908
 X26.3179 Y77.1975
 X26.2930 Y77.3258
 X26.2316 Y77.4374
 X26.1351 Y77.5461
 X26.0107 Y77.6303
 X25.8540 Y77.6915
 X25.0132 Y77.8051
 X24.6637 Y77.8848
 X24.4263 Y77.9871
 X23.7718 Y78.3952
 X23.3796 Y78.6199
 X23.5580 Y78.4009
 X23.7840 Y78.1908
 X24.0328 Y78.0134
 X24.3264 Y77.8500
 X24.6803 Y77.6948
 X25.8154 Y77.3114
 X25.8589 Y77.2699
 X25.8701 Y77.2176
 X26.1837 Y75.9425
 X26.2827 Y75.7063
 G00 Z4.0000
 X25.1016 Y75.3618
 Z0.5000
 G01 Z-0.1000 F100
 X25.3242 Y75.4266 F2000
 X25.4568 Y75.4824
 X25.5278 Y75.6190
 X25.5783 Y75.7630
 X25.6251 Y75.9928
 X25.6392 Y76.2496
 X25.6187 Y76.5456
 X25.5562 Y76.9197
 X25.5344 Y76.9628
 X24.7292 Y77.1102
 X24.5013 Y77.1884
 X24.2705 Y77.3041
 X23.9987 Y77.4920
 X23.5946 Y77.8095
 X23.3606 Y77.9564
 X23.1832 Y78.0305
 X23.0134 Y78.0668
 X22.8312 Y78.0679
 X22.6343 Y78.0271
 X22.4261 Y77.3911
 X22.3295 Y76.9913
 X22.2825 Y76.6661
 X22.2716 Y76.3375
 X22.2987 Y76.2026
 X22.7962 Y75.9868
 X23.6629 Y75.7091
 X23.9676 Y75.5775
 X24.2079 Y75.4440
 X24.4166 Y75.3679
 X24.6363 Y75.3302
 X24.8699 Y75.3285
 X25.1016 Y75.3618
 G00 Z4.0000
 X24.0361 Y74.7958
 Z0.5000
 G01 Z-0.1000 F100
 X23.8603 Y74.9691 F2000
 X23.6657 Y75.1218
 X23.4985 Y75.2142
 X23.3402 Y75.2669
 X23.1709 Y75.2861
 X22.9898 Y75.2651
 X23.2812 Y75.0772
 X23.5437 Y74.9549
 X23.8177 Y74.8567
 X24.0361 Y74.7958
 G00 Z4.0000
 X21.4462 Y73.8366
 Z0.5000
 G01 Z-0.1000 F100
 X21.7066 Y74.4681 F2000
 X21.8649 Y74.7773
 X22.0263 Y75.0266
 X22.1670 Y75.2021
 X21.4312 Y74.8929
 X21.4462 Y73.8366
 G00 Z4.0000
 X20.8062 Y75.0635
 Z0.5000
 G01 Z-0.1000 F100
 X21.1795 Y75.2544 F2000
 X21.4653 Y75.4363
 X21.4639 Y75.5265
 X21.4484 Y75.9834
 X21.4044 Y76.0434
 X20.8924 Y76.1942
 X20.1300 Y76.3766
 X19.8995 Y76.4561
 X19.7556 Y76.6029
 X19.4421 Y77.0181
 X19.1748 Y77.4302
 X18.0535 Y77.0060
 X17.4862 Y76.8074
 X16.9078 Y76.6374
 G03 X17.0812 Y75.6378 I1.5830 J-0.2403 F2000.0
 X18.3252 Y74.6833 I1.6809 J0.9028
 G01 X18.5944 Y74.6417 F2000
 X19.3093 Y74.6358
 X19.6650 Y74.6816
 X20.0337 Y74.7679
 X20.4206 Y74.8977
 X20.8062 Y75.0635
 G00 Z4.0000
 X21.1404 Y76.7202
 Z0.5000
 G01 Z-0.1000 F100
 F2000
 X21.2258 Y76.7587
 X21.2126 Y76.9966
 X21.2571 Y77.5046
 X21.3360 Y77.8222
 X21.4544 Y78.1353
 X21.6123 Y78.4407
 X21.8475 Y78.7850
 X21.8653 Y78.8574
 X21.7242 Y78.8505
 X21.3684 Y78.7801
 X21.0991 Y78.6808
 X20.0033 Y78.0942
 X19.6354 Y77.9424
 G03 X19.9402 Y77.0963 I1.0783 J-0.0894 F2000.0
 X21.1404 Y76.7202 I0.9523 J0.9358
 G00 Z4.0000
 X21.8718 Y77.9932
 Z0.5000
 G01 Z-0.1000 F100
 X22.2910 Y78.2346 F2000
 X22.5516 Y78.4311
 X22.7916 Y78.6515
 X22.8821 Y78.7467
 X22.4638 Y78.5434
 X22.2406 Y78.3857
 X22.0427 Y78.2046
 X21.8718 Y77.9932
 G00 Z4.0000
 X22.1291 Y79.4848
 Z0.5000
 G01 Z-0.1000 F100
 X22.1413 Y79.5616 F2000
 X22.2705 Y80.4114
 X22.3477 Y80.6722
 X22.5506 Y81.0720
 X22.6914 Y81.2407
 X22.8755 Y81.4050
 X23.4643 Y81.8414
 X23.4478 Y81.8596
 X22.6475 Y81.9802
 X22.3974 Y81.9823
 X22.2175 Y81.9577
 X21.4430 Y81.6634
 X19.7710 Y81.2122
 X19.8803 Y80.8622
 G03 X20.6568 Y79.8463 I2.2132 J0.8870 F2000.0
 G01 X20.8642 Y79.7089 F2000
 X21.0805 Y79.5993
 X21.3027 Y79.5184
 X21.5283 Y79.4664
 X21.7580 Y79.4431
 X21.9935 Y79.4497
 X22.1291 Y79.4848
 G00 Z4.0000
 X23.1413 Y80.6694
 Z0.5000
 G01 Z-0.1000 F100
 X23.2255 Y80.7077 F2000
 X23.2814 Y80.7749
 X23.3098 Y80.8594
 X23.3103 Y80.9470
 X23.2839 Y81.0235
 X23.2361 Y81.0741
 X23.1663 Y81.0950
 X23.0747 Y81.0761
 X22.9845 Y81.0406
 X22.9222 Y80.9767
 X22.8896 Y80.8966
 X22.8858 Y80.8121
 X22.9097 Y80.7352
 X22.9603 Y80.6777
 X23.0368 Y80.6514
 X23.1413 Y80.6694
 G00 Z4.0000
 X23.0747 Y81.0761
 Z0.5000
 G01 Z-0.1000 F100
 F2000
 G00 Z4.0000
 X23.0587 Y82.5398
 Z0.5000
 G01 Z-0.1000 F100
 X23.2418 Y83.9349 F2000
 X23.2147 Y83.9559
 X22.8935 Y83.9721
 X22.6374 Y84.0110
 X22.2657 Y84.0985
 X21.3129 Y84.3801
 X21.3753 Y83.7022
 X21.4303 Y83.4569
 X21.4977 Y83.3405
 X21.8583 Y82.9884
 X22.0806 Y82.8232
 X22.3171 Y82.6891
 X22.5695 Y82.5919
 X23.0204 Y82.5321
 X23.0587 Y82.5398
 G00 Z4.0000
 X23.5875 Y82.5729
 Z0.5000
 G01 Z-0.1000 F100
 X23.7094 Y82.7373 F2000
 X23.9859 Y83.4314
 X24.0796 Y83.6195
 X24.2087 Y83.7875
 X25.0199 Y84.3955
 X24.9610 Y84.4188
 X24.6840 Y84.4246
 X24.3281 Y84.3973
 X24.1259 Y84.2008
 X23.9456 Y83.9676
 X23.7977 Y83.7110
 X23.6819 Y83.4309
 X23.6025 Y83.1336
 X23.5618 Y82.6211
 X23.5649 Y82.5647
 X23.5875 Y82.5729
 G00 Z4.0000
 X23.9778 Y84.6866
 Z0.5000
 G01 Z-0.1000 F100
 X24.2043 Y84.7838 F2000
 X24.4760 Y84.9436
 X24.5565 Y85.0244
 X24.4260 Y85.3785
 X24.2623 Y86.3210
 X24.1835 Y86.6336
 X24.0977 Y86.8454
 X23.9967 Y87.0151
 X23.8777 Y87.1575
 X23.7374 Y87.2794
 X23.6394 Y87.3257
 X22.9368 Y87.1717
 X22.7786 Y87.1563
 X22.1097 Y87.2949
 X21.9645 Y87.2896
 X21.4809 Y87.1060
 X21.1475 Y87.0154
 X20.7663 Y86.9503
 X20.3649 Y86.9113
 X20.2642 Y86.8735
 X20.3025 Y86.2330
 X20.3506 Y86.0045
 X20.4202 Y85.8321
 X20.5258 Y85.6787
 X21.0204 Y85.2328
 G03 X22.4091 Y84.5712 I2.0470 J2.5084 F2000.0
 G01 X22.7133 Y84.5241 F2000
 X23.0193 Y84.5084
 X23.3244 Y84.5252
 X23.6255 Y84.5759
 X23.9198 Y84.6617
 X23.9778 Y84.6866
 G00 Z4.0000
 X24.6025 Y87.1082
 Z0.5000
 G01 Z-0.1000 F100
 X24.9052 Y87.2446 F2000
 X25.5534 Y87.7715
 X25.6786 Y87.9108
 X25.7145 Y88.2710
 X25.7029 Y88.8408
 X25.6836 Y88.9916
 X24.4286 Y89.3490
 X24.0404 Y89.4117
 X23.9768 Y88.7772
 X23.9736 Y88.4046
 X24.0016 Y88.1117
 X24.0545 Y87.8681
 X24.1290 Y87.6613
 X24.2236 Y87.4842
 X24.3377 Y87.3319
 X24.4735 Y87.1998
 X24.6025 Y87.1082
 G00 Z4.0000
 X25.7345 Y86.7178
 Z0.5000
 G01 Z-0.1000 F100
 F2000
 G00 Z4.0000
 X27.0809 Y87.2590
 Z0.5000
 G01 Z-0.1000 F100
 X27.0069 Y87.3157 F2000
 G03 X26.1815 Y87.4003 I-0.5011 J-0.8210 F2000.0
 G01 X25.9781 Y87.3105 F2000
 X25.7682 Y87.1752
 X25.9985 Y87.1770
 X26.6593 Y87.2090
 X27.0809 Y87.2590
 G00 Z4.0000
 X29.0829 Y86.7743
 Z0.5000
 G01 Z-0.1000 F100
 X29.2526 Y86.8723 F2000
 G03 X29.9696 Y87.9375 I-0.9557 J1.4172 F2000.0
 G01 X29.9961 Y88.1084 F2000
 X29.9816 Y88.2681
 X29.7968 Y88.3451
 X29.3193 Y88.6175
 X29.0330 Y88.8395
 X28.7663 Y89.0951
 X28.5236 Y89.3785
 X28.3476 Y89.6277
 X28.2395 Y89.7242
 X28.1095 Y89.7875
 G03 X27.2761 Y89.5979 I-0.2511 J-0.8228 F2000.0
 G01 X27.0980 Y89.4558 F2000
 X26.9967 Y89.3182
 X26.9215 Y89.1516
 X26.8731 Y88.9520
 X26.8539 Y88.7140
 X26.8651 Y88.4667
 X26.8984 Y88.2268
 X26.9719 Y87.9944
 X27.2169 Y87.6979
 X27.4898 Y87.4119
 X27.7389 Y87.1946
 X27.9727 Y87.0296
 X28.1953 Y86.9080
 X28.4094 Y86.8240
 X28.6279 Y86.7715
 X28.8547 Y86.7527
 X29.0829 Y86.7743
 G00 Z4.0000
 X30.4856 Y87.3697
 Z0.5000
 G01 Z-0.1000 F100
 X30.6359 Y87.5437 F2000
 X30.9035 Y87.9646
 X31.0253 Y88.2528
 X31.1232 Y88.6304
 X31.1357 Y88.7107
 X31.0589 Y88.7685
 X29.7437 Y89.2320
 X29.3338 Y89.3956
 X28.9363 Y89.5979
 X29.2255 Y89.3288
 X30.3852 Y88.5327
 X30.4128 Y88.4561
 X30.4856 Y87.3697
 G00 Z4.0000
 X31.6152 Y89.0749
 Z0.5000
 G01 Z-0.1000 F100
 X31.7445 Y89.1677 F2000
 X32.2876 Y89.6793
 X32.5289 Y89.9567
 X32.7056 Y90.2053
 X32.8369 Y90.4406
 X32.9314 Y90.6696
 X32.9940 Y90.8983
 X33.0020 Y91.0765
 X32.9062 Y91.1776
 X32.6135 Y91.3809
 X31.6512 Y91.7504
 X31.4487 Y91.8631
 X31.2888 Y92.0420
 X31.1530 Y92.2350
 X30.6084 Y93.2976
 X30.5161 Y93.4145
 X30.2285 Y93.5970
 X30.0457 Y93.6700
 X29.8592 Y93.7112
 X29.6692 Y93.7169
 X29.4785 Y93.6825
 X29.0294 Y93.5499
 X28.8189 Y93.4478
 X28.6199 Y93.3081
 X28.4344 Y93.1302
 X28.2660 Y92.9147
 X28.1198 Y92.6643
 X28.0023 Y92.3853
 X27.9200 Y92.0885
 X28.4172 Y92.5760
 X28.8956 Y92.9997
 X29.0759 Y93.1031
 G02 X30.0943 Y93.2007 I0.6464 J-1.3841 F2000.0
 G01 X30.2880 Y93.1375 F2000
 X30.4392 Y93.0579
 X30.6199 Y92.7946
 X31.0210 Y91.9556
 X31.1001 Y91.8400
 X31.7574 Y91.3763
 X31.9690 Y91.2025
 X32.0929 Y91.0594
 X32.1774 Y90.9160
 X32.2340 Y90.7584
 X32.2540 Y90.5793
 X32.2407 Y90.3821
 X32.1892 Y90.1642
 X32.0949 Y89.9246
 X31.6152 Y89.0749
 G00 Z4.0000
 X30.8445 Y89.4145
 Z0.5000
 G01 Z-0.1000 F100
 G03 X31.1187 Y89.5270 I-0.3041 J1.1318 F2000.0
 X31.7466 Y90.3624 I-0.6724 J1.1591
 G01 X31.7825 Y90.5754 F2000
 X31.7778 Y90.7875
 X30.9646 Y91.3371
 X30.8179 Y91.4625
 X30.7088 Y91.6075
 X30.2225 Y92.5386
 X30.1153 Y92.6482
 X29.9843 Y92.7258
 X29.8276 Y92.7738
 X29.6570 Y92.7870
 X29.4872 Y92.7641
 X29.3284 Y92.7061
 X29.0199 Y92.4934
 X28.8337 Y92.3084
 X28.6777 Y92.0978
 X28.5387 Y91.8620
 X28.4383 Y91.6355
 X29.0158 Y90.8625
 X29.4414 Y90.1342
 X29.5932 Y89.9413
 X29.7741 Y89.7757
 X29.9860 Y89.6350
 X30.2199 Y89.5259
 X30.4671 Y89.4521
 X30.7213 Y89.4155
 X30.8445 Y89.4145
 G00 Z4.0000
 X29.0259 Y89.7894
 Z0.5000
 G01 Z-0.1000 F100
 X28.5406 Y90.6238 F2000
 X28.3088 Y90.9540
 X28.1653 Y91.0976
 X27.4992 Y90.8694
 X27.2250 Y90.7423
 X26.9711 Y90.5804
 X26.8431 Y90.4739
 X26.6998 Y90.2981
 X26.5885 Y90.1005
 X26.3134 Y89.4344
 X26.9637 Y89.9629
 X27.2284 Y90.1261
 X27.4664 Y90.2379
 X27.6907 Y90.3108
 X27.9169 Y90.3518
 X28.0710 Y90.3609
 X28.1696 Y90.3333
 X28.9271 Y89.8221
 X29.0259 Y89.7894
 G00 Z4.0000
 X28.9363 Y89.5979
 Z0.5000
 G01 Z-0.1000 F100
 F2000
 G00 Z4.0000
 X27.2778 Y92.0711
 Z0.5000
 G01 Z-0.1000 F100
 X27.3412 Y92.1349 F2000
 X27.8357 Y93.0052
 X28.0155 Y93.3688
 X28.0716 Y93.5134
 X27.7728 Y94.2683
 X27.6786 Y94.5922
 X27.6340 Y94.8822
 X27.6374 Y95.1837
 X27.6475 Y95.2730
 X26.0069 Y94.8908
 X25.5115 Y94.8085
 X25.0060 Y94.7653
 X24.8378 Y93.8499
 X24.8246 Y93.5676
 X24.8443 Y93.3463
 X24.8915 Y93.1573
 X24.9722 Y92.9790
 X25.0917 Y92.8140
 X25.2832 Y92.6183
 X25.4887 Y92.4477
 X25.7060 Y92.3194
 X25.9536 Y92.2176
 X26.2376 Y92.1419
 X26.5667 Y92.0926
 X27.1462 Y92.0693
 X27.2778 Y92.0711
 G00 Z4.0000
 X29.2324 Y94.1170
 Z0.5000
 G01 Z-0.1000 F100
 X29.4769 Y94.8720 F2000
 X29.6595 Y95.2927
 X29.9875 Y95.9491
 X28.9421 Y95.9353
 X28.7105 Y95.8998
 X28.5388 Y95.8431
 X28.3942 Y95.7618
 X28.2660 Y95.6472
 X28.1570 Y95.4938
 X28.0677 Y95.3056
 X28.0323 Y95.1336
 X28.0326 Y94.9466
 X28.0700 Y94.7368
 X28.1488 Y94.4944
 X28.2759 Y94.2010
 X28.3836 Y94.0214
 X28.5683 Y94.0344
 X29.2324 Y94.1170
 G00 Z4.0000
 X29.9529 Y94.2061
 Z0.5000
 G01 Z-0.1000 F100
 X30.2574 Y94.8683 F2000
 X30.5391 Y95.4310
 X30.7257 Y95.7269
 X30.9430 Y95.9979
 X31.2017 Y96.2394
 X31.2844 Y96.3021
 X30.8190 Y95.9870
 X30.5748 Y95.7770
 X30.3769 Y95.5682
 X30.2203 Y95.3611
 X30.1009 Y95.1555
 X30.0110 Y94.9382
 X29.9537 Y94.7076
 X29.9329 Y94.4636
 X29.9529 Y94.2061
 G00 Z4.0000
 X31.5794 Y95.8324
 Z0.5000
 G01 Z-0.1000 F100
 F2000
 G00 Z4.0000
 X31.9865 Y96.9185
 Z0.5000
 G01 Z-0.1000 F100
 X32.4032 Y98.0094 F2000
 X32.5210 Y98.4201
 X32.5408 Y98.5064
 X32.4863 Y98.5300
 X31.2634 Y98.5847
 X31.0203 Y98.6371
 X30.2946 Y98.9016
 X30.0208 Y98.9497
 X29.9030 Y98.4359
 X29.8849 Y98.1696
 X29.8964 Y97.9181
 X29.9356 Y97.6885
 X29.9998 Y97.4831
 X30.0929 Y97.2917
 X30.2172 Y97.1187
 X30.3749 Y96.9684
 X30.5556 Y96.8500
 X30.7173 Y96.7799
 X30.8866 Y96.7475
 X31.0798 Y96.7478
 X31.9865 Y96.9185
 G00 Z4.0000
 X29.9153 Y96.5599
 Z0.5000
 G01 Z-0.1000 F100
 X29.9234 Y96.5803 F2000
 X29.7930 Y96.7913
 X29.5630 Y97.2670
 X29.4597 Y97.5785
 X29.3926 Y97.8983
 X29.3650 Y98.2260
 X29.3911 Y98.6476
 X29.4067 Y98.7427
 X28.9371 Y98.6398
 X28.1613 Y98.5432
 X26.8865 Y98.4752
 G03 X27.7467 Y96.9499 I2.1781 J0.2231 F2000.0
 G01 X27.9934 Y96.7889 F2000
 X28.2782 Y96.6376
 X28.5039 Y96.5656
 X28.7607 Y96.5229
 X29.0618 Y96.5093
 X29.9153 Y96.5599
 G00 Z4.0000
 X29.4166 Y99.3641
 Z0.5000
 G01 Z-0.1000 F100
 X29.4415 Y99.3963 F2000
 X29.4099 Y99.5696
 X28.9958 Y100.9295
 X28.9517 Y101.2300
 X28.9425 Y101.5316
 X28.1390 Y102.1352
 X27.9398 Y102.2381
 X27.7671 Y102.2936
 X27.5854 Y102.3152
 X27.3924 Y102.2965
 X27.1209 Y102.2392
 X26.6986 Y102.1951
 X26.2748 Y102.1906
 X25.7993 Y102.2228
 X25.2940 Y102.2874
 X25.2337 Y101.8593
 X25.2216 Y101.5391
 X25.2383 Y101.2289
 X25.2825 Y100.9336
 X25.3526 Y100.6565
 X25.4468 Y100.3996
 X25.5670 Y100.1579
 X25.7152 Y99.9310
 X25.8923 Y99.7217
 X26.0997 Y99.5326
 X26.3438 Y99.3510
 X26.5929 Y99.2122
 X26.8534 Y99.1122
 X27.1364 Y99.0450
 X27.4459 Y99.0111
 X27.7869 Y99.0122
 X28.1656 Y99.0512
 X28.5913 Y99.1319
 X29.4166 Y99.3641
 G00 Z4.0000
 X30.6991 Y101.8275
 Z0.5000
 G01 Z-0.1000 F100
 X30.7950 Y101.8802 F2000
 X30.4316 Y102.7515
 X30.3837 Y102.9697
 X30.3740 Y103.2076
 X30.4036 Y103.4805
 X30.5113 Y103.8387
 X30.6403 Y104.1921
 X30.7285 Y104.5584
 X30.7275 Y104.5917
 X29.5694 Y104.7134
 X29.2249 Y104.8127
 X27.9737 Y105.3545
 X27.8289 Y105.4013
 X27.7500 Y105.3681
 X27.6279 Y105.2378
 X27.5813 Y105.1188
 X27.5577 Y104.9620
 X27.5472 Y104.4898
 X27.5535 Y104.1773
 X27.6006 Y103.8996
 X27.6873 Y103.6215
 X27.8147 Y103.3442
 X27.9834 Y103.0702
 X28.1934 Y102.8037
 X28.4437 Y102.5496
 X28.7447 Y102.3004
 X29.0307 Y102.0981
 X29.2706 Y101.9678
 X29.5159 Y101.8668
 X29.7604 Y101.7969
 X29.9998 Y101.7580
 X30.2336 Y101.7493
 X30.4674 Y101.7716
 X30.6991 Y101.8275
 G00 Z4.0000
 X32.6465 Y104.2728
 Z0.5000
 G01 Z-0.1000 F100
 X32.6453 Y104.3478 F2000
 X32.6892 Y104.6523
 X32.7670 Y104.8708
 X32.8897 Y105.1082
 X33.4615 Y106.0033
 X33.5541 Y106.2222
 X33.6025 Y106.4136
 X33.6178 Y106.5944
 X33.6033 Y106.7726
 X33.5569 Y106.9476
 X32.0531 Y107.4464
 X31.8600 Y107.5705
 X31.0842 Y108.2921
 X30.9684 Y108.3710
 X30.8534 Y108.3666
 X30.7478 Y108.3378
 X30.6220 Y108.2681
 X30.4976 Y108.1565
 X30.3703 Y107.9944
 X30.0716 Y107.4715
 X30.0333 Y107.0723
 X30.0447 Y106.7756
 X30.0879 Y106.4790
 X30.1611 Y106.1862
 X30.2630 Y105.9008
 X30.3921 Y105.6265
 X30.5467 Y105.3669
 X30.7255 Y105.1257
 X30.9268 Y104.9066
 X31.1493 Y104.7132
 X31.3913 Y104.5493
 X31.6515 Y104.4184
 X31.9282 Y104.3242
 X32.6095 Y104.2661
 X32.6465 Y104.2728
 G00 Z4.0000
 X29.9331 Y105.3101
 Z0.5000
 G01 Z-0.1000 F100
 X29.7464 Y105.8545 F2000
 X29.6721 Y106.1882
 X29.6281 Y106.5253
 X29.6167 Y106.8630
 X29.6402 Y107.1985
 X29.7008 Y107.5291
 X29.8007 Y107.8520
 X30.0109 Y108.3028
 X29.5966 Y108.3849
 X29.3284 Y108.4696
 X28.9635 Y108.6190
 X28.0673 Y109.0754
 X28.0345 Y109.0385
 G03 X27.8201 Y108.7412 I1.5690 J-1.3573 F2000.0
 X27.6267 Y106.8283 I1.9899 J-1.1674
 G01 X27.7352 Y106.5678 F2000
 X27.8780 Y106.3233
 X28.1659 Y105.9583
 X28.3506 Y105.7809
 X28.5576 Y105.6367
 X28.7973 Y105.5167
 X29.0730 Y105.4212
 X29.3880 Y105.3521
 X29.7488 Y105.3114
 X29.9331 Y105.3101
 G00 Z4.0000
 X27.4098 Y106.0051
 Z0.5000
 G01 Z-0.1000 F100
 X27.1044 Y106.9588 F2000
 X27.0255 Y107.2899
 X26.9993 Y107.5361
 X27.0059 Y107.7498
 X27.0531 Y107.9633
 X27.6922 Y109.6536
 X27.6538 Y109.6641
 X27.4414 Y109.6034
 X27.0491 Y109.4146
 X26.8224 Y109.2487
 X26.1407 Y108.5914
 X24.5420 Y107.2683
 X24.4522 Y107.1880
 X24.6096 Y106.9100
 X24.7243 Y106.7734
 X24.9209 Y106.5888
 X25.1759 Y106.3985
 X25.6899 Y106.0797
 X25.8720 Y106.0194
 X26.1081 Y105.9690
 X26.4060 Y105.9408
 X26.7528 Y105.9436
 X27.1887 Y105.9769
 X27.4098 Y106.0051
 G00 Z4.0000
 X27.3943 Y102.8159
 Z0.5000
 G01 Z-0.1000 F100
 X27.3725 Y102.9903 F2000
 X27.0576 Y104.4795
 X27.0208 Y104.8264
 X27.0214 Y105.1394
 X27.0379 Y105.3121
 X26.4208 Y105.3424
 X26.0871 Y105.4113
 X25.7368 Y105.5224
 X25.3602 Y105.6809
 X24.8219 Y105.9639
 X24.7127 Y105.9971
 X24.6027 Y105.8997
 X24.3795 Y105.6065
 X24.2828 Y105.3948
 X24.2177 Y105.1588
 X24.1866 Y104.8994
 X24.1924 Y104.6201
 X24.2375 Y104.3273
 X24.3227 Y104.0317
 X24.4452 Y103.7480
 X24.5995 Y103.4901
 X24.8923 Y103.2023
 G03 X25.3473 Y102.9081 I1.5186 J1.8496 F2000.0
 X26.9300 Y102.6833 I1.1335 J2.2968
 G01 X27.1962 Y102.7455 F2000
 X27.3943 Y102.8159
 G00 Z4.0000
 X24.3145 Y102.8790
 Z0.5000
 G01 Z-0.1000 F100
 X24.3143 Y102.9150 F2000
 X23.9775 Y103.6704
 X23.8035 Y104.1209
 X23.7276 Y104.4094
 X23.6933 Y104.6571
 X23.6935 Y104.9086
 X23.7916 Y105.4131
 X24.2293 Y106.2319
 X24.2798 Y106.4048
 X24.2936 Y106.5599
 X24.2751 Y106.7197
 X24.2525 Y106.7728
 X23.8629 Y106.6220
 X23.6071 Y106.4465
 X23.0973 Y106.0194
 X21.4312 Y104.4050
 X21.3023 Y104.1638
 X21.3355 Y104.0662
 X21.4780 Y103.8257
 X21.6479 Y103.6159
 X21.8483 Y103.4301
 X22.0808 Y103.2677
 X22.3470 Y103.1291
 X22.6489 Y103.0157
 X22.9873 Y102.9298
 X23.3620 Y102.8745
 X24.2467 Y102.8726
 X24.3145 Y102.8790
 G00 Z4.0000
 X25.1654 Y99.4859
 Z0.5000
 G01 Z-0.1000 F100
 X25.2926 Y99.5464 F2000
 X25.2477 Y99.6580
 X24.9033 Y100.4734
 X24.8622 Y100.7076
 X24.8524 Y101.0282
 X24.8971 Y101.9364
 X24.9374 Y102.4057
 G02 X24.8349 Y102.3819 I-1.0590 J4.3177 F2000.0
 X24.3227 Y102.3002 I-0.9502 J4.3111
 X22.2613 Y102.5924 I-0.4339 J4.3564
 G01 X22.0196 Y102.0657 F2000
 X21.9404 Y101.7987
 X21.8975 Y101.5517
 X21.8865 Y101.3192
 X21.9041 Y101.1028
 X21.9582 Y100.9126
 X22.2018 Y100.4058
 X22.3838 Y100.1113
 X22.5940 Y99.8399
 X22.7881 Y99.6750
 X23.0330 Y99.5230
 X23.2934 Y99.4079
 X23.5744 Y99.3265
 X23.8740 Y99.2806
 X24.1885 Y99.2723
 X24.5129 Y99.3031
 X24.8399 Y99.3739
 X25.1654 Y99.4859
 G00 Z4.0000
 X22.0223 Y99.5600
 Z0.5000
 G01 Z-0.1000 F100
 X22.0281 Y99.5926 F2000
 X21.5229 Y100.5613
 X21.4235 Y100.8121
 X21.3629 Y101.0734
 X21.3635 Y101.4262
 X21.3798 Y101.6772
 X21.4413 Y101.9849
 X21.5408 Y102.2810
 X21.6819 Y102.5881
 X21.7757 Y102.7591
 X20.8539 Y103.7787
 X20.5392 Y103.4807
 X19.8640 Y102.7455
 X19.4597 Y102.2301
 X19.0763 Y101.6775
 X18.9612 Y101.4663
 X18.9192 Y101.3225
 X18.9061 Y101.1121
 X19.3240 Y100.5993
 X19.8554 Y100.0541
 X20.0064 Y99.9192
 X20.2146 Y99.7924
 X20.4495 Y99.6940
 X20.7171 Y99.6226
 X21.0288 Y99.5776
 X21.4145 Y99.5579
 X22.0223 Y99.5600
 G00 Z4.0000
 X19.4927 Y97.2843
 Z0.5000
 G01 Z-0.1000 F100
 X19.5106 Y97.3122 F2000
 X19.4515 Y97.5494
 X19.3594 Y98.1250
 X19.3433 Y98.5010
 X19.3675 Y98.8747
 X19.4412 Y99.2735
 X19.4469 Y99.4571
 X19.4136 Y99.6289
 X19.3414 Y99.8016
 X19.2256 Y99.9821
 X19.0562 Y100.1808
 X18.4642 Y100.7607
 X18.2524 Y100.5396
 X17.8947 Y100.0533
 X17.3992 Y99.3056
 X16.9426 Y98.6019
 X16.8807 Y98.4357
 X16.8589 Y98.2913
 X16.8682 Y98.1549
 X16.9031 Y98.0303
 X17.0743 Y97.8875
 X17.5645 Y97.5832
 X17.8770 Y97.4422
 X18.2019 Y97.3345
 X18.5360 Y97.2632
 X18.8760 Y97.2315
 X19.4927 Y97.2843
 G00 Z4.0000
 X16.2888 Y98.2682
 Z0.5000
 G01 Z-0.1000 F100
 X16.4292 Y98.3561 F2000
 X16.4871 Y98.4327
 X16.5108 Y98.5199
 X16.5043 Y98.6076
 X16.4711 Y98.6858
 X16.4172 Y98.7430
 X16.3455 Y98.7725
 X16.2594 Y98.7654
 X16.1623 Y98.7125
 X16.0564 Y98.6415
 X16.0115 Y98.5616
 X15.9994 Y98.4731
 X16.0163 Y98.3867
 X16.0585 Y98.3129
 X16.1198 Y98.2634
 X16.1978 Y98.2452
 X16.2888 Y98.2682
 G00 Z4.0000
 X16.1623 Y98.7125
 Z0.5000
 G01 Z-0.1000 F100
 F2000
 G00 Z4.0000
 X15.2696 Y98.3282
 Z0.5000
 G01 Z-0.1000 F100
 X15.4496 Y98.4488 F2000
 X15.6215 Y98.6101
 X15.7867 Y98.8168
 X15.9457 Y99.0746
 X16.1888 Y99.6081
 X16.0024 Y99.4725
 X15.4169 Y98.9519
 X15.0622 Y98.5816
 X14.7393 Y98.1874
 X15.0791 Y98.2449
 X15.2696 Y98.3282
 G00 Z4.0000
 X15.6475 Y97.2584
 Z0.5000
 G01 Z-0.1000 F100
 X15.7242 Y97.2975 F2000
 X15.7911 Y97.3738
 X15.8335 Y97.4688
 X15.8474 Y97.5663
 X15.8314 Y97.6446
 X15.7900 Y97.6951
 X15.7204 Y97.7157
 X15.6204 Y97.6964
 X15.5556 Y97.6617
 X15.4917 Y97.5913
 X15.4495 Y97.5028
 X15.4362 Y97.4117
 X15.4536 Y97.3385
 X15.4954 Y97.2880
 X15.5597 Y97.2580
 X15.6475 Y97.2584
 G00 Z4.0000
 X14.1383 Y98.8712
 Z0.5000
 G01 Z-0.1000 F100
 X14.3937 Y99.5067 F2000
 X14.2582 Y99.5082
 X13.1130 Y99.3227
 X13.3720 Y99.1385
 X13.6090 Y99.0059
 X13.8326 Y98.9157
 X13.9973 Y98.8711
 X14.1383 Y98.8712
 G00 Z4.0000
 X14.4239 Y99.9672
 Z0.5000
 G01 Z-0.1000 F100
 X14.7162 Y100.0372 F2000
 X14.9782 Y100.1317
 X15.1091 Y100.2089
 X14.9150 Y100.2468
 X14.5181 Y100.2545
 X13.6043 Y100.1720
 X13.3692 Y100.1887
 X13.1813 Y100.2323
 X13.0206 Y100.2992
 X12.8852 Y100.3983
 X13.3618 Y100.7876
 X15.2669 Y102.1816
 X16.0862 Y102.9444
 X17.3562 Y104.0683
 X17.9359 Y104.5152
 X18.5914 Y104.9731
 X19.3510 Y105.4587
 X20.2808 Y106.0114
 X20.5905 Y106.1569
 X21.5938 Y106.4639
 X21.9570 Y106.5981
 X22.1967 Y106.7219
 X22.4147 Y106.8795
 X22.6079 Y107.0829
 X22.6569 Y107.1500
 X22.6032 Y107.1557
 X22.2795 Y107.0813
 X21.6692 Y106.8563
 X19.9912 Y105.9974
 X18.8498 Y105.3356
 X18.1259 Y104.8565
 X17.3510 Y104.2987
 X16.4900 Y103.6343
 X14.0121 Y101.6011
 X13.6093 Y101.2330
 X13.2192 Y100.9210
 X12.8094 Y100.6386
 X12.3817 Y100.3842
 X11.7026 Y100.0253
 X12.2424 Y99.9058
 X12.5077 Y99.8812
 X14.0626 Y99.9183
 X14.4239 Y99.9672
 G00 Z4.0000
 X15.8665 Y100.0921
 Z0.5000
 G01 Z-0.1000 F100
 X15.9505 Y100.1420 F2000
 X16.0301 Y100.2257
 X16.0694 Y100.3111
 X16.0672 Y100.3942
 X16.0304 Y100.4706
 X15.9671 Y100.5316
 X15.8858 Y100.5707
 X15.7952 Y100.5814
 X15.7039 Y100.5572
 X15.6204 Y100.4915
 X15.5370 Y100.3867
 X15.5263 Y100.3062
 X15.5529 Y100.2254
 X15.6095 Y100.1564
 X15.6868 Y100.1065
 X15.7756 Y100.0827
 X15.8665 Y100.0921
 G00 Z4.0000
 X16.1701 Y100.9958
 Z0.5000
 G01 Z-0.1000 F100
 X16.1921 Y101.4575 F2000
 X16.1734 Y101.9135
 X15.8601 Y101.8250
 X15.6170 Y101.7275
 X15.3020 Y101.5647
 X14.9676 Y101.3502
 X14.5951 Y101.0689
 X14.1295 Y100.6780
 X15.3643 Y100.8502
 X15.5332 Y100.8931
 X15.8115 Y101.4671
 X16.1701 Y100.9958
 G00 Z4.0000
 X15.6148 Y103.5585
 Z0.5000
 G01 Z-0.1000 F100
 X15.6460 Y103.9903 F2000
 X15.6940 Y104.2888
 X15.7608 Y104.5081
 X15.8490 Y104.6938
 X15.9328 Y104.8032
 X16.4376 Y104.2016
 X16.5208 Y104.2611
 X16.9898 Y104.7807
 X17.0243 Y104.8758
 X16.6562 Y105.0278
 X16.2975 Y105.2064
 X15.9732 Y105.3999
 X15.6832 Y105.6064
 X15.4265 Y105.8244
 X15.2018 Y106.0527
 X15.0033 Y106.2964
 X14.8288 Y106.5608
 X14.6908 Y106.8425
 X14.5273 Y107.4382
 X14.3905 Y108.0425
 X14.2854 Y108.6353
 X14.2110 Y109.2185
 X14.1821 Y109.6567
 X14.1546 Y109.7774
 X14.0947 Y109.8718
 X14.0042 Y109.9434
 X13.8834 Y109.9904
 X13.7337 Y110.0064
 X13.5803 Y109.9863
 X13.4366 Y109.9314
 X13.3163 Y109.8432
 X13.2262 Y109.5724
 X13.1787 Y109.3007
 X13.1654 Y109.0044
 X13.1876 Y108.6653
 X13.2804 Y108.1076
 X13.1826 Y108.0302
 G03 X12.5857 Y107.0491 I0.9270 J-1.2361 F2000.0
 G01 X12.5670 Y106.8480 F2000
 X12.5773 Y106.6489
 X12.6095 Y106.4815
 X12.6632 Y106.3807
 X12.7787 Y106.2574
 X12.9115 Y106.1545
 X13.1114 Y106.0412
 X13.5142 Y105.8809
 X13.6013 Y105.1072
 X14.1008 Y104.6813
 X14.4575 Y105.0379
 X14.4833 Y105.0136
 X14.8367 Y104.1380
 X14.9605 Y103.9361
 G03 X15.6148 Y103.5585 I0.7180 J0.4883 F2000.0
 G00 Z4.0000
 X11.5619 Y100.5485
 Z0.5000
 G01 Z-0.1000 F100
 X11.8477 Y100.6265 F2000
 X12.1395 Y100.7459
 X12.4423 Y100.9109
 X12.7628 Y101.1281
 X13.1118 Y101.4080
 X13.7323 Y101.9804
 X13.8504 Y102.1039
 X12.9795 Y102.4161
 X12.4393 Y102.6443
 X12.0185 Y102.8551
 X11.6642 Y103.0657
 X11.3571 Y103.2822
 X11.1217 Y103.4818
 X10.9393 Y103.6859
 X10.7430 Y103.9500
 X9.9224 Y105.3367
 X9.7396 Y105.5917
 X9.3751 Y105.6947
 X8.9961 Y105.7605
 X8.8569 Y105.2448
 X8.7318 Y104.6949
 X8.7198 Y104.6581
 X8.1019 Y104.5948
 X7.9556 Y104.5459
 X7.8437 Y104.4715
 X7.5862 Y104.1352
 X7.4746 Y103.9313
 X7.4093 Y103.7498
 X7.3797 Y103.5694
 X7.3900 Y103.3841
 X7.4660 Y103.2303
 X7.7377 Y102.8915
 X7.8805 Y102.7734
 X8.0148 Y102.7012
 X8.1497 Y102.6627
 X8.3004 Y102.6478
 X8.4517 Y102.6735
 X8.6127 Y102.7372
 X8.9249 Y102.9064
 X9.1266 Y102.9870
 X9.2508 Y103.0015
 X9.3582 Y102.9839
 X9.4623 Y102.9353
 X9.5450 Y102.8725
 X8.8288 Y102.1541
 X8.9690 Y102.0905
 X9.3624 Y101.9913
 X9.6516 Y101.9682
 X10.9021 Y102.0510
 X10.8257 Y101.9317
 X10.6211 Y101.7362
 X10.4298 Y101.6179
 X10.1491 Y101.4795
 X9.8990 Y101.3356
 X10.8553 Y101.2600
 X11.2949 Y101.2540
 X11.0173 Y100.5080
 X11.5619 Y100.5485
 G00 Z4.0000
 X12.9439 Y96.9714
 Z0.5000
 G01 Z-0.1000 F100
 X13.6354 Y97.4271 F2000
 X13.5818 Y97.4532
 X12.9774 Y97.5099
 X12.9439 Y96.9714
 G00 Z4.0000
 X13.2455 Y96.2578
 Z0.5000
 G01 Z-0.1000 F100
 X13.5983 Y96.5678 F2000
 X13.8108 Y96.8005
 X13.6932 Y96.8007
 X13.2506 Y96.7093
 X12.6893 Y96.5272
 X12.7230 Y96.5119
 X13.2455 Y96.2578
 G00 Z4.0000
 X13.3208 Y94.2140
 Z0.5000
 G01 Z-0.1000 F100
 X13.7300 Y94.9178 F2000
 X13.5929 Y94.8730
 X13.1192 Y94.6086
 X12.5368 Y94.2061
 X13.3208 Y94.2140
 G00 Z4.0000
 X10.7920 Y92.2750
 Z0.5000
 G01 Z-0.1000 F100
 X11.3827 Y92.7823 F2000
 X11.7055 Y93.1074
 X11.9952 Y93.4438
 X12.1581 Y93.6595
 X12.2034 Y93.7669
 X11.4315 Y93.0610
 X11.0967 Y92.6815
 X10.7920 Y92.2750
 G00 Z4.0000
 X7.9328 Y89.3486
 Z0.5000
 G01 Z-0.1000 F100
 X8.2096 Y89.6572 F2000
 X9.4258 Y91.2792
 X9.9336 Y91.9071
 X10.5431 Y92.6063
 X11.1737 Y93.3671
 X11.6942 Y93.9475
 X12.1385 Y94.3972
 X12.5980 Y94.8126
 X13.0286 Y95.1508
 X13.7738 Y95.6401
 X14.0346 Y95.8500
 X14.2123 Y96.0326
 X14.3450 Y96.2117
 X14.4457 Y96.3980
 X14.4876 Y96.5362
 X14.2109 Y96.3739
 X13.6540 Y95.9713
 X13.2468 Y95.6192
 X12.1107 Y94.5214
 X11.5203 Y94.0030
 X9.9582 Y92.4870
 X9.6768 Y92.1702
 X8.8511 Y91.0534
 X8.5129 Y90.5334
 X8.2564 Y90.0838
 X8.0528 Y89.6675
 X7.9328 Y89.3486
 G00 Z4.0000
 X8.3524 Y88.9880
 Z0.5000
 G01 Z-0.1000 F100
 X8.7248 Y89.3157 F2000
 X9.0234 Y89.6204
 X9.3030 Y89.9436
 X9.5714 Y90.2877
 X10.2314 Y91.0190
 X10.3590 Y91.2155
 X10.4498 Y91.4288
 X10.4925 Y91.7881
 X10.4893 Y91.8301
 X10.4612 Y91.8274
 X10.1814 Y91.5511
 X9.5979 Y90.8723
 X9.2223 Y90.3599
 X8.8193 Y89.7499
 X8.3524 Y88.9880
 G00 Z4.0000
 X7.6408 Y87.6160
 Z0.5000
 G01 Z-0.1000 F100
 X7.9362 Y87.8201 F2000
 X8.1174 Y87.9839
 X8.2447 Y88.1388
 X8.3395 Y88.3078
 X8.3981 Y88.4954
 X8.4063 Y88.7960
 X8.3811 Y88.8063
 X8.2295 Y88.6992
 X7.9955 Y88.4344
 X7.8742 Y88.2220
 X7.6408 Y87.6160
 G00 Z4.0000
 X7.7078 Y85.9997
 Z0.5000
 G01 Z-0.1000 F100
 X8.3437 Y86.4134 F2000
 X9.3925 Y87.1620
 X9.6386 Y87.3463
 X9.6020 Y87.3837
 X9.3503 Y87.6647
 X9.3168 Y87.6639
 X8.6550 Y87.0826
 X7.6196 Y86.3828
 X6.9110 Y85.8864
 X6.7014 Y85.7850
 X6.4813 Y85.7209
 X5.9910 Y85.6296
 X5.7993 Y85.4941
 X5.4248 Y85.1476
 X5.2003 Y84.8909
 X5.3474 Y84.9152
 X6.0654 Y85.1582
 X6.5854 Y85.3840
 X7.1288 Y85.6616
 X7.7078 Y85.9997
 G00 Z4.0000
 X9.9787 Y85.3343
 Z0.5000
 G01 Z-0.1000 F100
 X10.0304 Y85.3594 F2000
 X10.2931 Y85.5219
 X10.4975 Y85.6832
 X10.6600 Y85.8486
 X10.7887 Y86.0210
 X10.8923 Y86.2116
 X10.9491 Y86.3960
 X9.8264 Y86.4299
 X9.2283 Y85.4301
 X8.9420 Y84.9154
 X9.0744 Y84.9447
 X9.6527 Y85.1756
 X9.9787 Y85.3343
 G00 Z4.0000
 X10.4596 Y87.2681
 Z0.5000
 G01 Z-0.1000 F100
 X10.5393 Y87.3117 F2000
 X10.6010 Y87.3803
 X10.6246 Y87.4627
 X10.6154 Y87.5499
 X10.5784 Y87.6303
 X10.5195 Y87.6931
 X10.4490 Y87.7268
 X10.3688 Y87.7266
 X10.2838 Y87.6835
 X10.2303 Y87.6220
 X10.2068 Y87.5373
 X10.2172 Y87.4478
 X10.2553 Y87.3651
 X10.3148 Y87.3006
 X10.3833 Y87.2673
 X10.4596 Y87.2681
 G00 Z4.0000
 X14.0184 Y86.1686
 Z0.5000
 G01 Z-0.1000 F100
 X14.7198 Y86.3350 F2000
 X15.5465 Y86.5591
 X15.5508 Y86.5790
 X15.1410 Y86.8282
 X14.4577 Y87.1910
 X14.1744 Y87.3779
 X13.9872 Y87.5442
 X13.6278 Y88.0154
 X13.4551 Y88.3023
 X13.3236 Y88.5788
 X13.2244 Y88.8666
 X13.1933 Y89.1709
 X13.1897 Y89.4794
 X13.1950 Y89.8951
 X13.1799 Y90.3134
 X13.1515 Y90.5365
 X13.0728 Y90.4382
 X12.8693 Y90.0196
 X12.6557 Y89.4626
 X12.3400 Y88.3878
 X12.1858 Y87.7762
 X12.1201 Y87.3796
 X12.0935 Y87.0354
 X12.1014 Y86.7483
 X12.4676 Y86.5188
 X12.7522 Y86.3790
 X13.0347 Y86.2720
 X13.3116 Y86.1975
 X13.5850 Y86.1540
 X13.8086 Y86.1413
 X14.0184 Y86.1686
 G00 Z4.0000
 X13.4020 Y83.5360
 Z0.5000
 G01 Z-0.1000 F100
 X13.8572 Y83.7127 F2000
 X13.9307 Y83.7472
 X13.4969 Y84.2188
 X13.3106 Y84.4729
 X13.1556 Y84.7321
 X13.0317 Y84.9947
 X12.9383 Y85.2593
 X12.8272 Y85.7785
 X11.8761 Y86.3792
 X11.2580 Y83.8381
 X11.2730 Y83.7739
 X11.5938 Y83.4922
 X11.7869 Y83.3987
 X12.0030 Y83.3371
 X12.2457 Y83.3079
 X12.5186 Y83.3137
 X12.8250 Y83.3581
 X13.1693 Y83.4457
 X13.4020 Y83.5360
 G00 Z4.0000
 X14.5232 Y81.0217
 Z0.5000
 G01 Z-0.1000 F100
 X14.4971 Y81.1239 F2000
 X14.0288 Y82.4164
 X13.8799 Y82.9705
 X13.8323 Y82.9836
 X13.4479 Y82.9338
 X12.5623 Y82.8935
 X11.2493 Y82.8723
 X11.5005 Y82.1330
 X11.6472 Y81.8174
 X11.7960 Y81.5686
 X11.9673 Y81.3467
 X12.1089 Y81.2295
 X12.3063 Y81.1230
 X12.5819 Y81.0113
 X12.8857 Y80.9297
 X13.2110 Y80.8825
 X13.5575 Y80.8716
 X13.9237 Y80.8990
 X14.3823 Y80.9845
 X14.5232 Y81.0217
 G00 Z4.0000
 X14.3661 Y78.4918
 Z0.5000
 G01 Z-0.1000 F100
 X14.3183 Y79.3070 F2000
 X14.2968 Y80.2219
 X14.2985 Y80.3017
 X13.4486 Y80.2436
 X13.2707 Y80.1898
 X13.1241 Y80.1101
 X12.6694 Y79.6899
 X12.3565 Y79.4570
 X11.5052 Y78.9090
 X11.6097 Y78.7974
 X11.9295 Y78.5624
 X12.1571 Y78.4576
 X12.4114 Y78.3828
 X12.6983 Y78.3381
 X13.0260 Y78.3250
 X13.4072 Y78.3457
 X13.8667 Y78.4037
 X14.3661 Y78.4918
 G00 Z4.0000
 X11.4534 Y79.5068
 Z0.5000
 G01 Z-0.1000 F100
 X11.6767 Y79.6085 F2000
 X11.9103 Y79.7562
 X12.1582 Y79.9563
 X12.5835 Y80.3876
 X12.6354 Y80.4459
 X12.2031 Y80.6061
 X11.9951 Y80.7410
 X11.7894 Y80.9191
 X11.5761 Y81.1515
 X10.9953 Y81.9238
 X10.7901 Y80.8239
 X10.6041 Y79.6067
 X10.5983 Y79.4973
 X10.7170 Y79.4616
 X11.0228 Y79.4251
 X11.2366 Y79.4465
 X11.4534 Y79.5068
 G00 Z4.0000
 X9.7205 Y78.5485
 Z0.5000
 G01 Z-0.1000 F100
 X9.7413 Y78.6305 F2000
 X9.7251 Y79.7891
 X9.7061 Y79.7667
 X9.5530 Y79.4061
 X9.4533 Y79.0950
 X9.3914 Y78.7923
 X9.3692 Y78.4841
 X9.7205 Y78.5485
 G00 Z4.0000
 X8.5387 Y79.7302
 Z0.5000
 G01 Z-0.1000 F100
 X8.6295 Y79.7889 F2000
 X8.6855 Y79.8642
 X8.7042 Y79.9535
 X8.6908 Y80.0457
 X8.6506 Y80.1295
 X8.5899 Y80.1931
 X8.5189 Y80.2258
 X8.4384 Y80.2238
 X8.3524 Y80.1784
 X8.2632 Y80.0613
 X8.2518 Y79.9687
 X8.2706 Y79.8761
 X8.3150 Y79.7951
 X8.3769 Y79.7394
 X8.4524 Y79.7150
 X8.5387 Y79.7302
 G00 Z4.0000
 X8.9797 Y82.1963
 Z0.5000
 G01 Z-0.1000 F100
 X9.0158 Y82.4060 F2000
 X8.9907 Y82.4701
 X8.9369 Y82.5055
 X8.8494 Y82.5128
 X8.7081 Y82.4827
 X8.6704 Y82.3328
 X8.6776 Y82.2502
 X8.7148 Y82.1952
 X8.7811 Y82.1683
 X8.9387 Y82.1830
 X8.9797 Y82.1963
 G00 Z4.0000
 X8.7081 Y82.4827
 Z0.5000
 G01 Z-0.1000 F100
 F2000
 G00 Z4.0000
 X9.0504 Y82.5884
 Z0.5000
 G01 Z-0.1000 F100
 X9.6694 Y83.1719 F2000
 X10.3640 Y83.9125
 X10.4157 Y83.9899
 X9.9108 Y83.9564
 X9.4013 Y83.1072
 X9.0504 Y82.5884
 G00 Z4.0000
 X10.0076 Y82.5482
 Z0.5000
 G01 Z-0.1000 F100
 X10.0914 Y82.5884 F2000
 X10.1397 Y82.6520
 X10.1560 Y82.7326
 X10.1416 Y82.8158
 X10.1009 Y82.8896
 X10.0414 Y82.9399
 X9.9657 Y82.9600
 X9.8772 Y82.9399
 X9.7984 Y82.9055
 X9.7444 Y82.8414
 X9.7264 Y82.7624
 X9.7398 Y82.6802
 X9.7800 Y82.6064
 X9.8406 Y82.5536
 X9.9179 Y82.5306
 X10.0076 Y82.5482
 G00 Z4.0000
 X8.6131 Y83.6645
 Z0.5000
 G01 Z-0.1000 F100
 X9.2826 Y84.0162 F2000
 X9.7133 Y84.2880
 X10.1205 Y84.5923
 X10.5252 Y84.9682
 X10.6066 Y85.0567
 X10.5729 Y85.0705
 X10.3536 Y85.0327
 X9.9279 Y84.8820
 X9.1184 Y84.4602
 X8.7772 Y84.3282
 X8.0298 Y84.1319
 X7.7215 Y84.0285
 X7.5238 Y83.8882
 X7.1393 Y83.5195
 X6.9032 Y83.2536
 X7.3517 Y83.2491
 X7.6607 Y83.2848
 X7.9436 Y83.3512
 X8.2186 Y83.4573
 X8.6131 Y83.6645
 G00 Z4.0000
 X4.6251 Y83.7264
 Z0.5000
 G01 Z-0.1000 F100
 X4.7253 Y83.7483 F2000
 X5.2674 Y83.9170
 X5.8142 Y84.1279
 X6.3881 Y84.3900
 X7.0052 Y84.7129
 X7.7078 Y85.1224
 X9.2228 Y86.0844
 X9.4835 Y86.5977
 X8.8281 Y86.2577
 X7.8153 Y85.5940
 X7.4205 Y85.3636
 X5.7642 Y84.6391
 X5.2278 Y84.4515
 X4.7471 Y84.3176
 X4.5722 Y84.2973
 X4.5278 Y84.7998
 X4.9493 Y85.1689
 X5.2391 Y85.4551
 X5.9367 Y86.2917
 X6.8664 Y87.4645
 X7.2309 Y87.9881
 X7.5451 Y88.4900
 X7.8185 Y88.9825
 X7.9751 Y89.3240
 X7.6565 Y89.0121
 X7.0094 Y88.2734
 X5.3918 Y86.0982
 X4.8455 Y85.4304
 X4.4413 Y85.0793
 X4.0714 Y84.8169
 X3.0387 Y84.1539
 X2.8133 Y83.9874
 X2.9210 Y83.7397
 X3.0029 Y83.7099
 X3.6033 Y83.6583
 X4.3403 Y83.6642
 X4.6251 Y83.7264
 G00 Z4.0000
 X6.2763 Y74.2228
 Z0.5000
 G01 Z-0.1000 F100
 X6.3541 Y74.2761 F2000
 X6.4022 Y74.3560
 X6.4221 Y74.4520
 X6.4141 Y74.5495
 X6.3799 Y74.6347
 X6.3274 Y74.6914
 X6.2561 Y74.7183
 X6.1668 Y74.7063
 X6.0537 Y74.6286
 X6.0075 Y74.5427
 X5.9903 Y74.4460
 X6.0012 Y74.3511
 X6.0375 Y74.2730
 X6.0964 Y74.2206
 X6.1779 Y74.2016
 X6.2763 Y74.2228
 G00 Z4.0000
 X5.7827 Y71.4375
 Z0.5000
 G01 Z-0.1000 F100
 X5.8391 Y71.4936 F2000
 X5.8783 Y71.5723
 X5.8811 Y71.6359
 X5.8514 Y71.6680
 X5.7855 Y71.6704
 X5.6587 Y71.6232
 X5.6657 Y71.5243
 X5.6935 Y71.4473
 X5.7351 Y71.4225
 X5.7827 Y71.4375
 G00 Z4.0000
 X4.8897 Y70.9293
 Z0.5000
 G01 Z-0.1000 F100
 X5.1254 Y71.6025 F2000
 X5.2317 Y72.0436
 X5.1259 Y71.9542
 X4.8031 Y71.5637
 X4.4219 Y71.0133
 X4.4398 Y71.0106
 X4.8897 Y70.9293
 G00 Z4.0000
 X7.0657 Y69.2036
 Z0.5000
 G01 Z-0.1000 F100
 X7.1339 Y69.2446 F2000
 X7.4853 Y69.5136
 X7.5699 Y69.5868
 X7.3371 Y69.9857
 X7.2928 Y70.1100
 X7.2889 Y70.2376
 X7.7633 Y71.2444
 X7.8764 Y71.5684
 X7.9412 Y71.8511
 X7.9683 Y72.1414
 X7.9495 Y72.4402
 X7.9315 Y72.5421
 X6.6314 Y71.5772
 X6.2154 Y71.2948
 X5.7796 Y71.0476
 X5.3150 Y70.8151
 X4.8250 Y70.5933
 X4.5398 Y70.5015
 X4.2991 Y70.4556
 X4.0596 Y70.4446
 X3.8153 Y70.4738
 X3.7143 Y70.4988
 X3.7148 Y70.5609
 X3.9386 Y70.9964
 X4.3866 Y71.6192
 X4.6227 Y71.9699
 X5.0785 Y72.8290
 X5.2681 Y73.2729
 X5.4632 Y73.7969
 X6.0068 Y75.1083
 X6.2313 Y75.7712
 X6.4948 Y76.6516
 X7.3023 Y78.8707
 X7.8182 Y80.2091
 X8.3802 Y81.5306
 X8.4106 Y81.6078
 X8.1582 Y81.3044
 X7.7335 Y80.6947
 X7.4306 Y80.1805
 X6.7259 Y78.8061
 X5.5769 Y75.9456
 X5.2511 Y74.9991
 X4.8750 Y74.0318
 X4.4509 Y73.1295
 X4.0945 Y72.4424
 X3.7808 Y71.9042
 X3.4738 Y71.4377
 X3.1723 Y71.0335
 X2.9292 Y70.7660
 X2.6509 Y70.5170
 X2.3192 Y70.2703
 X1.9110 Y70.0117
 X1.2076 Y69.6185
 X1.2331 Y69.5897
 X1.7857 Y69.3938
 X1.9360 Y69.3710
 X2.8690 Y69.4685
 X3.5204 Y69.5780
 X4.1060 Y69.7060
 X4.6509 Y69.8555
 X5.1877 Y70.0364
 X5.6450 Y70.2210
 X5.9238 Y70.3691
 X6.2040 Y70.5572
 X6.9431 Y71.1473
 X7.2192 Y71.3361
 X7.2270 Y71.1082
 X7.2098 Y70.9319
 X7.1529 Y70.6877
 X7.0551 Y70.4341
 X6.9101 Y70.1609
 X6.0118 Y68.8691
 X6.0115 Y68.8449
 X6.1958 Y68.8609
 X6.6013 Y68.9643
 X6.8631 Y69.0818
 X7.0657 Y69.2036
 G00 Z4.0000
 X8.5727 Y69.2344
 Z0.5000
 G01 Z-0.1000 F100
 X8.6418 Y69.2848 F2000
 X8.6874 Y69.3598
 X8.7060 Y69.4466
 X8.6965 Y69.5333
 X8.6604 Y69.6050
 X8.5968 Y69.6555
 X8.5049 Y69.6746
 X8.4265 Y69.6646
 X8.3539 Y69.6175
 X8.3070 Y69.5438
 X8.2870 Y69.4563
 X8.2950 Y69.3673
 X8.3296 Y69.2929
 X8.3908 Y69.2396
 X8.4798 Y69.2174
 X8.5727 Y69.2344
 G00 Z4.0000
 X8.7588 Y69.8781
 Z0.5000
 G01 Z-0.1000 F100
 X8.9715 Y70.0795 F2000
 X9.2141 Y70.3565
 X9.4335 Y70.6539
 X9.6643 Y71.0141
 X9.6398 Y71.0087
 X9.2655 Y70.7224
 X9.0945 Y70.5418
 X8.9503 Y70.3415
 X8.8370 Y70.1206
 X8.7588 Y69.8781
 G00 Z4.0000
 X9.2795 Y69.2669
 Z0.5000
 G01 Z-0.1000 F100
 X9.3449 Y69.3157 F2000
 X9.3857 Y69.3897
 X9.3984 Y69.4754
 X9.3831 Y69.5606
 X9.3421 Y69.6305
 X9.2753 Y69.6779
 X9.1826 Y69.6919
 X9.0918 Y69.6774
 X9.0266 Y69.6289
 X8.9860 Y69.5557
 X8.9728 Y69.4705
 X8.9877 Y69.3856
 X9.0282 Y69.3161
 X9.0949 Y69.2680
 X9.1884 Y69.2508
 X9.2795 Y69.2669
 G00 Z4.0000
 X8.8234 Y68.2777
 Z0.5000
 G01 Z-0.1000 F100
 X8.9015 Y68.3300 F2000
 X8.9478 Y68.4067
 X8.9644 Y68.4980
 X8.9527 Y68.5907
 X8.9149 Y68.6726
 X8.8584 Y68.7287
 X8.7832 Y68.7554
 X8.6913 Y68.7431
 X8.5713 Y68.6682
 X8.5303 Y68.5865
 X8.5197 Y68.4938
 X8.5371 Y68.4023
 X8.5795 Y68.3248
 X8.6428 Y68.2729
 X8.7255 Y68.2552
 X8.8234 Y68.2777
 G00 Z4.0000
 X8.3188 Y70.2854
 Z0.5000
 G01 Z-0.1000 F100
 X8.3553 Y70.4883 F2000
 X8.3297 Y70.5539
 X8.2748 Y70.5917
 X8.1867 Y70.6010
 X8.0474 Y70.5724
 X8.0087 Y70.3972
 X8.0247 Y70.3212
 X8.0715 Y70.2739
 X8.1481 Y70.2556
 X8.3188 Y70.2854
 G00 Z4.0000
 X8.5727 Y70.8942
 Z0.5000
 G01 Z-0.1000 F100
 X8.9979 Y71.1811 F2000
 X9.1685 Y71.3390
 X9.2804 Y71.4838
 X9.3565 Y71.6347
 X9.3999 Y71.8044
 X9.2906 Y71.7298
 X8.9431 Y71.3920
 X8.7428 Y71.1519
 X8.5727 Y70.8942
 G00 Z4.0000
 X8.2506 Y71.3521
 Z0.5000
 G01 Z-0.1000 F100
 X8.5028 Y71.5324 F2000
 X8.7506 Y71.7518
 X8.9757 Y71.9964
 X9.1774 Y72.2633
 X9.3549 Y72.5497
 X9.5076 Y72.8525
 X9.5925 Y73.0869
 X9.6125 Y73.4909
 X9.5886 Y74.3780
 X9.5464 Y74.7952
 X9.3323 Y74.4717
 X8.9306 Y73.7499
 X8.7251 Y73.2910
 X8.5519 Y72.8195
 X8.4135 Y72.3377
 X8.3122 Y71.8479
 X8.2506 Y71.3521
 G00 Z4.0000
 X10.6832 Y71.0481
 Z0.5000
 G01 Z-0.1000 F100
 X10.9124 Y72.1601 F2000
 X10.9899 Y72.4862
 X10.9680 Y72.5039
 X10.5209 Y72.4872
 X10.6411 Y71.1997
 X10.6832 Y71.0481
 G00 Z4.0000
 X11.1796 Y71.1412
 Z0.5000
 G01 Z-0.1000 F100
 X11.6542 Y71.3299 F2000
 X11.5471 Y71.6648
 X11.4343 Y71.8510
 X11.2813 Y72.0291
 X11.1018 Y72.1873
 X10.9639 Y72.2876
 X10.9098 Y72.1482
 X10.6732 Y70.9961
 X11.1796 Y71.1412
 G00 Z4.0000
 X12.9428 Y68.8088
 Z0.5000
 G01 Z-0.1000 F100
 X13.2278 Y68.9583 F2000
 X13.4954 Y69.1433
 X13.6030 Y69.2348
 X12.6008 Y69.7528
 X12.4104 Y69.9060
 X11.9995 Y70.3603
 X11.7601 Y70.5978
 X11.6813 Y70.6404
 X10.8091 Y70.5556
 X10.7923 Y69.9943
 X10.8260 Y69.5649
 X10.8997 Y69.0744
 X10.9974 Y68.5898
 X11.3661 Y68.5467
 X11.6921 Y68.5386
 X12.0149 Y68.5595
 X12.3331 Y68.6106
 X12.6435 Y68.6933
 X12.9428 Y68.8088
 G00 Z4.0000
 X14.9904 Y69.8857
 Z0.5000
 G01 Z-0.1000 F100
 F2000
 X15.2608 Y69.9648
 X15.5152 Y70.0686
 X15.7511 Y70.1954
 X15.9713 Y70.3471
 X16.0420 Y70.4346
 X15.1101 Y71.1027
 X14.7121 Y71.6340
 X14.5925 Y71.7353
 X14.5142 Y71.7525
 X13.2146 Y71.4196
 X12.1667 Y71.5206
 X12.2016 Y70.9869
 X12.2487 Y70.7753
 X12.3132 Y70.6377
 X12.4137 Y70.5189
 X12.7699 Y70.2407
 G03 X13.2805 Y69.9855 I1.4062 J2.1759 F2000.0
 X14.9904 Y69.8857 I1.0206 J2.7882
 G00 Z4.0000
 X14.0829 Y72.2206
 Z0.5000
 G01 Z-0.1000 F100
 X14.4134 Y72.3935 F2000
 X14.9363 Y72.7322
 X15.0310 Y72.7994
 X15.0059 Y72.9464
 X14.4944 Y74.2733
 X14.4466 Y74.3008
 X14.0692 Y74.3451
 X12.8349 Y74.6703
 X12.5481 Y74.7220
 X12.2754 Y74.6953
 X12.0083 Y74.6416
 X11.1766 Y74.3971
 X10.7240 Y74.2829
 X10.7147 Y74.1348
 G03 X10.7816 Y73.5767 I1.9811 J-0.0456 F2000.0
 X11.7677 Y72.2792 I2.0931 J0.5673
 G01 X12.0166 Y72.1531 F2000
 X12.2821 Y72.0618
 X12.5612 Y72.0085
 X12.9130 Y71.9777
 X13.2058
 X13.4860 Y72.0175
 X13.7765 Y72.0973
 X14.0829 Y72.2206
 G00 Z4.0000
 X14.9978 Y74.9176
 Z0.5000
 G01 Z-0.1000 F100
 X15.3252 Y74.9677 F2000
 X15.6160 Y75.0420
 X15.8954 Y75.1476
 X16.1604 Y75.2884
 X16.4078 Y75.4685
 X16.4855 Y75.5434
 X16.5263 Y75.8674
 X16.5383 Y76.3661
 X16.5220 Y76.6583
 X16.4865 Y76.7312
 X15.2359 Y77.6033
 X14.9119 Y77.8634
 X14.7336 Y78.0325
 X14.1311 Y77.8629
 X13.7728 Y77.8105
 X13.3806 Y77.7915
 X12.9438 Y77.8077
 X12.4438 Y77.8621
 X11.8424 Y77.9595
 X11.8493 Y76.8541
 X11.8814 Y76.5531
 X11.9372 Y76.3208
 X12.0013 Y76.1520
 X12.3055 Y75.7288
 X12.5270 Y75.4836
 X12.7351 Y75.2976
 X12.9356 Y75.1576
 X13.1398 Y75.0527
 X13.3583 Y74.9802
 X14.1554 Y74.9016
 X14.6184 Y74.8937
 X14.9978 Y74.9176
 G00 Z4.0000
 X11.7630 Y75.0592
 Z0.5000
 G01 Z-0.1000 F100
 X11.9385 Y75.1062 F2000
 X11.9529 Y75.1383
 X11.6035 Y75.9322
 X11.4915 Y76.2383
 X11.4413 Y76.4883
 X11.4276 Y76.7680
 X11.4354 Y77.1594
 X11.4738 Y77.5885
 X11.5852 Y78.2503
 X11.4678 Y78.3725
 X11.1022 Y78.6659
 X10.9286 Y78.7576
 X10.7581 Y78.8094
 X10.5716 Y78.8233
 X10.4978 Y77.7382
 X10.4806 Y76.8997
 X10.5035 Y76.0612
 X10.5868 Y75.0927
 X10.6341 Y74.9406
 X11.2665 Y74.9552
 X11.6048 Y75.0169
 X11.7630 Y75.0592
 G00 Z4.0000
 X17.5456 Y77.4156
 Z0.5000
 G01 Z-0.1000 F100
 X17.8772 Y77.5058 F2000
 X18.2324 Y77.6414
 X18.5853 Y77.8120
 X18.7725 Y77.9350
 X18.0343 Y78.4356
 X17.7174 Y78.6965
 X17.4699 Y78.9388
 X17.2662 Y79.1808
 X17.0907 Y79.4436
 X16.9483 Y79.7293
 X16.7713 Y80.0094
 X15.7211 Y80.2382
 X15.3461 Y80.3597
 X14.8837 Y80.5485
 X14.6885 Y79.9245
 X14.7650 Y79.4555
 X14.8536 Y79.1157
 X14.9629 Y78.8119
 X15.0898 Y78.5443
 X15.2327 Y78.3104
 X15.4007 Y78.0966
 X15.5954 Y77.9072
 X15.8185 Y77.7463
 X16.1100 Y77.5875
 X16.4217 Y77.4500
 X16.6765 Y77.3862
 X16.9472 Y77.3584
 X17.2362 Y77.3675
 X17.5456 Y77.4156
 G00 Z4.0000
 X20.1530 Y78.7922
 Z0.5000
 G01 Z-0.1000 F100
 X20.3312 Y78.8663 F2000
 X20.5281 Y78.9889
 X20.6108 Y79.0563
 X20.6460 Y79.1305
 X20.1415 Y79.5974
 X19.9362 Y79.8382
 X19.7789 Y80.0737
 X19.6569 Y80.3288
 X19.5215 Y80.8491
 X19.1710 Y80.9660
 X19.1372 Y80.9693
 X18.6352 Y80.6246
 X18.2492 Y80.4189
 X17.8125 Y80.2291
 X17.3316 Y80.0594
 X17.5605 Y79.6158
 X17.7285 Y79.3700
 X17.9031 Y79.1660
 X18.0815 Y79.0022
 X18.2668 Y78.8726
 X18.4684 Y78.7728
 X18.6864 Y78.7077
 X18.9065 Y78.6833
 X19.5975 Y78.6803
 X19.8858 Y78.7179
 X20.1203 Y78.7785
 X20.1530 Y78.7922
 G00 Z4.0000
 X17.8356 Y80.8198
 Z0.5000
 G01 Z-0.1000 F100
 X18.1009 Y80.9342 F2000
 X18.3925 Y81.0956
 X18.6934 Y81.3053
 X18.7684 Y81.4004
 X18.8028 Y81.4958
 X18.7991 Y81.6111
 X18.5523 Y81.9056
 X18.1511 Y82.2876
 X18.0071 Y82.4463
 X17.8765 Y82.6541
 X17.7455 Y82.9238
 X17.5066 Y83.5993
 X16.9957 Y83.4129
 X16.6838 Y83.3453
 X16.3288 Y83.3059
 X14.8210 Y83.3028
 X14.3157 Y83.2622
 X14.4776 Y82.4909
 X14.5945 Y82.1231
 X14.7231 Y81.8160
 X14.8638 Y81.5555
 X15.0165 Y81.3339
 X15.1927 Y81.1339
 X15.3958 Y80.9579
 X15.6279 Y80.8096
 X15.8691 Y80.7024
 X16.1257 Y80.6274
 X16.4179 Y80.5812
 X16.7275 Y80.5717
 X17.0537 Y80.6007
 X17.3945 Y80.6700
 X17.7456 Y80.7810
 X17.8356 Y80.8198
 G00 Z4.0000
 X16.9263 Y84.0282
 Z0.5000
 G01 Z-0.1000 F100
 X17.1630 Y84.1208 F2000
 X17.2172 Y84.1391
 X16.7561 Y84.6223
 X16.4104 Y85.0130
 X16.1893 Y85.3123
 X16.0022 Y85.6318
 X15.8584 Y85.9765
 X15.8263 Y86.0810
 X14.9931 Y85.8181
 X14.4980 Y85.7136
 X13.9656 Y85.6407
 X13.3840 Y85.5999
 X13.4193 Y85.3598
 X13.4978 Y85.0958
 X13.6132 Y84.8471
 X13.7666 Y84.6098
 X13.9564 Y84.3889
 X14.1773 Y84.1917
 X14.4225 Y84.0245
 X14.6873 Y83.8903
 X14.9668 Y83.7923
 X15.2566 Y83.7338
 X15.6674 Y83.7118
 X15.9148 Y83.7119
 X16.1570 Y83.7522
 X16.4290 Y83.8336
 X16.9263 Y84.0282
 G00 Z4.0000
 X19.8357 Y84.8604
 Z0.5000
 G01 Z-0.1000 F100
 X20.3086 Y85.0620 F2000
 X20.3915 Y85.1163
 X20.1709 Y85.4204
 X20.0426 Y85.6396
 X19.8974 Y85.9540
 X19.7890 Y86.2843
 X19.6982 Y86.7873
 X18.6319 Y87.1477
 X18.2680 Y87.2970
 X18.1188 Y87.3371
 X18.0050 Y87.3360
 X17.0815 Y86.9446
 X16.2472 Y86.6333
 X16.3679 Y86.0416
 X16.4638 Y85.7740
 X16.5772 Y85.5445
 X16.7069 Y85.3473
 X16.8618 Y85.1692
 X17.0602 Y85.0286
 X17.3397 Y84.8864
 X17.6487 Y84.7726
 X17.9790 Y84.6927
 X18.3289 Y84.6486
 X18.6951 Y84.6421
 X19.0728 Y84.6749
 X19.4557 Y84.7477
 X19.8357 Y84.8604
 G00 Z4.0000
 X20.9567 Y87.4304
 Z0.5000
 G01 Z-0.1000 F100
 X21.0405 Y87.4709 F2000
 X20.3836 Y88.3410
 X20.1841 Y88.6684
 X20.1022 Y88.8320
 X20.0587 Y89.0094
 X19.9893 Y89.6014
 X19.9800 Y90.0268
 X19.9903 Y90.5467
 X18.4665 Y90.1575
 X17.4435 Y90.1882
 X17.0246 Y90.1913
 X17.0400 Y90.0239
 X17.1949 Y89.3971
 X17.3164 Y89.0574
 X17.4504 Y88.7698
 X17.6025 Y88.5160
 X17.7825 Y88.2840
 X17.9933 Y88.0784
 X18.5864 Y87.6813
 X18.8592 Y87.5532
 X19.1566 Y87.4562
 X19.4826 Y87.3904
 X19.8419 Y87.3567
 X20.2412 Y87.3570
 X20.9567 Y87.4304
 G00 Z4.0000
 X23.5164 Y87.8307
 Z0.5000
 G01 Z-0.1000 F100
 X23.5249 Y87.9123 F2000
 X23.5947 Y88.7831
 X23.6162 Y89.5533
 X23.5649 Y89.7343
 X23.4736 Y89.9153
 X23.3410 Y90.0925
 X23.1687 Y90.2583
 X22.9632 Y90.4021
 X22.7449 Y90.5081
 X21.5668 Y90.4728
 X20.4486 Y90.4790
 X20.4153 Y89.9927
 X20.4323 Y89.6992
 X20.4768 Y89.4197
 X20.5470 Y89.1589
 X20.6408 Y88.9198
 X20.7609 Y88.6961
 X20.9089 Y88.4895
 X21.0860 Y88.3034
 X21.2933 Y88.1445
 X21.5285 Y88.0117
 X21.8009 Y87.9009
 X22.0992 Y87.8212
 X22.4271 Y87.7732
 X22.7893 Y87.7585
 X23.3974 Y87.8026
 X23.5164 Y87.8307
 G00 Z4.0000
 X25.8038 Y89.6353
 Z0.5000
 G01 Z-0.1000 F100
 X26.0465 Y90.1158 F2000
 X26.2354 Y90.4133
 X26.4421 Y90.6827
 X26.6739 Y90.9307
 X26.9323 Y91.1533
 X27.2186 Y91.3463
 X26.4750 Y91.5073
 X26.0555 Y91.6454
 X25.6090 Y91.8322
 X24.8444 Y92.2224
 X24.2670 Y92.1769
 X23.2783 Y92.1582
 X22.8035 Y92.1056
 X22.8513 Y91.6966
 X22.9312 Y91.4318
 X23.0497 Y91.1745
 X23.2075 Y90.9251
 X23.4057 Y90.6853
 X23.6443 Y90.4579
 X23.9225 Y90.2470
 X24.2369 Y90.0580
 X24.5780 Y89.8982
 X24.9311 Y89.7742
 X25.2887 Y89.6876
 X25.6436 Y89.6401
 X25.8038 Y89.6353
 G00 Z4.0000
 X24.5064 Y92.8196
 Z0.5000
 G01 Z-0.1000 F100
 X24.3778 Y93.3063 F2000
 X24.3627 Y93.5813
 X24.3846 Y93.8764
 X24.4464 Y94.2036
 X24.5664 Y94.6316
 X24.5770 Y94.7833
 X24.5484 Y94.9199
 X24.4825 Y95.0498
 X24.3755 Y95.1782
 X24.2171 Y95.3112
 X23.9755 Y95.4665
 X23.7283 Y95.5927
 X22.6545 Y95.5207
 X22.0985 Y95.5257
 X21.5434 Y95.5660
 X20.9907 Y95.6464
 X20.8643 Y95.3199
 X20.8169 Y95.1063
 X20.8090 Y94.9193
 X20.8414 Y94.7313
 X20.9968 Y94.3216
 X21.1203 Y94.0725
 X21.2768 Y93.8459
 X21.4733 Y93.6294
