%
(ToolChange)
(Test file1)
(T1 D=3.175 CR=0 - ZMIN=-6 - flat end mill)
(T2 D=1 CR=0 - ZMIN=-6 - flat end mill)
N10 G90 G94
N15 G17
N20 G21
N25 M9
N30 G28

(2D Contour1)
N40 T2 M6
N45 T1
N50 S5000 M3
N55 G54
N60 M8
N70 G0 X37.6 Y6.7
N75 G43 Z9
N80 Z4
N85 G1 Z0 F333.3
N90 Z-5.9
N95 G19 G3 Y6.8 Z-6 J0.1
N100 G1 Y6.9 F1000
N105 G17 G3 X37.5 Y7 I-0.1
N110 G1 X-37.5
N115 G3 X-37.6 Y6.9 J-0.1
N120 G1 Y6.8
N125 G19 G2 Y6.7 Z-5.9 K0.1
N130 G0 Z9
N135 G17
N140 M5
N145 M9
N150 G28

(2D Contour2)
N160 M1
N165 T1 M6
N170 T2
N175 S5000 M3
N180 G54
N185 M8
N195 G0 X-37.818 Y-4.96
N200 G43 Z15
N205 Z4
N210 G1 Z0 F333.3
N215 Z-5.683
N220 G19 G2 Y-5.278 Z-6 J-0.318
N225 G1 Y-5.595 F1000
N230 G17 G3 X-37.5 Y-5.912 I0.318
N235 G1 X37.5
N240 G3 X37.818 Y-5.595 J0.318
N245 G1 Y-5.278
N250 G19 G3 Y-4.96 Z-5.683 K0.318
N255 G0 Z15
N260 G17
N265 M9
N270 G28
N275 M30
%
