%
(1001)
(Test file1)
(T1 D=3.175 CR=0 - ZMIN=-1 - flat end mill)
N10 G90 G94
N15 G17
N20 G21
N25 M9
N30 G28

(2D Contour1)
N35 T1 M6
N40 S14000 M3
N45 G54
N50 M8
N55 G0 X1.005 Y-0.643
N60 G43 Z15
N65 Z5
N70 G1 Z1 F333.3
N75 Z-0.683
N80 G18 G2 X1.323 Z-1 I0.317
N85 G1 X1.64 F1000
N90 G17 G3 X1.958 Y-0.325 J0.317
N95 X-3.55 I-2.754 F711.2
N100 X1.958 I2.754
N105 X1.64 Y-0.008 I-0.317 F1000
N110 G1 X1.323
N115 G18 G3 X1.005 Z-0.683 K0.317
N120 G0 Z15
N125 G17
N130 M9
N135 G28
N140 M30
%
