%
(1001)
(Test file1)
(T2 D=1 CR=0 - ZMIN=-1 - flat end mill)
N10 G90 G94
N15 G17
N20 G21
N25 M9
N30 G28

(2D Contour2)
N35 T2 M6
N40 S20000 M3
N45 G54
N50 G0 X2.745 Y-0.425
N55 G43 Z15
N60 Z5
N65 G1 Z1 F333.3
N70 Z-0.9
N75 G18 G2 X2.845 Z-1 I0.1
N80 G1 X2.945 F1000
N85 G17 G3 X3.045 Y-0.325 J0.1
N90 X-4.637 I-3.841 F1016
N95 X3.045 I3.841
N100 X2.945 Y-0.225 I-0.1 F1000
N105 G1 X2.845
N110 G18 G3 X2.745 Z-0.9 K0.1
N115 G0 Z15
N120 G17
N125 G28
N130 M30
%
