%
(Bientje en bobbie)
(Test file1)
(T1 D=4 CR=0 - ZMIN=-3 - flat end mill)
N10 G90 G94
N15 G17
N20 G21
N25 M9
N30 G28

(2D Contour2)
N40 T1 M6
N45 S5000 M3
N50 G54
N55 M8
N65 G0 X-12.9 Y0.7
N70 G43 Z15
N75 Z5
N80 G1 Z1 F333.3
N85 Z-2.6
N90 G19 G2 Y0.3 Z-3 J-0.4
N95 G1 Y-0.1 F1000
N100 G17 G3 X-12.5 Y-0.5 I0.4
N105 G1 X12.5
N110 G3 X12.9 Y-0.1 J0.4
N115 G1 Y0.3
N120 G19 G3 Y0.7 Z-2.6 K0.4
N125 G0 Z15
N130 G17
N135 M9
N140 G28
N145 M30
%
