%
(Emmie)
(Test file1)
(T8 D=1 CR=0.5 - ZMIN=-1 - ball end mill)
N10 G90 G94
N15 G17
N20 G21
N25 M9
N30 G28

(2D Adaptive2)
N40 T8 M6
N45 S12000 M3
N50 G54
N60 G0 X-87.858 Y-44.119
N65 G43 Z15
N70 Z5
N75 Z2.65
N80 G1 Z2.55 F1000
N85 G3 X-87.629 Y-44.021 Z2.536 I0.115 J0.049 F333.3
N90 X-87.858 Y-44.119 Z2.523 I-0.115 J-0.049
N95 X-87.629 Y-44.021 Z2.509 I0.115 J0.049
N100 X-87.858 Y-44.119 Z2.495 I-0.115 J-0.049
N105 X-87.629 Y-44.021 Z2.481 I0.115 J0.049
N110 X-87.858 Y-44.119 Z2.468 I-0.115 J-0.049
N115 X-87.629 Y-44.021 Z2.454 I0.115 J0.049
N120 X-87.858 Y-44.119 Z2.44 I-0.115 J-0.049
N125 X-87.629 Y-44.021 Z2.427 I0.115 J0.049
N130 X-87.858 Y-44.119 Z2.413 I-0.115 J-0.049
N135 X-87.629 Y-44.021 Z2.399 I0.115 J0.049
N140 X-87.858 Y-44.119 Z2.385 I-0.115 J-0.049
N145 X-87.629 Y-44.021 Z2.372 I0.115 J0.049
N150 X-87.858 Y-44.119 Z2.358 I-0.115 J-0.049
N155 X-87.629 Y-44.021 Z2.344 I0.115 J0.049
N160 X-87.858 Y-44.119 Z2.331 I-0.115 J-0.049
N165 X-87.629 Y-44.021 Z2.317 I0.115 J0.049
N170 X-87.858 Y-44.119 Z2.303 I-0.115 J-0.049
N175 X-87.629 Y-44.021 Z2.289 I0.115 J0.049
N180 X-87.858 Y-44.119 Z2.276 I-0.115 J-0.049
N185 X-87.629 Y-44.021 Z2.262 I0.115 J0.049
N190 X-87.858 Y-44.119 Z2.248 I-0.115 J-0.049
N195 X-87.629 Y-44.021 Z2.235 I0.115 J0.049
N200 X-87.858 Y-44.119 Z2.221 I-0.115 J-0.049
N205 X-87.629 Y-44.021 Z2.207 I0.115 J0.049
N210 X-87.858 Y-44.119 Z2.193 I-0.115 J-0.049
N215 X-87.629 Y-44.021 Z2.18 I0.115 J0.049
N220 X-87.858 Y-44.119 Z2.166 I-0.115 J-0.049
N225 X-87.629 Y-44.021 Z2.152 I0.115 J0.049
N230 X-87.858 Y-44.119 Z2.139 I-0.115 J-0.049
N235 X-87.629 Y-44.021 Z2.125 I0.115 J0.049
N240 X-87.858 Y-44.119 Z2.111 I-0.115 J-0.049
N245 X-87.629 Y-44.021 Z2.097 I0.115 J0.049
N250 X-87.858 Y-44.119 Z2.084 I-0.115 J-0.049
N255 X-87.629 Y-44.021 Z2.07 I0.115 J0.049
N260 X-87.858 Y-44.119 Z2.056 I-0.115 J-0.049
N265 X-87.629 Y-44.021 Z2.043 I0.115 J0.049
N270 X-87.858 Y-44.119 Z2.029 I-0.115 J-0.049
N275 X-87.629 Y-44.021 Z2.015 I0.115 J0.049
N280 X-87.858 Y-44.119 Z2.001 I-0.115 J-0.049
N285 X-87.629 Y-44.021 Z1.988 I0.115 J0.049
N290 X-87.858 Y-44.119 Z1.974 I-0.115 J-0.049
N295 X-87.629 Y-44.021 Z1.96 I0.115 J0.049
N300 X-87.858 Y-44.119 Z1.947 I-0.115 J-0.049
N305 X-87.629 Y-44.021 Z1.933 I0.115 J0.049
N310 X-87.858 Y-44.119 Z1.919 I-0.115 J-0.049
N315 X-87.629 Y-44.021 Z1.905 I0.115 J0.049
N320 X-87.858 Y-44.119 Z1.892 I-0.115 J-0.049
N325 X-87.629 Y-44.021 Z1.878 I0.115 J0.049
N330 X-87.858 Y-44.119 Z1.864 I-0.115 J-0.049
N335 X-87.629 Y-44.021 Z1.851 I0.115 J0.049
N340 X-87.858 Y-44.119 Z1.837 I-0.115 J-0.049
N345 X-87.629 Y-44.021 Z1.823 I0.115 J0.049
N350 X-87.858 Y-44.119 Z1.809 I-0.115 J-0.049
N355 X-87.629 Y-44.021 Z1.796 I0.115 J0.049
N360 X-87.858 Y-44.119 Z1.782 I-0.115 J-0.049
N365 X-87.629 Y-44.021 Z1.768 I0.115 J0.049
N370 X-87.858 Y-44.119 Z1.755 I-0.115 J-0.049
N375 X-87.629 Y-44.021 Z1.741 I0.115 J0.049
N380 X-87.858 Y-44.119 Z1.727 I-0.115 J-0.049
N385 X-87.629 Y-44.021 Z1.713 I0.115 J0.049
N390 X-87.858 Y-44.119 Z1.7 I-0.115 J-0.049
N395 X-87.629 Y-44.021 Z1.686 I0.115 J0.049
N400 X-87.858 Y-44.119 Z1.672 I-0.115 J-0.049
N405 X-87.629 Y-44.021 Z1.659 I0.115 J0.049
N410 X-87.858 Y-44.119 Z1.645 I-0.115 J-0.049
N415 X-87.629 Y-44.021 Z1.631 I0.115 J0.049
N420 X-87.858 Y-44.119 Z1.617 I-0.115 J-0.049
N425 X-87.629 Y-44.021 Z1.604 I0.115 J0.049
N430 X-87.858 Y-44.119 Z1.59 I-0.115 J-0.049
N435 X-87.629 Y-44.021 Z1.576 I0.115 J0.049
N440 X-87.858 Y-44.119 Z1.563 I-0.115 J-0.049
N445 X-87.629 Y-44.021 Z1.549 I0.115 J0.049
N450 X-87.858 Y-44.119 Z1.535 I-0.115 J-0.049
N455 X-87.629 Y-44.021 Z1.521 I0.115 J0.049
N460 X-87.858 Y-44.119 Z1.508 I-0.115 J-0.049
N465 X-87.629 Y-44.021 Z1.494 I0.115 J0.049
N470 X-87.858 Y-44.119 Z1.48 I-0.115 J-0.049
N475 X-87.629 Y-44.021 Z1.467 I0.115 J0.049
N480 X-87.858 Y-44.119 Z1.453 I-0.115 J-0.049
N485 X-87.629 Y-44.021 Z1.439 I0.115 J0.049
N490 X-87.858 Y-44.119 Z1.426 I-0.115 J-0.049
N495 X-87.629 Y-44.021 Z1.412 I0.115 J0.049
N500 X-87.858 Y-44.119 Z1.398 I-0.115 J-0.049
N505 X-87.629 Y-44.021 Z1.384 I0.115 J0.049
N510 X-87.858 Y-44.119 Z1.371 I-0.115 J-0.049
N515 X-87.629 Y-44.021 Z1.357 I0.115 J0.049
N520 X-87.858 Y-44.119 Z1.343 I-0.115 J-0.049
N525 X-87.629 Y-44.021 Z1.33 I0.115 J0.049
N530 X-87.858 Y-44.119 Z1.316 I-0.115 J-0.049
N535 X-87.629 Y-44.021 Z1.302 I0.115 J0.049
N540 X-87.858 Y-44.119 Z1.288 I-0.115 J-0.049
N545 X-87.629 Y-44.021 Z1.275 I0.115 J0.049
N550 X-87.858 Y-44.119 Z1.261 I-0.115 J-0.049
N555 X-87.629 Y-44.021 Z1.247 I0.115 J0.049
N560 X-87.858 Y-44.119 Z1.234 I-0.115 J-0.049
N565 X-87.629 Y-44.021 Z1.22 I0.115 J0.049
N570 X-87.858 Y-44.119 Z1.206 I-0.115 J-0.049
N575 X-87.629 Y-44.021 Z1.192 I0.115 J0.049
N580 X-87.858 Y-44.119 Z1.179 I-0.115 J-0.049
N585 X-87.629 Y-44.021 Z1.165 I0.115 J0.049
N590 X-87.858 Y-44.119 Z1.151 I-0.115 J-0.049
N595 X-87.629 Y-44.021 Z1.138 I0.115 J0.049
N600 X-87.858 Y-44.119 Z1.124 I-0.115 J-0.049
N605 X-87.629 Y-44.021 Z1.11 I0.115 J0.049
N610 X-87.858 Y-44.119 Z1.096 I-0.115 J-0.049
N615 X-87.629 Y-44.021 Z1.083 I0.115 J0.049
N620 X-87.858 Y-44.119 Z1.069 I-0.115 J-0.049
N625 X-87.629 Y-44.021 Z1.055 I0.115 J0.049
N630 X-87.858 Y-44.119 Z1.042 I-0.115 J-0.049
N635 X-87.629 Y-44.021 Z1.028 I0.115 J0.049
N640 X-87.858 Y-44.119 Z1.014 I-0.115 J-0.049
N645 X-87.629 Y-44.021 Z1 I0.115 J0.049
N650 X-87.858 Y-44.119 Z0.987 I-0.115 J-0.049
N655 X-87.629 Y-44.021 Z0.973 I0.115 J0.049
N660 X-87.858 Y-44.119 Z0.959 I-0.115 J-0.049
N665 X-87.629 Y-44.021 Z0.946 I0.115 J0.049
N670 X-87.858 Y-44.119 Z0.932 I-0.115 J-0.049
N675 X-87.629 Y-44.021 Z0.918 I0.115 J0.049
N680 X-87.858 Y-44.119 Z0.904 I-0.115 J-0.049
N685 X-87.629 Y-44.021 Z0.891 I0.115 J0.049
N690 X-87.858 Y-44.119 Z0.877 I-0.115 J-0.049
N695 X-87.629 Y-44.021 Z0.863 I0.115 J0.049
N700 X-87.858 Y-44.119 Z0.85 I-0.115 J-0.049
N705 X-87.629 Y-44.021 Z0.836 I0.115 J0.049
N710 X-87.858 Y-44.119 Z0.822 I-0.115 J-0.049
N715 X-87.629 Y-44.021 Z0.808 I0.115 J0.049
N720 X-87.858 Y-44.119 Z0.795 I-0.115 J-0.049
N725 X-87.629 Y-44.021 Z0.781 I0.115 J0.049
N730 X-87.858 Y-44.119 Z0.767 I-0.115 J-0.049
N735 X-87.629 Y-44.021 Z0.754 I0.115 J0.049
N740 X-87.858 Y-44.119 Z0.74 I-0.115 J-0.049
N745 X-87.629 Y-44.021 Z0.726 I0.115 J0.049
N750 X-87.858 Y-44.119 Z0.712 I-0.115 J-0.049
N755 X-87.629 Y-44.021 Z0.699 I0.115 J0.049
N760 X-87.858 Y-44.119 Z0.685 I-0.115 J-0.049
N765 X-87.629 Y-44.021 Z0.671 I0.115 J0.049
N770 X-87.858 Y-44.119 Z0.658 I-0.115 J-0.049
N775 X-87.629 Y-44.021 Z0.644 I0.115 J0.049
N780 X-87.858 Y-44.119 Z0.63 I-0.115 J-0.049
N785 X-87.629 Y-44.021 Z0.616 I0.115 J0.049
N790 X-87.858 Y-44.119 Z0.603 I-0.115 J-0.049
N795 X-87.629 Y-44.021 Z0.589 I0.115 J0.049
N800 X-87.858 Y-44.119 Z0.575 I-0.115 J-0.049
N805 X-87.629 Y-44.021 Z0.562 I0.115 J0.049
N810 X-87.858 Y-44.119 Z0.548 I-0.115 J-0.049
N815 X-87.629 Y-44.021 Z0.534 I0.115 J0.049
N820 X-87.858 Y-44.119 Z0.52 I-0.115 J-0.049
N825 X-87.629 Y-44.021 Z0.507 I0.115 J0.049
N830 X-87.858 Y-44.119 Z0.493 I-0.115 J-0.049
N835 X-87.629 Y-44.021 Z0.479 I0.115 J0.049
N840 X-87.858 Y-44.119 Z0.466 I-0.115 J-0.049
N845 X-87.629 Y-44.021 Z0.452 I0.115 J0.049
N850 X-87.858 Y-44.119 Z0.438 I-0.115 J-0.049
N855 X-87.629 Y-44.021 Z0.424 I0.115 J0.049
N860 X-87.858 Y-44.119 Z0.411 I-0.115 J-0.049
N865 X-87.629 Y-44.021 Z0.397 I0.115 J0.049
N870 X-87.858 Y-44.119 Z0.383 I-0.115 J-0.049
N875 X-87.629 Y-44.021 Z0.37 I0.115 J0.049
N880 X-87.858 Y-44.119 Z0.356 I-0.115 J-0.049
N885 X-87.629 Y-44.021 Z0.342 I0.115 J0.049
N890 X-87.858 Y-44.119 Z0.328 I-0.115 J-0.049
N895 X-87.629 Y-44.021 Z0.315 I0.115 J0.049
N900 X-87.858 Y-44.119 Z0.301 I-0.115 J-0.049
N905 X-87.629 Y-44.021 Z0.287 I0.115 J0.049
N910 X-87.858 Y-44.119 Z0.274 I-0.115 J-0.049
N915 X-87.629 Y-44.021 Z0.26 I0.115 J0.049
N920 X-87.858 Y-44.119 Z0.246 I-0.115 J-0.049
N925 X-87.629 Y-44.021 Z0.232 I0.115 J0.049
N930 X-87.858 Y-44.119 Z0.219 I-0.115 J-0.049
N935 X-87.629 Y-44.021 Z0.205 I0.115 J0.049
N940 X-87.858 Y-44.119 Z0.191 I-0.115 J-0.049
N945 X-87.629 Y-44.021 Z0.178 I0.115 J0.049
N950 X-87.858 Y-44.119 Z0.164 I-0.115 J-0.049
N955 X-87.629 Y-44.021 Z0.15 I0.115 J0.049
N960 X-87.858 Y-44.119 Z0.136 I-0.115 J-0.049
N965 X-87.629 Y-44.021 Z0.123 I0.115 J0.049
N970 X-87.858 Y-44.119 Z0.109 I-0.115 J-0.049
N975 X-87.629 Y-44.021 Z0.095 I0.115 J0.049
N980 X-87.858 Y-44.119 Z0.082 I-0.115 J-0.049
N985 X-87.629 Y-44.021 Z0.068 I0.115 J0.049
N990 X-87.858 Y-44.119 Z0.054 I-0.115 J-0.049
N995 X-87.629 Y-44.021 Z0.04 I0.115 J0.049
N1000 X-87.858 Y-44.119 Z0.027 I-0.115 J-0.049
N1005 X-87.629 Y-44.021 Z0.013 I0.115 J0.049
N1010 X-87.858 Y-44.119 Z-0.001 I-0.115 J-0.049
N1015 X-87.629 Y-44.021 Z-0.014 I0.115 J0.049
N1020 X-87.858 Y-44.119 Z-0.028 I-0.115 J-0.049
N1025 X-87.629 Y-44.021 Z-0.042 I0.115 J0.049
N1030 X-87.858 Y-44.119 Z-0.056 I-0.115 J-0.049
N1035 X-87.629 Y-44.021 Z-0.069 I0.115 J0.049
N1040 X-87.858 Y-44.119 Z-0.083 I-0.115 J-0.049
N1045 X-87.629 Y-44.021 Z-0.097 I0.115 J0.049
N1050 X-87.858 Y-44.119 Z-0.11 I-0.115 J-0.049
N1055 X-87.629 Y-44.021 Z-0.124 I0.115 J0.049
N1060 X-87.858 Y-44.119 Z-0.138 I-0.115 J-0.049
N1065 X-87.629 Y-44.021 Z-0.152 I0.115 J0.049
N1070 X-87.858 Y-44.119 Z-0.165 I-0.115 J-0.049
N1075 X-87.629 Y-44.021 Z-0.179 I0.115 J0.049
N1080 X-87.858 Y-44.119 Z-0.193 I-0.115 J-0.049
N1085 X-87.629 Y-44.021 Z-0.206 I0.115 J0.049
N1090 X-87.858 Y-44.119 Z-0.22 I-0.115 J-0.049
N1095 X-87.629 Y-44.021 Z-0.234 I0.115 J0.049
N1100 X-87.858 Y-44.119 Z-0.248 I-0.115 J-0.049
N1105 X-87.629 Y-44.021 Z-0.261 I0.115 J0.049
N1110 X-87.858 Y-44.119 Z-0.275 I-0.115 J-0.049
N1115 X-87.629 Y-44.021 Z-0.289 I0.115 J0.049
N1120 X-87.858 Y-44.119 Z-0.302 I-0.115 J-0.049
N1125 X-87.629 Y-44.021 Z-0.316 I0.115 J0.049
N1130 X-87.858 Y-44.119 Z-0.33 I-0.115 J-0.049
N1135 X-87.629 Y-44.021 Z-0.344 I0.115 J0.049
N1140 X-87.858 Y-44.119 Z-0.357 I-0.115 J-0.049
N1145 X-87.629 Y-44.021 Z-0.371 I0.115 J0.049
N1150 X-87.858 Y-44.119 Z-0.385 I-0.115 J-0.049
N1155 X-87.629 Y-44.021 Z-0.398 I0.115 J0.049
N1160 X-87.858 Y-44.119 Z-0.412 I-0.115 J-0.049
N1165 X-87.629 Y-44.021 Z-0.426 I0.115 J0.049
N1170 X-87.858 Y-44.119 Z-0.44 I-0.115 J-0.049
N1175 X-87.629 Y-44.021 Z-0.453 I0.115 J0.049
N1180 X-87.858 Y-44.119 Z-0.467 I-0.115 J-0.049
N1185 X-87.629 Y-44.021 Z-0.481 I0.115 J0.049
N1190 X-87.858 Y-44.119 Z-0.494 I-0.115 J-0.049
N1195 X-87.629 Y-44.021 Z-0.508 I0.115 J0.049
N1200 X-87.858 Y-44.119 Z-0.522 I-0.115 J-0.049
N1205 X-87.629 Y-44.021 Z-0.536 I0.115 J0.049
N1210 X-87.858 Y-44.119 Z-0.549 I-0.115 J-0.049
N1215 X-87.629 Y-44.021 Z-0.563 I0.115 J0.049
N1220 X-87.858 Y-44.119 Z-0.577 I-0.115 J-0.049
N1225 X-87.629 Y-44.021 Z-0.59 I0.115 J0.049
N1230 X-87.858 Y-44.119 Z-0.604 I-0.115 J-0.049
N1235 X-87.629 Y-44.021 Z-0.618 I0.115 J0.049
N1240 X-87.858 Y-44.119 Z-0.631 I-0.115 J-0.049
N1245 X-87.629 Y-44.021 Z-0.645 I0.115 J0.049
N1250 X-87.858 Y-44.119 Z-0.659 I-0.115 J-0.049
N1255 X-87.629 Y-44.021 Z-0.673 I0.115 J0.049
N1260 X-87.858 Y-44.119 Z-0.686 I-0.115 J-0.049
N1265 X-87.629 Y-44.021 Z-0.7 I0.115 J0.049
N1270 X-87.858 Y-44.119 Z-0.714 I-0.115 J-0.049
N1275 X-87.629 Y-44.021 Z-0.727 I0.115 J0.049
N1280 X-87.858 Y-44.119 Z-0.741 I-0.115 J-0.049
N1285 X-87.629 Y-44.021 Z-0.755 I0.115 J0.049
N1290 X-87.858 Y-44.119 Z-0.769 I-0.115 J-0.049
N1295 X-87.629 Y-44.021 Z-0.782 I0.115 J0.049
N1300 X-87.858 Y-44.119 Z-0.796 I-0.115 J-0.049
N1305 X-87.629 Y-44.021 Z-0.81 I0.115 J0.049
N1310 X-87.858 Y-44.119 Z-0.823 I-0.115 J-0.049
N1315 X-87.629 Y-44.021 Z-0.837 I0.115 J0.049
N1320 X-87.858 Y-44.119 Z-0.851 I-0.115 J-0.049
N1325 X-87.629 Y-44.021 Z-0.865 I0.115 J0.049
N1330 X-87.858 Y-44.119 Z-0.878 I-0.115 J-0.049
N1335 X-87.629 Y-44.021 Z-0.892 I0.115 J0.049
N1340 X-87.858 Y-44.119 Z-0.906 I-0.115 J-0.049
N1345 X-87.629 Y-44.021 Z-0.919 I0.115 J0.049
N1350 X-87.858 Y-44.119 Z-0.933 I-0.115 J-0.049
N1355 X-87.629 Y-44.021 Z-0.947 I0.115 J0.049
N1360 X-87.858 Y-44.119 Z-0.961 I-0.115 J-0.049
N1365 X-87.629 Y-44.021 Z-0.974 I0.115 J0.049
N1370 X-87.858 Y-44.119 Z-0.988 I-0.115 J-0.049
N1375 X-87.618 Y-44.07 Z-1 I0.115 J0.049
N1380 X-87.868 I-0.125
N1385 X-87.618 I0.125
N1390 G1 X-87.59 Y-44 F480
N1395 X-87.586 Y-43.963
N1400 X-87.602 Y-43.89
N1405 X-87.651 Y-43.833
N1410 X-87.717 Y-43.799
N1415 X-87.792 Y-43.788
N1420 X-87.866 Y-43.8
N1425 X-87.933 Y-43.833
N1430 X-87.99 Y-43.882
N1435 X-88.032 Y-43.944
N1440 X-88.082 Y-44.085
N1445 X-88.057 Y-44.233
N1450 X-87.967 Y-44.354
N1455 X-87.835 Y-44.425
N1460 X-87.686 Y-44.435
N1465 X-87.545 Y-44.384
N1470 X-87.431 Y-44.285
N1475 X-87.352 Y-44.158
N1480 X-87.316 Y-44.012
N1485 X-87.331 Y-43.863
N1490 X-87.393 Y-43.727
N1495 X-87.496 Y-43.618
N1500 X-87.628 Y-43.546
N1505 X-87.775 Y-43.517
N1510 X-87.925 Y-43.532
N1515 X-88.064 Y-43.587
N1520 X-88.183 Y-43.679
N1525 X-88.279 Y-43.794
N1530 X-88.34 Y-43.931
N1535 X-88.368 Y-44.078
N1540 X-88.355 Y-44.228
N1545 X-88.31 Y-44.371
N1550 X-88.228 Y-44.496
N1555 X-88.121 Y-44.602
N1560 X-87.991 Y-44.676
N1565 X-87.848 Y-44.721
N1570 X-87.698 Y-44.73
N1575 X-87.55 Y-44.704
N1580 X-87.411 Y-44.65
N1585 X-87.287 Y-44.565
N1590 X-87.181 Y-44.459
N1595 X-87.097 Y-44.335
N1600 X-87.042 Y-44.195
N1605 X-87.012 Y-44.048
N1610 X-87.015 Y-43.898
N1615 X-87.046 Y-43.751
N1620 X-87.104 Y-43.613
N1625 X-87.19 Y-43.49
N1630 X-87.296 Y-43.384
N1635 X-87.422 Y-43.302
N1640 X-87.56 Y-43.244
N1645 X-87.706 Y-43.211
N1650 X-87.856 Y-43.208
N1655 X-88.005 Y-43.23
N1660 X-88.147 Y-43.278
N1665 X-88.278 Y-43.351
N1670 X-88.397 Y-43.443
N1675 X-88.498 Y-43.553
N1680 X-88.579 Y-43.68
N1685 X-88.639 Y-43.817
N1690 X-88.675 Y-43.963
N1695 X-88.686 Y-44.112
N1700 X-88.675 Y-44.262
N1705 X-88.638 Y-44.407
N1710 X-88.579 Y-44.545
N1715 X-88.499 Y-44.672
N1720 X-88.4 Y-44.784
N1725 X-88.283 Y-44.879
N1730 X-88.155 Y-44.956
N1735 X-88.015 Y-45.011
N1740 X-87.869 Y-45.043
N1745 X-87.719 Y-45.053
N1750 X-87.569 Y-45.041
N1755 X-87.424 Y-45.006
N1760 X-87.284 Y-44.95
N1765 X-87.154 Y-44.876
N1770 X-87.036 Y-44.783
N1775 X-86.932 Y-44.675
N1780 X-86.844 Y-44.554
N1785 X-86.774 Y-44.421
N1790 X-86.723 Y-44.28
N1795 X-86.691 Y-44.133
N1800 X-86.68 Y-43.984
N1805 X-86.69 Y-43.834
N1810 X-86.72 Y-43.687
N1815 X-86.77 Y-43.546
N1820 X-86.84 Y-43.413
N1825 X-86.926 Y-43.29
N1830 X-87.027 Y-43.18
N1835 X-87.144 Y-43.085
N1840 X-87.271 Y-43.006
N1845 X-87.408 Y-42.944
N1850 X-87.552 Y-42.901
N1855 X-87.7 Y-42.878
N1860 X-87.85 Y-42.874
N1865 X-87.999 Y-42.888
N1870 X-88.145 Y-42.922
N1875 X-88.286 Y-42.974
N1880 X-88.42 Y-43.042
N1885 X-88.544 Y-43.126
N1890 X-88.656 Y-43.225
N1895 X-88.756 Y-43.337
N1900 X-88.843 Y-43.46
N1905 X-88.913 Y-43.592
N1910 X-88.966 Y-43.732
N1915 X-89.003 Y-43.878
N1920 X-89.023 Y-44.027
N1925 X-89.024 Y-44.177
N1930 X-89.007 Y-44.326
N1935 X-88.973 Y-44.472
N1940 X-88.923 Y-44.613
N1945 X-88.855 Y-44.747
N1950 X-88.772 Y-44.872
N1955 X-88.676 Y-44.987
N1960 X-88.567 Y-45.09
N1965 X-88.447 Y-45.18
N1970 X-88.317 Y-45.254
N1975 X-88.179 Y-45.314
N1980 X-88.036 Y-45.358
N1985 X-87.888 Y-45.385
N1990 X-87.738 Y-45.394
N1995 X-87.588 Y-45.388
N2000 X-87.44 Y-45.364
N2005 X-87.296 Y-45.324
N2010 X-87.156 Y-45.269
N2015 X-87.024 Y-45.199
N2020 X-86.899 Y-45.116
N2025 X-86.784 Y-45.019
N2030 X-86.681 Y-44.91
N2035 X-86.589 Y-44.792
N2040 X-86.509 Y-44.665
N2045 X-86.445 Y-44.529
N2050 X-86.395 Y-44.388
N2055 X-86.359 Y-44.242
N2060 X-86.339 Y-44.093
N2065 X-86.335 Y-43.943
N2070 X-86.347 Y-43.794
N2075 X-86.374 Y-43.646
N2080 X-86.416 Y-43.502
N2085 X-86.473 Y-43.364
N2090 X-86.545 Y-43.232
N2095 X-86.629 Y-43.108
N2100 X-86.726 Y-42.993
N2105 X-86.834 Y-42.889
N2110 X-86.952 Y-42.796
N2115 X-87.079 Y-42.717
N2120 X-87.213 Y-42.649
N2125 X-87.353 Y-42.596
N2130 X-87.498 Y-42.558
N2135 X-87.646 Y-42.535
N2140 X-87.796 Y-42.525
N2145 X-87.946 Y-42.531
N2150 X-88.095 Y-42.552
N2155 X-88.24 Y-42.587
N2160 X-88.382 Y-42.636
N2165 X-88.519 Y-42.698
N2170 X-88.649 Y-42.773
N2175 X-88.771 Y-42.86
N2180 X-88.884 Y-42.959
N2185 X-88.987 Y-43.067
N2190 X-89.08 Y-43.185
N2195 X-89.161 Y-43.311
N2200 X-89.23 Y-43.445
N2205 X-89.286 Y-43.584
N2210 X-89.329 Y-43.727
N2215 X-89.359 Y-43.874
N2220 X-89.374 Y-44.024
N2225 X-89.375 Y-44.174
N2230 X-89.362 Y-44.323
N2235 X-89.336 Y-44.471
N2240 X-89.296 Y-44.616
N2245 X-89.243 Y-44.756
N2250 X-89.177 Y-44.89
N2255 X-89.099 Y-45.019
N2260 X-89.01 Y-45.139
N2265 X-88.91 Y-45.251
N2270 X-88.8 Y-45.353
N2275 X-88.681 Y-45.445
N2280 X-88.555 Y-45.526
N2285 X-88.422 Y-45.595
N2290 X-88.283 Y-45.651
N2295 X-88.139 Y-45.695
N2300 X-87.993 Y-45.725
N2305 X-87.844 Y-45.743
N2310 X-87.694 Y-45.747
N2315 X-87.544 Y-45.738
N2320 X-87.396 Y-45.715
N2325 X-87.25 Y-45.68
N2330 X-87.108 Y-45.632
N2335 X-86.97 Y-45.573
N2340 X-86.838 Y-45.501
N2345 X-86.713 Y-45.418
N2350 X-86.596 Y-45.325
N2355 X-86.486 Y-45.223
N2360 X-86.385 Y-45.112
N2365 X-86.295 Y-44.992
N2370 X-86.215 Y-44.865
N2375 X-86.146 Y-44.731
N2380 X-86.089 Y-44.593
N2385 X-86.043 Y-44.45
N2390 X-86.009 Y-44.304
N2395 X-85.989 Y-44.155
N2400 X-85.98 Y-44.006
N2405 X-85.984 Y-43.856
N2410 X-86 Y-43.707
N2415 X-86.029 Y-43.559
N2420 X-86.071 Y-43.415
N2425 X-86.124 Y-43.275
N2430 X-86.188 Y-43.14
N2435 X-86.264 Y-43.01
N2440 X-86.35 Y-42.887
N2445 X-86.446 Y-42.772
N2450 X-86.552 Y-42.665
N2455 X-86.665 Y-42.566
N2460 X-86.786 Y-42.478
N2465 X-86.914 Y-42.4
N2470 X-87.048 Y-42.333
N2475 X-87.189 Y-42.276
N2480 X-87.334 Y-42.231
N2485 X-87.481 Y-42.198
N2490 X-87.629 Y-42.177
N2495 X-87.779 Y-42.168
N2500 X-87.932 Y-42.172
N2505 X-88.086 Y-42.188
N2510 X-88.238 Y-42.216
N2515 X-88.383 Y-42.256
N2520 X-88.525 Y-42.307
N2525 X-88.665 Y-42.37
N2530 X-88.801 Y-42.446
N2535 X-88.933 Y-42.534
N2540 X-89.058 Y-42.632
N2545 X-89.168 Y-42.734
N2550 X-89.271 Y-42.846
N2555 X-89.367 Y-42.968
N2560 X-89.454 Y-43.101
N2565 X-89.531 Y-43.242
N2570 X-89.597 Y-43.388
N2575 X-89.649 Y-43.534
N2580 X-89.688 Y-43.681
N2585 X-89.716 Y-43.834
N2590 X-89.732 Y-43.994
N2595 X-89.735 Y-44.155
N2600 X-89.726 Y-44.315
N2605 X-89.703 Y-44.473
N2610 X-89.669 Y-44.627
N2615 X-89.622 Y-44.776
N2620 X-89.563 Y-44.924
N2625 X-89.492 Y-45.067
N2630 X-89.409 Y-45.204
N2635 X-89.316 Y-45.334
N2640 X-89.211 Y-45.458
N2645 X-89.095 Y-45.574
N2650 X-88.971 Y-45.68
N2655 X-88.844 Y-45.772
N2660 X-88.709 Y-45.854
N2665 X-88.566 Y-45.926
N2670 X-88.414 Y-45.988
N2675 X-88.256 Y-46.038
N2680 X-88.095 Y-46.074
N2685 X-87.933 Y-46.098
N2690 X-87.768 Y-46.109
N2695 X-87.602 Y-46.106
N2700 X-87.436 Y-46.09
N2705 X-87.274 Y-46.061
N2710 X-87.115 Y-46.019
N2715 X-86.958 Y-45.964
N2720 X-86.804 Y-45.896
N2725 X-86.654 Y-45.814
N2730 X-86.511 Y-45.721
N2735 X-86.376 Y-45.616
N2740 X-86.251 Y-45.502
N2745 X-86.134 Y-45.377
N2750 X-86.027 Y-45.243
N2755 X-85.931 Y-45.099
N2760 X-85.846 Y-44.948
N2765 X-85.775 Y-44.792
N2770 X-85.716 Y-44.631
N2775 X-85.67 Y-44.465
N2780 X-85.638 Y-44.295
N2785 X-85.619 Y-44.122
N2790 X-85.614 Y-43.952
N2795 X-85.623 Y-43.782
N2800 X-85.646 Y-43.611
N2805 X-85.683 Y-43.44
N2810 X-85.733 Y-43.272
N2815 X-85.797 Y-43.111
N2820 X-85.872 Y-42.956
N2825 X-85.961 Y-42.806
N2830 X-86.062 Y-42.662
N2835 X-86.176 Y-42.526
N2840 X-86.299 Y-42.401
N2845 X-86.431 Y-42.286
N2850 X-86.572 Y-42.182
N2855 X-86.722 Y-42.089
N2860 X-86.881 Y-42.008
N2865 X-87.045 Y-41.939
N2870 X-87.214 Y-41.884
N2875 X-87.386 Y-41.844
N2880 X-87.563 Y-41.816
N2885 X-87.743 Y-41.803
N2890 X-87.925 Y-41.805
N2895 X-88.105 Y-41.821
N2900 X-88.283 Y-41.851
N2905 X-88.459 Y-41.895
N2910 X-88.631 Y-41.954
N2915 X-88.801 Y-42.028
N2920 X-88.964 Y-42.115
N2925 X-89.119 Y-42.214
N2930 X-89.264 Y-42.325
N2935 X-89.401 Y-42.448
N2940 X-89.529 Y-42.582
N2945 X-89.646 Y-42.727
N2950 X-89.752 Y-42.882
N2955 X-89.844 Y-43.044
N2960 X-89.923 Y-43.212
N2965 X-89.988 Y-43.385
N2970 X-90.039 Y-43.565
N2975 X-90.076 Y-43.749
N2980 X-90.098 Y-43.936
N2985 X-90.104 Y-44.125
N2990 X-90.096 Y-44.313
N2995 X-90.073 Y-44.499
N3000 X-90.035 Y-44.684
N3005 X-89.982 Y-44.864
N3010 X-89.914 Y-45.041
N3015 X-89.863 Y-45.148
N3020 X-89.777 Y-45.31
N3025 X-89.676 Y-45.468
N3030 X-89.561 Y-45.618
N3035 X-89.433 Y-45.76
N3040 X-89.296 Y-45.89
N3045 X-89.15 Y-46.009
N3050 X-88.993 Y-46.115
N3055 X-88.827 Y-46.21
N3060 X-88.653 Y-46.292
N3065 X-88.472 Y-46.359
N3070 X-88.286 Y-46.412
N3075 X-88.095 Y-46.45
N3080 X-87.902 Y-46.473
N3085 X-87.707 Y-46.48
N3090 X-87.512 Y-46.471
N3095 X-87.319 Y-46.447
N3100 X-87.128 Y-46.407
N3105 X-86.939 Y-46.352
N3110 X-86.754 Y-46.281
N3115 X-86.575 Y-46.195
N3120 X-86.402 Y-46.095
N3125 X-86.238 Y-45.981
N3130 X-86.084 Y-45.854
N3135 X-85.939 Y-45.715
N3140 X-85.806 Y-45.564
N3145 X-85.685 Y-45.402
N3150 X-85.577 Y-45.232
N3155 X-85.484 Y-45.053
N3160 X-85.405 Y-44.868
N3165 X-85.341 Y-44.675
N3170 X-85.293 Y-44.479
N3175 X-85.26 Y-44.279
N3180 X-85.244 Y-44.079
N3185 Y-43.877
N3190 X-85.261 Y-43.675
N3195 X-85.293 Y-43.474
N3200 X-85.342 Y-43.277
N3205 X-85.406 Y-43.084
N3210 X-85.486 Y-42.897
N3215 X-85.58 Y-42.716
N3220 X-85.69 Y-42.542
N3225 X-85.813 Y-42.378
N3230 X-85.949 Y-42.224
N3235 X-86.096 Y-42.081
N3240 X-86.255 Y-41.951
N3245 X-86.425 Y-41.833
N3250 X-86.604 Y-41.729
N3255 X-86.791 Y-41.639
N3260 X-86.985 Y-41.565
N3265 X-87.184 Y-41.507
N3270 X-87.389 Y-41.464
N3275 X-87.597 Y-41.438
N3280 X-87.807 Y-41.429
N3285 X-88.017 Y-41.436
N3290 X-88.227 Y-41.461
N3295 X-88.434 Y-41.502
N3300 X-88.638 Y-41.56
N3305 X-88.838 Y-41.635
N3310 X-89.032 Y-41.726
N3315 X-89.217 Y-41.831
N3320 X-89.394 Y-41.952
N3325 X-89.56 Y-42.086
N3330 X-89.716 Y-42.234
N3335 X-89.861 Y-42.395
N3340 X-89.992 Y-42.567
N3345 X-90.109 Y-42.749
N3350 X-90.21 Y-42.939
N3355 X-90.296 Y-43.137
N3360 X-90.366 Y-43.342
N3365 X-90.42 Y-43.553
N3370 X-90.457 Y-43.768
N3375 X-90.476 Y-43.985
N3380 X-90.478 Y-44.203
N3385 X-90.462 Y-44.421
N3390 X-90.429 Y-44.637
N3395 X-90.379 Y-44.849
N3400 X-90.31 Y-45.061
N3405 X-90.225 Y-45.265
N3410 X-90.125 Y-45.46
N3415 X-90.01 Y-45.647
N3420 X-89.879 Y-45.824
N3425 X-89.735 Y-45.99
N3430 X-89.578 Y-46.144
N3435 X-89.41 Y-46.284
N3440 X-89.23 Y-46.411
N3445 X-89.039 Y-46.524
N3450 X-88.839 Y-46.622
N3455 X-88.632 Y-46.703
N3460 X-88.418 Y-46.768
N3465 X-88.199 Y-46.815
N3470 X-87.976 Y-46.845
N3475 X-87.751 Y-46.857
N3480 X-87.526 Y-46.851
N3485 X-87.302 Y-46.826
N3490 X-87.08 Y-46.784
N3495 X-86.861 Y-46.724
N3500 X-86.647 Y-46.646
N3505 X-86.439 Y-46.55
N3510 X-86.239 Y-46.438
N3515 X-86.048 Y-46.311
N3520 X-85.867 Y-46.167
N3525 X-85.699 Y-46.01
N3530 X-85.542 Y-45.839
N3535 X-85.4 Y-45.655
N3540 X-85.274 Y-45.461
N3545 X-85.163 Y-45.258
N3550 X-85.068 Y-45.045
N3555 X-84.991 Y-44.826
N3560 X-84.932 Y-44.601
N3565 X-84.891 Y-44.373
N3570 X-84.869 Y-44.142
N3575 X-84.865 Y-43.909
N3580 X-84.88 Y-43.676
N3585 X-84.913 Y-43.445
N3590 X-84.965 Y-43.218
N3595 X-85.036 Y-42.995
N3600 X-85.124 Y-42.778
N3605 X-85.229 Y-42.568
N3610 X-85.351 Y-42.367
N3615 X-85.489 Y-42.176
N3620 X-85.642 Y-41.997
N3625 X-85.809 Y-41.831
N3630 X-85.989 Y-41.678
N3635 X-86.182 Y-41.539
N3640 X-86.385 Y-41.417
N3645 X-86.598 Y-41.311
N3650 X-86.818 Y-41.222
N3655 X-87.046 Y-41.151
N3660 X-87.279 Y-41.099
N3665 X-87.517 Y-41.065
N3670 X-87.757 Y-41.05
N3675 X-87.998 Y-41.055
N3680 X-88.238 Y-41.079
N3685 X-88.476 Y-41.123
N3690 X-88.71 Y-41.185
N3695 X-88.94 Y-41.267
N3700 X-89.162 Y-41.366
N3705 X-89.376 Y-41.484
N3710 X-89.58 Y-41.618
N3715 X-89.773 Y-41.768
N3720 X-89.954 Y-41.934
N3725 X-90.121 Y-42.115
N3730 X-90.274 Y-42.308
N3735 X-90.324 Y-42.384
N3740 X-90.338 Y-42.408
N3745 X-90.349 Y-42.432
N3750 X-90.358 Y-42.458
N3755 X-90.398 Y-42.607
N3760 X-90.42 Y-42.687
N3765 X-90.496 Y-42.929
N3770 X-90.597 Y-43.194
N3775 X-90.623 Y-43.251
N3780 X-90.661 Y-43.331
N3785 X-90.703 Y-43.432
N3790 X-90.755 Y-43.573
N3795 X-90.793 Y-43.718
N3800 X-90.822 Y-43.877
N3805 X-90.84 Y-44.066
N3810 X-90.843 Y-44.274
N3815 X-90.829 Y-44.495
N3820 X-90.796 Y-44.72
N3825 X-90.744 Y-44.948
N3830 X-90.671 Y-45.179
N3835 X-90.578 Y-45.407
N3840 X-90.467 Y-45.629
N3845 X-90.337 Y-45.842
N3850 X-90.191 Y-46.044
N3855 X-90.028 Y-46.234
N3860 X-89.851 Y-46.41
N3865 X-89.66 Y-46.572
N3870 X-89.456 Y-46.719
N3875 X-89.24 Y-46.849
N3880 X-89.014 Y-46.961
N3885 X-88.842 Y-47.03
N3890 X-88.812 Y-47.04
N3895 X-88.78 Y-47.046
N3900 X-88.749 Y-47.048
N3905 X-86.976
N3910 X-86.827 Y-47.041
N3915 X-86.679 Y-47.013
N3920 X-86.529 Y-46.971
N3925 X-86.362 Y-46.91
N3930 X-86.175 Y-46.824
N3935 X-85.98 Y-46.715
N3940 X-85.784 Y-46.583
N3945 X-85.595 Y-46.433
N3950 X-85.414 Y-46.264
N3955 X-85.243 Y-46.075
N3960 X-85.084 Y-45.87
N3965 X-84.942 Y-45.652
N3970 X-84.817 Y-45.421
N3975 X-84.711 Y-45.181
N3980 X-84.624 Y-44.933
N3985 X-84.558 Y-44.679
N3990 X-84.512 Y-44.42
N3995 X-84.51 Y-44.403
N4000 X-84.511 Y-44.35
N4005 X-84.522 Y-44.298
N4010 X-84.545 Y-44.25
N4015 X-84.565 Y-44.216
N4020 X-84.646 Y-44.055
N4025 X-84.683 Y-43.975
N4030 X-84.766 Y-43.734
N4035 X-84.787 Y-43.653
N4040 X-84.822 Y-43.492
N4045 X-84.859 Y-43.251
N4050 X-84.868 Y-43.17
N4055 X-84.885 Y-43.004
N4060 X-84.891 Y-42.929
N4065 X-84.908 Y-42.687
N4070 X-84.917 Y-42.538
N4075 X-84.963 Y-42.395
N4080 X-85.023 Y-42.257
N4085 X-85.106 Y-42.105
N4090 X-85.207 Y-41.952
N4095 X-85.334 Y-41.789
N4100 X-85.489 Y-41.619
N4105 X-85.668 Y-41.453
N4110 X-85.867 Y-41.296
N4115 X-86.083 Y-41.152
N4120 X-86.313 Y-41.024
N4125 X-86.554 Y-40.914
N4130 X-86.805 Y-40.823
N4135 X-87.064 Y-40.752
N4140 X-87.329 Y-40.703
N4145 X-87.598 Y-40.674
N4150 X-87.869 Y-40.667
N4155 X-88.14 Y-40.682
N4160 X-88.41 Y-40.719
N4165 X-88.677 Y-40.777
N4170 X-88.939 Y-40.857
N4175 X-89.194 Y-40.957
N4180 X-89.44 Y-41.078
N4185 X-89.676 Y-41.219
N4190 X-89.901 Y-41.378
N4195 X-90.086 Y-41.533
N4200 X-90.123 Y-41.572
N4205 X-90.152 Y-41.618
N4210 X-90.169 Y-41.669
N4215 X-90.275 Y-42.128
N4220 X-90.334 Y-42.366
N4225 X-90.358 Y-42.458
N4230 G3 X-90.359 Y-42.497 I0.097 J-0.023 F1000
N4235 G1 X-90.353 Y-42.535 Z-0.992
N4240 X-90.347 Y-42.567 Z-0.971
N4245 X-90.344 Y-42.588 Z-0.938
N4250 X-90.342 Y-42.596 Z-0.9
N4255 G0 Z5
N4260 X-84.976
N4265 Z-0.8
N4270 G1 Z-0.9 F1000
N4275 X-84.974 Y-42.604 Z-0.938
N4280 X-84.967 Y-42.624 Z-0.971
N4285 X-84.958 Y-42.656 Z-0.992
N4290 X-84.947 Y-42.692 Z-1
N4295 G3 X-84.908 Y-42.687 I0.019 J0.006
N4300 G1 X-84.902 Y-42.446 F480
N4305 X-84.89 Y-42.205
N4310 X-84.887 Y-42.163
N4315 X-84.884 Y-42.013
N4320 X-84.923 Y-41.868
N4325 X-84.984 Y-41.731
N4330 X-85.059 Y-41.601
N4335 X-85.155 Y-41.469
N4340 X-85.279 Y-41.323
N4345 X-85.421 Y-41.181
N4350 X-85.601 Y-41.027
N4355 X-85.812 Y-40.875
N4360 X-86.047 Y-40.732
N4365 X-86.301 Y-40.605
N4370 X-86.571 Y-40.496
N4375 X-86.852 Y-40.408
N4380 X-87.142 Y-40.342
N4385 X-87.438 Y-40.3
N4390 X-87.738 Y-40.281
N4395 X-88.04 Y-40.286
N4400 X-88.341 Y-40.316
N4405 X-88.64 Y-40.37
N4410 X-88.934 Y-40.447
N4415 X-89.221 Y-40.549
N4420 X-89.5 Y-40.673
N4425 X-89.769 Y-40.82
N4430 X-89.925 Y-40.922
N4435 X-89.974 Y-40.963
N4440 X-90.01 Y-41.016
N4445 X-90.032 Y-41.075
N4450 X-90.169 Y-41.669
N4455 G3 Y-41.708 I0.098 J-0.019 F1000
N4460 G1 X-90.161 Y-41.745 Z-0.992
N4465 X-90.155 Y-41.777 Z-0.971
N4470 X-90.151 Y-41.798 Z-0.938
N4475 X-90.149 Y-41.806 Z-0.9
N4480 G0 Z5
N4485 X-84.951 Y-42.069
N4490 Z-0.8
N4495 G1 Z-0.9 F1000
N4500 X-84.949 Y-42.076 Z-0.938
N4505 X-84.944 Y-42.097 Z-0.971
N4510 X-84.936 Y-42.129 Z-0.992
N4515 X-84.926 Y-42.166 Z-1
N4520 G3 X-84.887 Y-42.163 I0.019 J0.005
N4525 G1 X-84.871 Y-41.963 F480
N4530 X-84.863 Y-41.883
N4535 X-84.845 Y-41.722
N4540 X-84.836 Y-41.572
N4545 X-84.866 Y-41.425
N4550 X-84.923 Y-41.287
N4555 X-84.998 Y-41.157
N4560 X-85.088 Y-41.036
N4565 X-85.197 Y-40.911
N4570 X-85.335 Y-40.778
N4575 X-85.514 Y-40.63
N4580 X-85.727 Y-40.481
N4585 X-85.958 Y-40.347
N4590 X-86.221 Y-40.22
N4595 X-86.511 Y-40.108
N4600 X-86.819 Y-40.016
N4605 X-87.138 Y-39.949
N4610 X-87.464 Y-39.907
N4615 X-87.795 Y-39.892
N4620 X-88.128 Y-39.903
N4625 X-88.46 Y-39.941
N4630 X-88.788 Y-40.005
N4635 X-89.111 Y-40.096
N4640 X-89.426 Y-40.213
N4645 X-89.731 Y-40.354
N4650 X-89.79 Y-40.388
N4655 X-89.845 Y-40.43
N4660 X-89.886 Y-40.485
N4665 X-89.91 Y-40.549
N4670 X-90.032 Y-41.075
N4675 G3 Y-41.114 I0.098 J-0.019 F1000
N4680 G1 X-90.024 Y-41.152 Z-0.992
N4685 X-90.018 Y-41.183 Z-0.971
N4690 X-90.013 Y-41.205 Z-0.938
N4695 X-90.012 Y-41.212 Z-0.9
N4700 G0 Z5
N4705 X-84.905 Y-41.625
N4710 Z-0.8
N4715 G1 Z-0.9 F1000
N4720 X-84.903 Y-41.633 Z-0.938
N4725 X-84.899 Y-41.654 Z-0.971
N4730 X-84.892 Y-41.686 Z-0.992
N4735 X-84.884 Y-41.723 Z-1
N4740 G3 X-84.845 Y-41.722 I0.02 J0.004
N4745 G1 X-84.836 Y-41.641 F480
N4750 X-84.793 Y-41.32
N4755 X-84.786 Y-41.275
N4760 X-84.772 Y-41.126
N4765 X-84.805 Y-40.98
N4770 X-84.866 Y-40.842
N4775 X-84.945 Y-40.715
N4780 X-85.037 Y-40.597
N4785 X-85.159 Y-40.466
N4790 X-85.294 Y-40.343
N4795 X-85.472 Y-40.206
N4800 X-85.692 Y-40.062
N4805 X-85.949 Y-39.922
N4810 X-86.222 Y-39.801
N4815 X-86.53 Y-39.693
N4820 X-86.865 Y-39.605
N4825 X-87.213 Y-39.543
N4830 X-87.566 Y-39.509
N4835 X-87.92 Y-39.502
N4840 X-88.273 Y-39.524
N4845 X-88.624 Y-39.573
N4850 X-88.969 Y-39.649
N4855 X-89.308 Y-39.751
N4860 X-89.613 Y-39.87
N4865 X-89.664 Y-39.894
N4870 X-89.725 Y-39.936
N4875 X-89.771 Y-39.994
N4880 X-89.798 Y-40.063
N4885 X-89.91 Y-40.549
N4890 G3 Y-40.588 I0.098 J-0.019 F1000
N4895 G1 X-89.903 Y-40.626 Z-0.992
N4900 X-89.896 Y-40.657 Z-0.971
N4905 X-89.892 Y-40.679 Z-0.938
N4910 X-89.89 Y-40.686 Z-0.9
N4915 G0 Z5
N4920 X-84.843 Y-41.177
N4925 Z-0.8
N4930 G1 Z-0.9 F1000
N4935 X-84.842 Y-41.184 Z-0.938
N4940 X-84.838 Y-41.206 Z-0.971
N4945 X-84.832 Y-41.238 Z-0.992
N4950 X-84.826 Y-41.275 Z-1
N4955 G3 X-84.786 I0.02 J0.003
N4960 G1 X-84.744 Y-40.998 F480
N4965 X-84.724 Y-40.872
N4970 X-84.707 Y-40.723
N4975 X-84.736 Y-40.576
N4980 X-84.794 Y-40.438
N4985 X-84.873 Y-40.31
N4990 X-84.966 Y-40.192
N4995 X-85.075 Y-40.076
N5000 X-85.212 Y-39.952
N5005 X-85.396 Y-39.811
N5010 X-85.604 Y-39.678
N5015 X-85.846 Y-39.547
N5020 X-86.138 Y-39.42
N5025 X-86.467 Y-39.307
N5030 X-86.81 Y-39.219
N5035 X-87.159 Y-39.157
N5040 X-87.511 Y-39.121
N5045 X-87.865 Y-39.11
N5050 X-88.218 Y-39.125
N5055 X-88.57 Y-39.165
N5060 X-88.918 Y-39.232
N5065 X-89.26 Y-39.323
N5070 X-89.501 Y-39.406
N5075 X-89.548 Y-39.427
N5080 X-89.613 Y-39.469
N5085 X-89.662 Y-39.528
N5090 X-89.691 Y-39.6
N5095 X-89.798 Y-40.063
N5100 G3 Y-40.102 I0.098 J-0.019 F1000
N5105 G1 X-89.79 Y-40.139 Z-0.992
N5110 X-89.784 Y-40.171 Z-0.971
N5115 X-89.779 Y-40.192 Z-0.938
N5120 X-89.778 Y-40.2 Z-0.9
N5125 G0 Z5
N5130 X-84.779 Y-40.773
N5135 Z-0.8
N5140 G1 Z-0.9 F1000
N5145 X-84.778 Y-40.78 Z-0.938
N5150 X-84.774 Y-40.802 Z-0.971
N5155 X-84.769 Y-40.834 Z-0.992
N5160 X-84.763 Y-40.871 Z-1
N5165 G3 X-84.724 Y-40.872 I0.02 J0.003
N5170 G1 X-84.676 Y-40.595 F480
N5175 X-84.652 Y-40.471
N5180 X-84.631 Y-40.322
N5185 X-84.66 Y-40.175
N5190 X-84.719 Y-40.037
N5195 X-84.798 Y-39.91
N5200 X-84.892 Y-39.793
N5205 X-85.003 Y-39.677
N5210 X-85.137 Y-39.558
N5215 X-85.315 Y-39.424
N5220 X-85.526 Y-39.29
N5225 X-85.769 Y-39.162
N5230 X-86.072 Y-39.032
N5235 X-86.407 Y-38.919
N5240 X-86.75 Y-38.832
N5245 X-87.099 Y-38.771
N5250 X-87.451 Y-38.733
N5255 X-87.805 Y-38.718
N5260 X-88.159 Y-38.727
N5265 X-88.511 Y-38.76
N5270 X-88.861 Y-38.817
N5275 X-89.205 Y-38.899
N5280 X-89.388 Y-38.956
N5285 X-89.437 Y-38.975
N5290 X-89.505 Y-39.016
N5295 X-89.557 Y-39.077
N5300 X-89.587 Y-39.151
N5305 X-89.691 Y-39.6
N5310 G3 Y-39.639 I0.098 J-0.019 F1000
N5315 G1 X-89.683 Y-39.676 Z-0.992
N5320 X-89.677 Y-39.708 Z-0.971
N5325 X-89.672 Y-39.729 Z-0.938
N5330 X-89.671 Y-39.737 Z-0.9
N5335 G0 Z5
N5340 X-84.704 Y-40.369
N5345 Z-0.8
N5350 G1 Z-0.9 F1000
N5355 X-84.703 Y-40.377 Z-0.938
N5360 X-84.701 Y-40.399 Z-0.971
N5365 X-84.697 Y-40.431 Z-0.992
N5370 X-84.692 Y-40.469 Z-1
N5375 G3 X-84.652 Y-40.471 I0.02 J0.003
N5380 G1 X-84.613 Y-40.273 F480
N5385 X-84.57 Y-40.072
N5390 X-84.546 Y-39.924
N5395 X-84.578 Y-39.777
N5400 X-84.639 Y-39.64
N5405 X-84.72 Y-39.514
N5410 X-84.815 Y-39.397
N5415 X-84.928 Y-39.282
N5420 X-85.063 Y-39.164
N5425 X-85.243 Y-39.031
N5430 X-85.459 Y-38.897
N5435 X-85.708 Y-38.769
N5440 X-86.021 Y-38.638
N5445 X-86.357 Y-38.528
N5450 X-86.701 Y-38.444
N5455 X-87.05 Y-38.382
N5460 X-87.402 Y-38.343
N5465 X-87.756 Y-38.327
N5470 X-88.11 Y-38.331
N5475 X-88.463 Y-38.358
N5480 X-88.813 Y-38.407
N5485 X-88.986 Y-38.444
N5490 X-89.218 Y-38.5
N5495 X-89.321 Y-38.534
N5500 X-89.396 Y-38.574
N5505 X-89.454 Y-38.637
N5510 X-89.487 Y-38.715
N5515 X-89.587 Y-39.151
N5520 G3 Y-39.19 I0.098 J-0.019 F1000
N5525 G1 X-89.579 Y-39.227 Z-0.992
N5530 X-89.573 Y-39.259 Z-0.971
N5535 X-89.569 Y-39.28 Z-0.938
N5540 X-89.567 Y-39.288 Z-0.9
N5545 G0 Z5
N5550 X-84.62 Y-39.969
N5555 Z-0.8
N5560 G1 Z-0.9 F1000
N5565 X-84.619 Y-39.977 Z-0.938
N5570 X-84.617 Y-39.999 Z-0.971
N5575 X-84.613 Y-40.031 Z-0.992
N5580 X-84.609 Y-40.069 Z-1
N5585 G3 X-84.57 Y-40.072 I0.02 J0.002
N5590 G1 X-84.488 Y-39.71 F480
N5595 X-84.461 Y-39.563
N5600 X-84.486 Y-39.415
N5605 X-84.543 Y-39.276
N5610 X-84.621 Y-39.148
N5615 X-84.714 Y-39.03
N5620 X-84.818 Y-38.921
N5625 X-84.954 Y-38.8
N5630 X-85.13 Y-38.667
N5635 X-85.32 Y-38.545
N5640 X-85.579 Y-38.408
N5645 X-85.89 Y-38.274
N5650 X-86.225 Y-38.16
N5655 X-86.568 Y-38.072
N5660 X-86.916 Y-38.005
N5665 X-87.267 Y-37.96
N5670 X-87.62 Y-37.936
N5675 X-87.974 Y-37.933
N5680 X-88.328 Y-37.95
N5685 X-88.68 Y-37.989
N5690 X-89.027 Y-38.051
N5695 X-89.177 Y-38.09
N5700 X-89.227 Y-38.107
N5705 X-89.3 Y-38.148
N5710 X-89.355 Y-38.21
N5715 X-89.388 Y-38.287
N5720 X-89.487 Y-38.715
N5725 G3 X-89.486 Y-38.754 I0.098 J-0.019 F1000
N5730 G1 X-89.479 Y-38.792 Z-0.992
N5735 X-89.472 Y-38.824 Z-0.971
N5740 X-89.468 Y-38.845 Z-0.938
N5745 X-89.467 Y-38.852 Z-0.9
N5750 G0 Z5
N5755 X-84.536 Y-39.607
N5760 Z-0.8
N5765 G1 Z-0.9 F1000
N5770 Y-39.615 Z-0.938
N5775 X-84.534 Y-39.636 Z-0.971
N5780 X-84.531 Y-39.669 Z-0.992
N5785 X-84.527 Y-39.707 Z-1
N5790 G3 X-84.488 Y-39.71 I0.02 J0.002
N5795 G1 X-84.402 Y-39.338 F480
N5800 X-84.375 Y-39.19
N5805 X-84.397 Y-39.041
N5810 X-84.452 Y-38.902
N5815 X-84.529 Y-38.773
N5820 X-84.621 Y-38.655
N5825 X-84.725 Y-38.545
N5830 X-84.85 Y-38.432
N5835 X-85.024 Y-38.299
N5840 X-85.216 Y-38.174
N5845 X-85.469 Y-38.039
N5850 X-85.78 Y-37.902
N5855 X-86.114 Y-37.787
N5860 X-86.456 Y-37.695
N5865 X-86.804 Y-37.626
N5870 X-87.154 Y-37.576
N5875 X-87.507 Y-37.547
N5880 X-87.861 Y-37.537
N5885 X-88.215 Y-37.547
N5890 X-88.568 Y-37.577
N5895 X-88.743 Y-37.603
N5900 X-88.972 Y-37.644
N5905 X-89.117 Y-37.682
N5910 X-89.133 Y-37.688
N5915 X-89.204 Y-37.728
N5920 X-89.259 Y-37.79
N5925 X-89.29 Y-37.866
N5930 X-89.388 Y-38.287
N5935 G3 X-89.387 Y-38.326 I0.098 J-0.019 F1000
N5940 G1 X-89.38 Y-38.363 Z-0.992
N5945 X-89.373 Y-38.395 Z-0.971
N5950 X-89.369 Y-38.417 Z-0.938
N5955 X-89.367 Y-38.424 Z-0.9
N5960 G0 Z5
N5965 X-84.45 Y-39.235
N5970 Z-0.8
N5975 G1 Z-0.9 F1000
N5980 X-84.449 Y-39.242 Z-0.938
N5985 X-84.447 Y-39.264 Z-0.971
N5990 X-84.444 Y-39.296 Z-0.992
N5995 X-84.441 Y-39.334 Z-1
N6000 G3 X-84.402 Y-39.338 I0.02 J0.002
N6005 G1 X-84.31 Y-38.942 F480
N6010 X-84.284 Y-38.794
N6015 X-84.311 Y-38.647
N6020 X-84.369 Y-38.508
N6025 X-84.448 Y-38.381
N6030 X-84.542 Y-38.264
N6035 X-84.655 Y-38.146
N6040 X-84.78 Y-38.036
N6045 X-84.955 Y-37.905
N6050 X-85.173 Y-37.768
N6055 X-85.421 Y-37.638
N6060 X-85.741 Y-37.503
N6065 X-86.077 Y-37.391
N6070 X-86.42 Y-37.302
N6075 X-86.767 Y-37.234
N6080 X-87.118 Y-37.185
N6085 X-87.471 Y-37.155
N6090 X-87.825 Y-37.144
N6095 X-88.179 Y-37.151
N6100 X-88.532 Y-37.177
N6105 X-88.831 Y-37.219
N6110 X-88.978 Y-37.252
N6115 X-89.027 Y-37.268
N6120 X-89.103 Y-37.308
N6125 X-89.161 Y-37.371
N6130 X-89.194 Y-37.45
N6135 X-89.29 Y-37.866
N6140 G3 Y-37.905 I0.098 J-0.019 F1000
N6145 G1 X-89.282 Y-37.943 Z-0.992
N6150 X-89.276 Y-37.974 Z-0.971
N6155 X-89.272 Y-37.996 Z-0.938
N6160 X-89.27 Y-38.003 Z-0.9
N6165 G0 Z5
N6170 X-84.359 Y-38.839
N6175 Z-0.8
N6180 G1 Z-0.9 F1000
N6185 X-84.358 Y-38.846 Z-0.938
N6190 X-84.356 Y-38.868 Z-0.971
N6195 X-84.353 Y-38.9 Z-0.992
N6200 X-84.349 Y-38.938 Z-1
N6205 G3 X-84.31 Y-38.942 I0.02 J0.002
N6210 G1 X-84.217 Y-38.539 F480
N6215 X-84.191 Y-38.392
N6220 X-84.225 Y-38.246
N6225 X-84.288 Y-38.109
N6230 X-84.369 Y-37.983
N6235 X-84.465 Y-37.868
N6240 X-84.582 Y-37.751
N6245 X-84.719 Y-37.633
N6250 X-84.902 Y-37.5
N6255 X-85.126 Y-37.364
N6260 X-85.385 Y-37.233
N6265 X-85.713 Y-37.099
N6270 X-86.051 Y-36.992
N6275 X-86.394 Y-36.906
N6280 X-86.742 Y-36.84
N6285 X-87.093 Y-36.793
N6290 X-87.446 Y-36.763
N6295 X-87.8 Y-36.75
N6300 X-88.154 Y-36.756
N6305 X-88.507 Y-36.78
N6310 X-88.746 Y-36.812
N6315 X-88.893 Y-36.844
N6320 X-88.932 Y-36.856
N6325 X-89.008 Y-36.896
N6330 X-89.066 Y-36.959
N6335 X-89.099 Y-37.038
N6340 X-89.194 Y-37.45
N6345 G3 Y-37.489 I0.098 J-0.019 F1000
N6350 G1 X-89.186 Y-37.526 Z-0.992
N6355 X-89.18 Y-37.558 Z-0.971
N6360 X-89.175 Y-37.579 Z-0.938
N6365 X-89.174 Y-37.587 Z-0.9
N6370 G0 Z5
N6375 X-84.266 Y-38.437
N6380 Z-0.8
N6385 G1 Z-0.9 F1000
N6390 X-84.265 Y-38.444 Z-0.938
N6395 X-84.263 Y-38.466 Z-0.971
N6400 X-84.26 Y-38.498 Z-0.992
N6405 X-84.256 Y-38.536 Z-1
N6410 G3 X-84.217 Y-38.539 I0.02 J0.002
N6415 G1 X-84.135 Y-38.181 F480
N6420 X-84.108 Y-38.034
N6425 X-84.134 Y-37.886
N6430 X-84.191 Y-37.747
N6435 X-84.27 Y-37.62
N6440 X-84.364 Y-37.503
N6445 X-84.468 Y-37.395
N6450 X-84.609 Y-37.271
N6455 X-84.783 Y-37.14
N6460 X-84.982 Y-37.015
N6465 X-85.252 Y-36.874
N6470 X-85.575 Y-36.737
N6475 X-85.911 Y-36.625
N6480 X-86.254 Y-36.535
N6485 X-86.601 Y-36.465
N6490 X-86.951 Y-36.412
N6495 X-87.303 Y-36.376
N6500 X-87.657 Y-36.358
N6505 X-88.011 Y-36.356
N6510 X-88.364 Y-36.372
N6515 X-88.62 Y-36.4
N6520 X-88.768 Y-36.428
N6525 X-88.831 Y-36.446
N6530 X-88.909 Y-36.485
N6535 X-88.97 Y-36.549
N6540 X-89.005 Y-36.63
N6545 X-89.099 Y-37.038
N6550 G3 Y-37.077 I0.098 J-0.019 F1000
N6555 G1 X-89.091 Y-37.115 Z-0.992
N6560 X-89.085 Y-37.146 Z-0.971
N6565 X-89.08 Y-37.168 Z-0.938
N6570 X-89.079 Y-37.175 Z-0.9
N6575 G0 Z5
N6580 X-84.183 Y-38.078
N6585 Z-0.8
N6590 G1 Z-0.9 F1000
N6595 X-84.182 Y-38.086 Z-0.938
N6600 X-84.18 Y-38.108 Z-0.971
N6605 X-84.177 Y-38.14 Z-0.992
N6610 X-84.174 Y-38.178 Z-1
N6615 G3 X-84.135 Y-38.181 I0.02 J0.002
N6620 G1 X-84.05 Y-37.815 F480
N6625 X-84.023 Y-37.668
N6630 X-84.044 Y-37.519
N6635 X-84.099 Y-37.379
N6640 X-84.176 Y-37.251
N6645 X-84.268 Y-37.132
N6650 X-84.371 Y-37.023
N6655 X-84.5 Y-36.908
N6660 X-84.676 Y-36.773
N6665 X-84.867 Y-36.65
N6670 X-85.131 Y-36.509
N6675 X-85.45 Y-36.37
N6680 X-85.785 Y-36.255
N6685 X-86.127 Y-36.162
N6690 X-86.473 Y-36.088
N6695 X-86.822 Y-36.031
N6700 X-87.174 Y-35.991
N6705 X-87.527 Y-35.966
N6710 X-87.881 Y-35.959
N6715 X-88.235 Y-35.968
N6720 X-88.5 Y-35.992
N6725 X-88.648 Y-36.017
N6730 X-88.731 Y-36.039
N6735 X-88.812 Y-36.077
N6740 X-88.875 Y-36.142
N6745 X-88.911 Y-36.224
N6750 X-89.005 Y-36.63
N6755 G3 X-89.004 Y-36.669 I0.098 J-0.019 F1000
N6760 G1 X-88.997 Y-36.706 Z-0.992
N6765 X-88.99 Y-36.738 Z-0.971
N6770 X-88.986 Y-36.759 Z-0.938
N6775 X-88.984 Y-36.767 Z-0.9
N6780 G0 Z5
N6785 X-84.098 Y-37.712
N6790 Z-0.8
N6795 G1 Z-0.9 F1000
N6800 Y-37.72 Z-0.938
N6805 X-84.096 Y-37.741 Z-0.971
N6810 X-84.093 Y-37.774 Z-0.992
N6815 X-84.089 Y-37.812 Z-1
N6820 G3 X-84.05 Y-37.815 I0.02 J0.002
N6825 G1 X-83.957 Y-37.413 F480
N6830 X-83.93 Y-37.265
N6835 X-83.96 Y-37.118
N6840 X-84.019 Y-36.98
N6845 X-84.099 Y-36.853
N6850 X-84.193 Y-36.737
N6855 X-84.307 Y-36.619
N6860 X-84.433 Y-36.509
N6865 X-84.613 Y-36.375
N6870 X-84.835 Y-36.237
N6875 X-85.091 Y-36.104
N6880 X-85.418 Y-35.967
N6885 X-85.754 Y-35.856
N6890 X-86.096 Y-35.766
N6895 X-86.443 Y-35.693
N6900 X-86.792 Y-35.638
N6905 X-87.144 Y-35.598
N6910 X-87.497 Y-35.573
N6915 X-87.851 Y-35.565
N6920 X-88.205 Y-35.573
N6925 X-88.431 Y-35.594
N6930 X-88.578 Y-35.62
N6935 X-88.64 Y-35.637
N6940 X-88.721 Y-35.676
N6945 X-88.782 Y-35.74
N6950 X-88.818 Y-35.822
N6955 X-88.911 Y-36.224
N6960 G3 Y-36.263 I0.098 J-0.019 F1000
N6965 G1 X-88.903 Y-36.301 Z-0.992
N6970 X-88.897 Y-36.333 Z-0.971
N6975 X-88.892 Y-36.354 Z-0.938
N6980 X-88.891 Y-36.361 Z-0.9
N6985 G0 Z5
N6990 X-84.005 Y-37.31
N6995 Z-0.8
N7000 G1 Z-0.9 F1000
N7005 Y-37.318 Z-0.938
N7010 X-84.003 Y-37.339 Z-0.971
N7015 X-84 Y-37.371 Z-0.992
N7020 X-83.996 Y-37.41 Z-1
N7025 G3 X-83.957 Y-37.413 I0.02 J0.002
N7030 G1 X-83.874 Y-37.055 F480
N7035 X-83.848 Y-36.907
N7040 X-83.868 Y-36.759
N7045 X-83.923 Y-36.619
N7050 X-84 Y-36.49
N7055 X-84.092 Y-36.372
N7060 X-84.195 Y-36.263
N7065 X-84.33 Y-36.141
N7070 X-84.505 Y-36.008
N7075 X-84.697 Y-35.885
N7080 X-84.964 Y-35.742
N7085 X-85.289 Y-35.601
N7090 X-85.624 Y-35.486
N7095 X-85.965 Y-35.393
N7100 X-86.311 Y-35.317
N7105 X-86.66 Y-35.257
N7110 X-87.012 Y-35.213
N7115 X-87.365 Y-35.184
N7120 X-87.718 Y-35.17
N7125 X-88.072 Y-35.172
N7130 X-88.319 Y-35.191
N7135 X-88.468 Y-35.215
N7140 X-88.544 Y-35.235
N7145 X-88.626 Y-35.273
N7150 X-88.689 Y-35.338
N7155 X-88.725 Y-35.421
N7160 X-88.818 Y-35.822
N7165 G3 Y-35.861 I0.098 J-0.019 F1000
N7170 G1 X-88.81 Y-35.898 Z-0.992
N7175 X-88.804 Y-35.93 Z-0.971
N7180 X-88.799 Y-35.951 Z-0.938
N7185 X-88.798 Y-35.959 Z-0.9
N7190 G0 Z5
N7195 X-83.922 Y-36.952
N7200 Z-0.8
N7205 G1 Z-0.9 F1000
N7210 Y-36.959 Z-0.938
N7215 X-83.92 Y-36.981 Z-0.971
N7220 X-83.917 Y-37.013 Z-0.992
N7225 X-83.913 Y-37.051 Z-1
N7230 G3 X-83.874 Y-37.055 I0.02 J0.002
N7235 G1 X-83.781 Y-36.652 F480
N7240 X-83.755 Y-36.505
N7245 X-83.784 Y-36.358
N7250 X-83.843 Y-36.22
N7255 X-83.922 Y-36.093
N7260 X-84.017 Y-35.976
N7265 X-84.13 Y-35.859
N7270 X-84.256 Y-35.748
N7275 X-84.437 Y-35.613
N7280 X-84.655 Y-35.477
N7285 X-84.916 Y-35.341
N7290 X-85.243 Y-35.204
N7295 X-85.578 Y-35.092
N7300 X-85.92 Y-35
N7305 X-86.266 Y-34.925
N7310 X-86.616 Y-34.866
N7315 X-86.967 Y-34.821
N7320 X-87.32 Y-34.792
N7325 X-87.673 Y-34.776
N7330 X-88.028 Y-34.777
N7335 X-88.242 Y-34.795
N7340 X-88.39 Y-34.819
N7345 X-88.453 Y-34.836
N7350 X-88.534 Y-34.874
N7355 X-88.597 Y-34.939
N7360 X-88.633 Y-35.021
N7365 X-88.725 Y-35.421
N7370 G3 Y-35.46 I0.098 J-0.019 F1000
N7375 G1 X-88.717 Y-35.497 Z-0.992
N7380 X-88.711 Y-35.529 Z-0.971
N7385 X-88.706 Y-35.55 Z-0.938
N7390 X-88.705 Y-35.558 Z-0.9
N7395 G0 Z5
N7400 X-83.829 Y-36.55
N7405 Z-0.8
N7410 G1 Z-0.9 F1000
N7415 Y-36.557 Z-0.938
N7420 X-83.827 Y-36.579 Z-0.971
N7425 X-83.824 Y-36.611 Z-0.992
N7430 X-83.82 Y-36.649 Z-1
N7435 G3 X-83.781 Y-36.652 I0.02 J0.002
N7440 G1 X-83.696 Y-36.286 F480
N7445 X-83.67 Y-36.139
N7450 X-83.693 Y-35.99
N7455 X-83.749 Y-35.851
N7460 X-83.827 Y-35.723
N7465 X-83.92 Y-35.605
N7470 X-84.023 Y-35.497
N7475 X-84.158 Y-35.376
N7480 X-84.337 Y-35.24
N7485 X-84.531 Y-35.117
N7490 X-84.801 Y-34.973
N7495 X-85.126 Y-34.833
N7500 X-85.461 Y-34.718
N7505 X-85.802 Y-34.624
N7510 X-86.147 Y-34.546
N7515 X-86.496 Y-34.484
N7520 X-86.847 Y-34.437
N7525 X-87.199 Y-34.403
N7530 X-87.553 Y-34.384
N7535 X-87.73 Y-34.382
N7540 X-88.026 Y-34.388
N7545 X-88.188 Y-34.404
N7550 X-88.336 Y-34.431
N7555 X-88.368 Y-34.441
N7560 X-88.446 Y-34.48
N7565 X-88.507 Y-34.543
N7570 X-88.541 Y-34.624
N7575 X-88.633 Y-35.021
N7580 G3 Y-35.06 I0.098 J-0.019 F1000
N7585 G1 X-88.625 Y-35.098 Z-0.992
N7590 X-88.618 Y-35.13 Z-0.971
N7595 X-88.614 Y-35.151 Z-0.938
N7600 X-88.613 Y-35.158 Z-0.9
N7605 G0 Z5
N7610 X-83.745 Y-36.183
N7615 Z-0.8
N7620 G1 Z-0.9 F1000
N7625 X-83.744 Y-36.191 Z-0.938
N7630 X-83.742 Y-36.213 Z-0.971
N7635 X-83.739 Y-36.245 Z-0.992
N7640 X-83.736 Y-36.283 Z-1
N7645 G3 X-83.696 Y-36.286 I0.02 J0.002
N7650 G1 X-83.605 Y-35.889 F480
N7655 X-83.578 Y-35.741
N7660 X-83.608 Y-35.594
N7665 X-83.667 Y-35.457
N7670 X-83.747 Y-35.329
N7675 X-83.841 Y-35.213
N7680 X-83.954 Y-35.097
N7685 X-84.082 Y-34.984
N7690 X-84.265 Y-34.848
N7695 X-84.48 Y-34.714
N7700 X-84.747 Y-34.575
N7705 X-85.074 Y-34.438
N7710 X-85.409 Y-34.325
N7715 X-85.751 Y-34.232
N7720 X-86.097 Y-34.155
N7725 X-86.445 Y-34.093
N7730 X-86.796 Y-34.045
N7735 X-87.149 Y-34.011
N7740 X-87.502 Y-33.99
N7745 X-87.846 Y-33.988
N7750 X-88.062 Y-34.004
N7755 X-88.211 Y-34.027
N7760 X-88.269 Y-34.042
N7765 X-88.351 Y-34.08
N7770 X-88.414 Y-34.145
N7775 X-88.449 Y-34.228
N7780 X-88.541 Y-34.624
N7785 G3 Y-34.663 I0.098 J-0.019 F1000
N7790 G1 X-88.533 Y-34.701 Z-0.992
N7795 X-88.527 Y-34.732 Z-0.971
N7800 X-88.522 Y-34.754 Z-0.938
N7805 X-88.521 Y-34.761 Z-0.9
N7810 G0 Z5
N7815 X-83.653 Y-35.786
N7820 Z-0.8
N7825 G1 Z-0.9 F1000
N7830 X-83.652 Y-35.794 Z-0.938
N7835 X-83.65 Y-35.815 Z-0.971
N7840 X-83.647 Y-35.848 Z-0.992
N7845 X-83.644 Y-35.886 Z-1
N7850 G3 X-83.605 Y-35.889 I0.02 J0.002
N7855 G1 X-83.521 Y-35.526 F480
N7860 X-83.494 Y-35.378
N7865 X-83.517 Y-35.23
N7870 X-83.573 Y-35.091
N7875 X-83.65 Y-34.962
N7880 X-83.743 Y-34.844
N7885 X-83.846 Y-34.736
N7890 X-83.981 Y-34.615
N7895 X-84.158 Y-34.48
N7900 X-84.354 Y-34.355
N7905 X-84.626 Y-34.21
N7910 X-84.951 Y-34.069
N7915 X-85.285 Y-33.953
N7920 X-85.626 Y-33.857
N7925 X-85.971 Y-33.778
N7930 X-86.319 Y-33.713
N7935 X-86.67 Y-33.662
N7940 X-87.022 Y-33.624
N7945 X-87.375 Y-33.6
N7950 X-87.71 Y-33.592
N7955 X-87.944 Y-33.605
N7960 X-88.092 Y-33.626
N7965 X-88.172 Y-33.645
N7970 X-88.256 Y-33.682
N7975 X-88.321 Y-33.747
N7980 X-88.358 Y-33.832
N7985 X-88.449 Y-34.228
N7990 G3 Y-34.267 I0.098 J-0.019 F1000
N7995 G1 X-88.441 Y-34.304 Z-0.992
N8000 X-88.435 Y-34.336 Z-0.971
N8005 X-88.431 Y-34.357 Z-0.938
N8010 X-88.429 Y-34.365 Z-0.9
N8015 G0 Z5
N8020 X-83.569 Y-35.423
N8025 Z-0.8
N8030 G1 Z-0.9 F1000
N8035 X-83.568 Y-35.431 Z-0.938
N8040 X-83.566 Y-35.452 Z-0.971
N8045 X-83.563 Y-35.485 Z-0.992
N8050 X-83.56 Y-35.523 Z-1
N8055 G3 X-83.521 Y-35.526 I0.02 J0.002
N8060 G1 X-83.428 Y-35.124 F480
N8065 X-83.401 Y-34.976
N8070 X-83.432 Y-34.829
N8075 X-83.492 Y-34.692
N8080 X-83.572 Y-34.565
N8085 X-83.667 Y-34.448
N8090 X-83.781 Y-34.331
N8095 X-83.91 Y-34.219
N8100 X-84.095 Y-34.082
N8105 X-84.314 Y-33.945
N8110 X-84.584 Y-33.805
N8115 X-84.911 Y-33.668
N8120 X-85.247 Y-33.555
N8125 X-85.588 Y-33.461
N8130 X-85.933 Y-33.383
N8135 X-86.282 Y-33.319
N8140 X-86.632 Y-33.269
N8145 X-86.984 Y-33.231
N8150 X-87.337 Y-33.207
N8155 X-87.67 Y-33.2
N8160 X-87.865 Y-33.212
N8165 X-88.013 Y-33.234
N8170 X-88.082 Y-33.251
N8175 X-88.166 Y-33.288
N8180 X-88.23 Y-33.353
N8185 X-88.267 Y-33.437
N8190 X-88.358 Y-33.832
N8195 G3 Y-33.871 I0.098 J-0.019 F1000
N8200 G1 X-88.35 Y-33.908 Z-0.992
N8205 X-88.343 Y-33.94 Z-0.971
N8210 X-88.339 Y-33.961 Z-0.938
N8215 X-88.338 Y-33.969 Z-0.9
N8220 G0 Z5
N8225 X-83.476 Y-35.021
N8230 Z-0.8
N8235 G1 Z-0.9 F1000
N8240 X-83.475 Y-35.028 Z-0.938
N8245 X-83.473 Y-35.05 Z-0.971
N8250 X-83.47 Y-35.082 Z-0.992
N8255 X-83.467 Y-35.12 Z-1
N8260 G3 X-83.428 Y-35.124 I0.02 J0.002
N8265 G1 X-83.343 Y-34.757 F480
N8270 X-83.317 Y-34.61
N8275 X-83.341 Y-34.462
N8280 X-83.398 Y-34.323
N8285 X-83.476 Y-34.195
N8290 X-83.57 Y-34.078
N8295 X-83.673 Y-33.969
N8300 X-83.811 Y-33.847
N8305 X-83.99 Y-33.711
N8310 X-84.189 Y-33.584
N8315 X-84.465 Y-33.438
N8320 X-84.791 Y-33.298
N8325 X-85.125 Y-33.183
N8330 X-85.466 Y-33.086
N8335 X-85.811 Y-33.006
N8340 X-86.159 Y-32.939
N8345 X-86.509 Y-32.886
N8350 X-86.86 Y-32.845
N8355 X-87.213 Y-32.817
N8360 X-87.533 Y-32.807
N8365 X-87.756 Y-32.818
N8370 X-87.905 Y-32.837
N8375 X-87.988 Y-32.856
N8380 X-88.073 Y-32.893
N8385 X-88.138 Y-32.958
N8390 X-88.176 Y-33.043
N8395 X-88.267 Y-33.437
N8400 G3 X-88.266 Y-33.476 I0.098 J-0.019 F1000
N8405 G1 X-88.259 Y-33.514 Z-0.992
N8410 X-88.252 Y-33.546 Z-0.971
N8415 X-88.248 Y-33.567 Z-0.938
N8420 X-88.247 Y-33.574 Z-0.9
N8425 G0 Z5
N8430 X-83.391 Y-34.655
N8435 Z-0.8
N8440 G1 Z-0.9 F1000
N8445 Y-34.662 Z-0.938
N8450 X-83.389 Y-34.684 Z-0.971
N8455 X-83.386 Y-34.716 Z-0.992
N8460 X-83.382 Y-34.754 Z-1
N8465 G3 X-83.343 Y-34.757 I0.02 J0.002
N8470 G1 X-83.25 Y-34.355 F480
N8475 X-83.224 Y-34.208
N8480 X-83.256 Y-34.061
N8485 X-83.318 Y-33.924
N8490 X-83.398 Y-33.798
N8495 X-83.493 Y-33.682
N8500 X-83.608 Y-33.565
N8505 X-83.74 Y-33.45
N8510 X-83.928 Y-33.312
N8515 X-84.148 Y-33.175
N8520 X-84.425 Y-33.033
N8525 X-84.752 Y-32.897
N8530 X-85.088 Y-32.784
N8535 X-85.429 Y-32.69
N8540 X-85.774 Y-32.61
N8545 X-86.122 Y-32.545
N8550 X-86.472 Y-32.492
N8555 X-86.824 Y-32.451
N8560 X-87.177 Y-32.424
N8565 X-87.497 Y-32.416
N8570 X-87.683 Y-32.427
N8575 X-87.831 Y-32.448
N8580 X-87.9 Y-32.464
N8585 X-87.983 Y-32.501
N8590 X-88.048 Y-32.567
N8595 X-88.085 Y-32.651
N8600 X-88.176 Y-33.043
N8605 G3 X-88.175 Y-33.082 I0.098 J-0.019 F1000
N8610 G1 X-88.168 Y-33.12 Z-0.992
N8615 X-88.161 Y-33.152 Z-0.971
N8620 X-88.157 Y-33.173 Z-0.938
N8625 X-88.155 Y-33.18 Z-0.9
N8630 G0 Z5
N8635 X-83.298 Y-34.252
N8640 Z-0.8
N8645 G1 Z-0.9 F1000
N8650 Y-34.26 Z-0.938
N8655 X-83.296 Y-34.281 Z-0.971
N8660 X-83.293 Y-34.314 Z-0.992
N8665 X-83.289 Y-34.352 Z-1
N8670 G3 X-83.25 Y-34.355 I0.02 J0.002
N8675 G1 X-83.167 Y-33.997 F480
N8680 X-83.141 Y-33.849
N8685 X-83.165 Y-33.701
N8690 X-83.221 Y-33.562
N8695 X-83.299 Y-33.434
N8700 X-83.392 Y-33.316
N8705 X-83.495 Y-33.208
N8710 X-83.634 Y-33.083
N8715 X-83.808 Y-32.952
N8720 X-84.013 Y-32.821
N8725 X-84.291 Y-32.673
N8730 X-84.616 Y-32.532
N8735 X-84.951 Y-32.416
N8740 X-85.291 Y-32.318
N8745 X-85.635 Y-32.236
N8750 X-85.983 Y-32.167
N8755 X-86.332 Y-32.111
N8760 X-86.684 Y-32.067
N8765 X-87.036 Y-32.036
N8770 X-87.349 Y-32.024
N8775 X-87.571 Y-32.033
N8780 X-87.719 Y-32.051
N8785 X-87.805 Y-32.07
N8790 X-87.89 Y-32.107
N8795 X-87.957 Y-32.173
N8800 X-87.994 Y-32.258
N8805 X-88.085 Y-32.651
N8810 G3 Y-32.69 I0.098 J-0.019 F1000
N8815 G1 X-88.077 Y-32.727 Z-0.992
N8820 X-88.071 Y-32.759 Z-0.971
N8825 X-88.066 Y-32.78 Z-0.938
N8830 X-88.065 Y-32.788 Z-0.9
N8835 G0 Z5
N8840 X-83.216 Y-33.894
N8845 Z-0.8
N8850 G1 Z-0.9 F1000
N8855 X-83.215 Y-33.902 Z-0.938
N8860 X-83.213 Y-33.923 Z-0.971
N8865 X-83.21 Y-33.956 Z-0.992
N8870 X-83.206 Y-33.994 Z-1
N8875 G3 X-83.167 Y-33.997 I0.02 J0.002
N8880 G1 X-83.074 Y-33.595 F480
N8885 X-83.048 Y-33.447
N8890 X-83.079 Y-33.3
N8895 X-83.14 Y-33.163
N8900 X-83.221 Y-33.037
N8905 X-83.315 Y-32.92
N8910 X-83.43 Y-32.803
N8915 X-83.562 Y-32.688
N8920 X-83.751 Y-32.548
N8925 X-83.97 Y-32.412
N8930 X-84.25 Y-32.268
N8935 X-84.577 Y-32.131
N8940 X-84.912 Y-32.017
N8945 X-85.253 Y-31.922
N8950 X-85.597 Y-31.841
N8955 X-85.945 Y-31.773
N8960 X-86.295 Y-31.717
N8965 X-86.646 Y-31.674
N8970 X-86.999 Y-31.643
N8975 X-87.314 Y-31.634
N8980 X-87.498 Y-31.643
N8985 X-87.647 Y-31.663
N8990 X-87.717 Y-31.68
N8995 X-87.801 Y-31.717
N9000 X-87.867 Y-31.782
N9005 X-87.904 Y-31.867
N9010 X-87.994 Y-32.258
N9015 G3 Y-32.297 I0.098 J-0.019 F1000
N9020 G1 X-87.986 Y-32.335 Z-0.992
N9025 X-87.98 Y-32.366 Z-0.971
N9030 X-87.975 Y-32.388 Z-0.938
N9035 X-87.974 Y-32.395 Z-0.9
N9040 G0 Z5
N9045 X-83.123 Y-33.492
N9050 Z-0.8
N9055 G1 Z-0.9 F1000
N9060 X-83.122 Y-33.499 Z-0.938
N9065 X-83.12 Y-33.521 Z-0.971
N9070 X-83.117 Y-33.553 Z-0.992
N9075 X-83.113 Y-33.591 Z-1
N9080 G3 X-83.074 Y-33.595 I0.02 J0.002
N9085 G1 X-82.99 Y-33.229 F480
N9090 X-82.963 Y-33.081
N9095 X-82.989 Y-32.933
N9100 X-83.046 Y-32.795
N9105 X-83.125 Y-32.667
N9110 X-83.218 Y-32.549
N9115 X-83.322 Y-32.441
N9120 X-83.461 Y-32.317
N9125 X-83.638 Y-32.183
N9130 X-83.844 Y-32.051
N9135 X-84.126 Y-31.902
N9140 X-84.451 Y-31.762
N9145 X-84.785 Y-31.646
N9150 X-85.125 Y-31.548
N9155 X-85.469 Y-31.464
N9160 X-85.816 Y-31.394
N9165 X-86.166 Y-31.336
N9170 X-86.517 Y-31.289
N9175 X-86.869 Y-31.256
N9180 X-87.178 Y-31.243
N9185 X-87.391 Y-31.251
N9190 X-87.54 Y-31.269
N9195 X-87.624 Y-31.288
N9200 X-87.709 Y-31.324
N9205 X-87.776 Y-31.39
N9210 X-87.813 Y-31.475
N9215 X-87.904 Y-31.867
N9220 G3 X-87.903 Y-31.906 I0.098 J-0.019 F1000
N9225 G1 X-87.896 Y-31.943 Z-0.992
N9230 X-87.889 Y-31.975 Z-0.971
N9235 X-87.885 Y-31.996 Z-0.938
N9240 X-87.884 Y-32.004 Z-0.9
N9245 G0 Z5
N9250 X-83.038 Y-33.126
N9255 Z-0.8
N9260 G1 Z-0.9 F1000
N9265 X-83.037 Y-33.133 Z-0.938
N9270 X-83.035 Y-33.155 Z-0.971
N9275 X-83.032 Y-33.187 Z-0.992
N9280 X-83.029 Y-33.225 Z-1
N9285 G3 X-82.99 Y-33.229 I0.02 J0.002
N9290 G1 X-82.897 Y-32.826 F480
N9295 X-82.87 Y-32.679
N9300 X-82.903 Y-32.532
N9305 X-82.965 Y-32.396
N9310 X-83.046 Y-32.269
N9315 X-83.141 Y-32.153
N9320 X-83.256 Y-32.036
N9325 X-83.39 Y-31.92
N9330 X-83.582 Y-31.779
N9335 X-83.802 Y-31.642
N9340 X-84.087 Y-31.496
N9345 X-84.414 Y-31.36
N9350 X-84.749 Y-31.246
N9355 X-85.09 Y-31.15
N9360 X-85.434 Y-31.068
N9365 X-85.782 Y-30.999
N9370 X-86.131 Y-30.941
N9375 X-86.482 Y-30.895
N9380 X-86.835 Y-30.863
N9385 X-87.14 Y-30.854
N9390 X-87.319 Y-30.863
N9395 X-87.467 Y-30.882
N9400 X-87.536 Y-30.898
N9405 X-87.621 Y-30.935
N9410 X-87.686 Y-31.001
N9415 X-87.723 Y-31.085
N9420 X-87.813 Y-31.475
N9425 G3 Y-31.514 I0.098 J-0.019 F1000
N9430 G1 X-87.805 Y-31.552 Z-0.992
N9435 X-87.799 Y-31.584 Z-0.971
N9440 X-87.795 Y-31.605 Z-0.938
N9445 X-87.793 Y-31.612 Z-0.9
N9450 G0 Z5
N9455 X-82.945 Y-32.723
N9460 Z-0.8
N9465 G1 Z-0.9 F1000
N9470 X-82.944 Y-32.731 Z-0.938
N9475 X-82.942 Y-32.753 Z-0.971
N9480 X-82.939 Y-32.785 Z-0.992
N9485 X-82.936 Y-32.823 Z-1
N9490 G3 X-82.897 Y-32.826 I0.02 J0.002
N9495 G1 X-82.814 Y-32.468 F480
N9500 X-82.787 Y-32.321
N9505 X-82.812 Y-32.173
N9510 X-82.868 Y-32.034
N9515 X-82.946 Y-31.906
N9520 X-83.039 Y-31.788
N9525 X-83.142 Y-31.679
N9530 X-83.283 Y-31.554
N9535 X-83.455 Y-31.422
N9540 X-83.665 Y-31.288
N9545 X-83.947 Y-31.138
N9550 X-84.272 Y-30.997
N9555 X-84.606 Y-30.88
N9560 X-84.946 Y-30.78
N9565 X-85.29 Y-30.695
N9570 X-85.637 Y-30.623
N9575 X-85.985 Y-30.562
N9580 X-86.336 Y-30.514
N9585 X-86.688 Y-30.477
N9590 X-86.993 Y-30.463
N9595 X-87.207 Y-30.471
N9600 X-87.356 Y-30.488
N9605 X-87.442 Y-30.507
N9610 X-87.528 Y-30.543
N9615 X-87.595 Y-30.609
N9620 X-87.633 Y-30.695
N9625 X-87.723 Y-31.085
N9630 G3 Y-31.124 I0.098 J-0.019 F1000
N9635 G1 X-87.715 Y-31.162 Z-0.992
N9640 X-87.709 Y-31.194 Z-0.971
N9645 X-87.704 Y-31.215 Z-0.938
N9650 X-87.703 Y-31.222 Z-0.9
N9655 G0 Z5
N9660 X-82.862 Y-32.365
N9665 Z-0.8
N9670 G1 Z-0.9 F1000
N9675 Y-32.373 Z-0.938
N9680 X-82.86 Y-32.394 Z-0.971
N9685 X-82.857 Y-32.427 Z-0.992
N9690 X-82.853 Y-32.465 Z-1
N9695 G3 X-82.814 Y-32.468 I0.02 J0.002
N9700 G1 X-82.721 Y-32.066 F480
N9705 X-82.694 Y-31.918
N9710 X-82.726 Y-31.772
N9715 X-82.787 Y-31.635
N9720 X-82.868 Y-31.508
N9725 X-82.962 Y-31.392
N9730 X-83.077 Y-31.274
N9735 X-83.211 Y-31.157
N9740 X-83.402 Y-31.016
N9745 X-83.622 Y-30.879
N9750 X-83.908 Y-30.731
N9755 X-84.234 Y-30.595
N9760 X-84.569 Y-30.48
N9765 X-84.91 Y-30.382
N9770 X-85.254 Y-30.298
N9775 X-85.601 Y-30.227
N9780 X-85.95 Y-30.168
N9785 X-86.3 Y-30.12
N9790 X-86.653 Y-30.085
N9795 X-86.956 Y-30.075
N9800 X-87.135 Y-30.083
N9805 X-87.284 Y-30.101
N9810 X-87.355 Y-30.118
N9815 X-87.44 Y-30.155
N9820 X-87.505 Y-30.22
N9825 X-87.543 Y-30.305
N9830 X-87.633 Y-30.695
N9835 G3 X-87.632 Y-30.734 I0.098 J-0.019 F1000
N9840 G1 X-87.625 Y-30.771 Z-0.992
N9845 X-87.618 Y-30.803 Z-0.971
N9850 X-87.614 Y-30.824 Z-0.938
N9855 X-87.613 Y-30.832 Z-0.9
N9860 G0 Z5
N9865 X-82.769 Y-31.963
N9870 Z-0.8
N9875 G1 Z-0.9 F1000
N9880 Y-31.971 Z-0.938
N9885 X-82.767 Y-31.992 Z-0.971
N9890 X-82.764 Y-32.024 Z-0.992
N9895 X-82.76 Y-32.063 Z-1
N9900 G3 X-82.721 Y-32.066 I0.02 J0.002
N9905 G1 X-82.638 Y-31.709 F480
N9910 X-82.612 Y-31.561
N9915 X-82.634 Y-31.413
N9920 X-82.69 Y-31.273
N9925 X-82.767 Y-31.145
N9930 X-82.86 Y-31.027
N9935 X-82.963 Y-30.918
N9940 X-83.102 Y-30.792
N9945 X-83.273 Y-30.661
N9950 X-83.483 Y-30.526
N9955 X-83.765 Y-30.375
N9960 X-84.089 Y-30.233
N9965 X-84.423 Y-30.114
N9970 X-84.762 Y-30.013
N9975 X-85.105 Y-29.927
N9980 X-85.452 Y-29.853
N9985 X-85.8 Y-29.79
N9990 X-86.15 Y-29.739
N9995 X-86.502 Y-29.7
N10000 X-86.806 Y-29.685
N10005 X-87.021 Y-29.691
N10010 X-87.17 Y-29.708
N10015 X-87.261 Y-29.727
N10020 X-87.347 Y-29.763
N10025 X-87.414 Y-29.829
N10030 X-87.452 Y-29.915
N10035 X-87.543 Y-30.305
N10040 G3 X-87.542 Y-30.344 I0.098 J-0.019 F1000
N10045 G1 X-87.535 Y-30.382 Z-0.992
N10050 X-87.528 Y-30.413 Z-0.971
N10055 X-87.524 Y-30.435 Z-0.938
N10060 X-87.523 Y-30.442 Z-0.9
N10065 G0 Z5
N10070 X-82.687 Y-31.606
N10075 Z-0.8
N10080 G1 Z-0.9 F1000
N10085 X-82.686 Y-31.613 Z-0.938
N10090 X-82.684 Y-31.635 Z-0.971
N10095 X-82.681 Y-31.667 Z-0.992
N10100 X-82.677 Y-31.705 Z-1
N10105 G3 X-82.638 Y-31.709 I0.02 J0.002
N10110 G1 X-82.551 Y-31.332 F480
N10115 X-82.525 Y-31.184
N10120 X-82.546 Y-31.036
N10125 X-82.601 Y-30.896
N10130 X-82.677 Y-30.767
N10135 X-82.769 Y-30.648
N10140 X-82.873 Y-30.537
N10145 X-83.003 Y-30.419
N10150 X-83.185 Y-30.279
N10155 X-83.382 Y-30.15
N10160 X-83.66 Y-29.999
N10165 X-83.984 Y-29.856
N10170 X-84.317 Y-29.736
N10175 X-84.656 Y-29.634
N10180 X-84.999 Y-29.546
N10185 X-85.345 Y-29.47
N10190 X-85.693 Y-29.406
N10195 X-86.044 Y-29.354
N10200 X-86.395 Y-29.313
N10205 X-86.714 Y-29.296
N10210 X-86.925 Y-29.301
N10215 X-87.074 Y-29.317
N10220 X-87.169 Y-29.337
N10225 X-87.256 Y-29.373
N10230 X-87.324 Y-29.439
N10235 X-87.362 Y-29.525
N10240 X-87.452 Y-29.915
N10245 G3 Y-29.954 I0.098 J-0.019 F1000
N10250 G1 X-87.445 Y-29.991 Z-0.992
N10255 X-87.438 Y-30.023 Z-0.971
N10260 X-87.434 Y-30.044 Z-0.938
N10265 X-87.432 Y-30.052 Z-0.9
N10270 G0 Z5
N10275 X-82.6 Y-31.229
N10280 Z-0.8
N10285 G1 Z-0.9 F1000
N10290 X-82.599 Y-31.236 Z-0.938
N10295 X-82.597 Y-31.258 Z-0.971
N10300 X-82.594 Y-31.29 Z-0.992
N10305 X-82.59 Y-31.328 Z-1
N10310 G3 X-82.551 Y-31.332 I0.02 J0.002
N10315 G1 X-82.461 Y-30.939 F480
N10320 X-82.434 Y-30.792
N10325 X-82.459 Y-30.644
N10330 X-82.516 Y-30.505
N10335 X-82.594 Y-30.377
N10340 X-82.687 Y-30.259
N10345 X-82.796 Y-30.144
N10350 X-82.924 Y-30.028
N10355 X-83.108 Y-29.888
N10360 X-83.316 Y-29.754
N10365 X-83.595 Y-29.605
N10370 X-83.919 Y-29.464
N10375 X-84.253 Y-29.345
N10380 X-84.592 Y-29.243
N10385 X-84.935 Y-29.155
N10390 X-85.281 Y-29.08
N10395 X-85.629 Y-29.016
N10400 X-85.979 Y-28.963
N10405 X-86.331 Y-28.924
N10410 X-86.645 Y-28.907
N10415 X-86.841 Y-28.913
N10420 X-86.991 Y-28.929
N10425 X-87.08 Y-28.948
N10430 X-87.167 Y-28.984
N10435 X-87.234 Y-29.05
N10440 X-87.272 Y-29.136
N10445 X-87.362 Y-29.525
N10450 G3 Y-29.564 I0.098 J-0.019 F1000
N10455 G1 X-87.355 Y-29.602 Z-0.992
N10460 X-87.348 Y-29.633 Z-0.971
N10465 X-87.344 Y-29.655 Z-0.938
N10470 X-87.342 Y-29.662 Z-0.9
N10475 G0 Z5
N10480 X-82.509 Y-30.836
N10485 Z-0.8
N10490 G1 Z-0.9 F1000
N10495 X-82.508 Y-30.844 Z-0.938
N10500 X-82.506 Y-30.866 Z-0.971
N10505 X-82.503 Y-30.898 Z-0.992
N10510 X-82.5 Y-30.936 Z-1
N10515 G3 X-82.461 Y-30.939 I0.02 J0.002
N10520 G1 X-82.368 Y-30.537 F480
N10525 X-82.341 Y-30.389
N10530 X-82.373 Y-30.243
N10535 X-82.434 Y-30.106
N10540 X-82.514 Y-29.979
N10545 X-82.609 Y-29.863
N10550 X-82.723 Y-29.745
N10555 X-82.857 Y-29.627
N10560 X-83.048 Y-29.485
N10565 X-83.267 Y-29.348
N10570 X-83.556 Y-29.198
N10575 X-83.882 Y-29.06
N10580 X-84.216 Y-28.944
N10585 X-84.556 Y-28.844
N10590 X-84.9 Y-28.758
N10595 X-85.246 Y-28.684
N10600 X-85.594 Y-28.621
N10605 X-85.944 Y-28.569
N10610 X-86.297 Y-28.532
N10615 X-86.589 Y-28.519
N10620 X-86.769 Y-28.526
N10625 X-86.918 Y-28.544
N10630 X-86.993 Y-28.56
N10635 X-87.079 Y-28.597
N10640 X-87.145 Y-28.663
N10645 X-87.183 Y-28.748
N10650 X-87.272 Y-29.136
N10655 G3 Y-29.175 I0.098 J-0.019 F1000
N10660 G1 X-87.265 Y-29.213 Z-0.992
N10665 X-87.258 Y-29.244 Z-0.971
N10670 X-87.254 Y-29.266 Z-0.938
N10675 X-87.252 Y-29.273 Z-0.9
N10680 G0 Z5
N10685 X-82.416 Y-30.434
N10690 Z-0.8
N10695 G1 Z-0.9 F1000
N10700 X-82.415 Y-30.442 Z-0.938
N10705 X-82.413 Y-30.463 Z-0.971
N10710 X-82.41 Y-30.496 Z-0.992
N10715 X-82.407 Y-30.534 Z-1
N10720 G3 X-82.368 Y-30.537 I0.02 J0.002
N10725 G1 X-82.283 Y-30.171 F480
N10730 X-82.256 Y-30.023
N10735 X-82.282 Y-29.875
N10740 X-82.339 Y-29.737
N10745 X-82.417 Y-29.609
N10750 X-82.511 Y-29.491
N10755 X-82.614 Y-29.382
N10760 X-82.754 Y-29.257
N10765 X-82.93 Y-29.122
N10770 X-83.141 Y-28.987
N10775 X-83.427 Y-28.834
N10780 X-83.752 Y-28.693
N10785 X-84.085 Y-28.574
N10790 X-84.424 Y-28.471
N10795 X-84.767 Y-28.383
N10800 X-85.113 Y-28.307
N10805 X-85.461 Y-28.241
N10810 X-85.811 Y-28.187
N10815 X-86.162 Y-28.147
N10820 X-86.462 Y-28.131
N10825 X-86.665 Y-28.137
N10830 X-86.814 Y-28.153
N10835 X-86.901 Y-28.171
N10840 X-86.988 Y-28.207
N10845 X-87.055 Y-28.273
N10850 X-87.093 Y-28.359
N10855 X-87.183 Y-28.748
N10860 G3 Y-28.787 I0.098 J-0.019 F1000
N10865 G1 X-87.175 Y-28.825 Z-0.992
N10870 X-87.168 Y-28.856 Z-0.971
N10875 X-87.164 Y-28.878 Z-0.938
N10880 X-87.163 Y-28.885 Z-0.9
N10885 G0 Z5
N10890 X-82.331 Y-30.068
N10895 Z-0.8
N10900 G1 Z-0.9 F1000
N10905 Y-30.076 Z-0.938
N10910 X-82.329 Y-30.097 Z-0.971
N10915 X-82.326 Y-30.129 Z-0.992
N10920 X-82.322 Y-30.168 Z-1
N10925 G3 X-82.283 Y-30.171 I0.02 J0.002
N10930 G1 X-82.19 Y-29.769 F480
N10935 X-82.163 Y-29.621
N10940 X-82.196 Y-29.475
N10945 X-82.258 Y-29.338
N10950 X-82.338 Y-29.211
N10955 X-82.433 Y-29.095
N10960 X-82.547 Y-28.977
N10965 X-82.683 Y-28.858
N10970 X-82.877 Y-28.714
N10975 X-83.097 Y-28.577
N10980 X-83.39 Y-28.425
N10985 X-83.717 Y-28.288
N10990 X-84.051 Y-28.172
N10995 X-84.391 Y-28.072
N11000 X-84.734 Y-27.985
N11005 X-85.08 Y-27.91
N11010 X-85.428 Y-27.846
N11015 X-85.779 Y-27.793
N11020 X-86.131 Y-27.755
N11025 X-86.419 Y-27.743
N11030 X-86.594 Y-27.75
N11035 X-86.743 Y-27.768
N11040 X-86.814 Y-27.784
N11045 X-86.9 Y-27.821
N11050 X-86.966 Y-27.886
N11055 X-87.003 Y-27.972
N11060 X-87.093 Y-28.359
N11065 G3 Y-28.398 I0.098 J-0.019 F1000
N11070 G1 X-87.085 Y-28.436 Z-0.992
N11075 X-87.079 Y-28.468 Z-0.971
N11080 X-87.074 Y-28.489 Z-0.938
N11085 X-87.073 Y-28.496 Z-0.9
N11090 G0 Z5
N11095 X-82.238 Y-29.666
N11100 Z-0.8
N11105 G1 Z-0.9 F1000
N11110 Y-29.673 Z-0.938
N11115 X-82.236 Y-29.695 Z-0.971
N11120 X-82.233 Y-29.727 Z-0.992
N11125 X-82.229 Y-29.765 Z-1
N11130 G3 X-82.19 Y-29.769 I0.02 J0.002
N11135 G1 X-82.107 Y-29.41 F480
N11140 X-82.081 Y-29.263
N11145 X-82.104 Y-29.115
N11150 X-82.16 Y-28.976
N11155 X-82.238 Y-28.847
N11160 X-82.33 Y-28.729
N11165 X-82.433 Y-28.62
N11170 X-82.573 Y-28.493
N11175 X-82.744 Y-28.362
N11180 X-82.959 Y-28.223
N11185 X-83.244 Y-28.069
N11190 X-83.569 Y-27.927
N11195 X-83.902 Y-27.807
N11200 X-84.24 Y-27.704
N11205 X-84.583 Y-27.614
N11210 X-84.928 Y-27.536
N11215 X-85.276 Y-27.469
N11220 X-85.626 Y-27.414
N11225 X-85.977 Y-27.372
N11230 X-86.274 Y-27.355
N11235 X-86.482 Y-27.36
N11240 X-86.631 Y-27.376
N11245 X-86.721 Y-27.395
N11250 X-86.808 Y-27.431
N11255 X-86.875 Y-27.497
N11260 X-86.913 Y-27.583
N11265 X-87.003 Y-27.972
N11270 G3 Y-28.011 I0.098 J-0.019 F1000
N11275 G1 X-86.995 Y-28.048 Z-0.992
N11280 X-86.989 Y-28.08 Z-0.971
N11285 X-86.985 Y-28.101 Z-0.938
N11290 X-86.983 Y-28.109 Z-0.9
N11295 G0 Z5
N11300 X-82.155 Y-29.308
N11305 Z-0.8
N11310 G1 Z-0.9 F1000
N11315 Y-29.315 Z-0.938
N11320 X-82.153 Y-29.337 Z-0.971
N11325 X-82.15 Y-29.369 Z-0.992
N11330 X-82.146 Y-29.407 Z-1
N11335 G3 X-82.107 Y-29.41 I0.02 J0.002
N11340 G1 X-82.014 Y-29.008 F480
N11345 X-81.988 Y-28.861
N11350 X-82.019 Y-28.714
N11355 X-82.079 Y-28.576
N11360 X-82.158 Y-28.449
N11365 X-82.253 Y-28.332
N11370 X-82.366 Y-28.214
N11375 X-82.501 Y-28.096
N11380 X-82.694 Y-27.952
N11385 X-82.913 Y-27.814
N11390 X-83.205 Y-27.661
N11395 X-83.531 Y-27.523
N11400 X-83.865 Y-27.406
N11405 X-84.205 Y-27.304
N11410 X-84.548 Y-27.216
N11415 X-84.893 Y-27.14
N11420 X-85.241 Y-27.074
N11425 X-85.591 Y-27.02
N11430 X-85.943 Y-26.98
N11435 X-86.234 Y-26.968
N11440 X-86.411 Y-26.974
N11445 X-86.56 Y-26.991
N11450 X-86.634 Y-27.008
N11455 X-86.72 Y-27.044
N11460 X-86.786 Y-27.11
N11465 X-86.824 Y-27.196
N11470 X-86.913 Y-27.583
N11475 G3 Y-27.622 I0.098 J-0.019 F1000
N11480 G1 X-86.906 Y-27.66 Z-0.992
N11485 X-86.899 Y-27.691 Z-0.971
N11490 X-86.895 Y-27.713 Z-0.938
N11495 X-86.893 Y-27.72 Z-0.9
N11500 G0 Z5
N11505 X-82.063 Y-28.905
N11510 Z-0.8
N11515 G1 Z-0.9 F1000
N11520 X-82.062 Y-28.913 Z-0.938
N11525 X-82.06 Y-28.934 Z-0.971
N11530 X-82.057 Y-28.967 Z-0.992
N11535 X-82.053 Y-29.005 Z-1
N11540 G3 X-82.014 Y-29.008 I0.02 J0.002
N11545 G1 X-81.929 Y-28.642 F480
N11550 X-81.903 Y-28.494
N11555 X-81.927 Y-28.346
N11560 X-81.984 Y-28.207
N11565 X-82.062 Y-28.079
N11570 X-82.154 Y-27.961
N11575 X-82.257 Y-27.852
N11580 X-82.397 Y-27.726
N11585 X-82.572 Y-27.592
N11590 X-82.784 Y-27.454
N11595 X-83.072 Y-27.299
N11600 X-83.396 Y-27.157
N11605 X-83.729 Y-27.037
N11610 X-84.068 Y-26.933
N11615 X-84.41 Y-26.842
N11620 X-84.755 Y-26.764
N11625 X-85.103 Y-26.696
N11630 X-85.452 Y-26.639
N11635 X-85.804 Y-26.596
N11640 X-86.1 Y-26.58
N11645 X-86.304 Y-26.585
N11650 X-86.453 Y-26.6
N11655 X-86.541 Y-26.619
N11660 X-86.628 Y-26.655
N11665 X-86.696 Y-26.721
N11670 X-86.734 Y-26.807
N11675 X-86.824 Y-27.196
N11680 G3 Y-27.235 I0.098 J-0.019 F1000
N11685 G1 X-86.816 Y-27.272 Z-0.992
N11690 X-86.81 Y-27.304 Z-0.971
N11695 X-86.805 Y-27.325 Z-0.938
N11700 X-86.804 Y-27.333 Z-0.9
N11705 G0 Z5
N11710 X-81.978 Y-28.539
N11715 Z-0.8
N11720 G1 Z-0.9 F1000
N11725 X-81.977 Y-28.547 Z-0.938
N11730 X-81.975 Y-28.568 Z-0.971
N11735 X-81.972 Y-28.601 Z-0.992
N11740 X-81.969 Y-28.639 Z-1
N11745 G3 X-81.929 Y-28.642 I0.02 J0.002
N11750 G1 X-81.836 Y-28.24 F480
N11755 X-81.81 Y-28.092
N11760 X-81.842 Y-27.945
N11765 X-81.902 Y-27.808
N11770 X-81.982 Y-27.681
N11775 X-82.076 Y-27.565
N11780 X-82.19 Y-27.447
N11785 X-82.325 Y-27.328
N11790 X-82.52 Y-27.183
N11795 X-82.739 Y-27.045
N11800 X-83.034 Y-26.891
N11805 X-83.36 Y-26.753
N11810 X-83.694 Y-26.635
N11815 X-84.033 Y-26.533
N11820 X-84.375 Y-26.444
N11825 X-84.721 Y-26.367
N11830 X-85.069 Y-26.3
N11835 X-85.418 Y-26.245
N11840 X-85.77 Y-26.205
N11845 X-86.057 Y-26.192
N11850 X-86.232 Y-26.199
N11855 X-86.381 Y-26.216
N11860 X-86.455 Y-26.232
N11865 X-86.541 Y-26.269
N11870 X-86.607 Y-26.335
N11875 X-86.645 Y-26.42
N11880 X-86.734 Y-26.807
N11885 G3 Y-26.846 I0.098 J-0.019 F1000
N11890 G1 X-86.726 Y-26.884 Z-0.992
N11895 X-86.72 Y-26.916 Z-0.971
N11900 X-86.716 Y-26.937 Z-0.938
N11905 X-86.714 Y-26.944 Z-0.9
N11910 G0 Z5
N11915 X-81.885 Y-28.137
N11920 Z-0.8
N11925 G1 Z-0.9 F1000
N11930 X-81.884 Y-28.144 Z-0.938
N11935 X-81.882 Y-28.166 Z-0.971
N11940 X-81.879 Y-28.198 Z-0.992
N11945 X-81.876 Y-28.236 Z-1
N11950 G3 X-81.836 Y-28.24 I0.02 J0.002
N11955 G1 X-81.754 Y-27.882 F480
N11960 X-81.727 Y-27.734
N11965 X-81.749 Y-27.586
N11970 X-81.805 Y-27.446
N11975 X-81.881 Y-27.317
N11980 X-81.974 Y-27.199
N11985 X-82.076 Y-27.089
N11990 X-82.215 Y-26.962
N11995 X-82.385 Y-26.831
N12000 X-82.6 Y-26.691
N12005 X-82.885 Y-26.536
N12010 X-83.209 Y-26.393
N12015 X-83.542 Y-26.271
N12020 X-83.88 Y-26.166
N12025 X-84.222 Y-26.074
N12030 X-84.567 Y-25.994
N12035 X-84.914 Y-25.925
N12040 X-85.263 Y-25.867
N12045 X-85.615 Y-25.823
N12050 X-85.91 Y-25.805
N12055 X-86.119 Y-25.809
N12060 X-86.268 Y-25.824
N12065 X-86.361 Y-25.843
N12070 X-86.449 Y-25.879
N12075 X-86.516 Y-25.945
N12080 X-86.555 Y-26.032
N12085 X-86.645 Y-26.42
N12090 G3 X-86.644 Y-26.459 I0.098 J-0.019 F1000
N12095 G1 X-86.637 Y-26.497 Z-0.992
N12100 X-86.63 Y-26.528 Z-0.971
N12105 X-86.626 Y-26.55 Z-0.938
N12110 X-86.625 Y-26.557 Z-0.9
N12115 G0 Z5
N12120 X-81.802 Y-27.779
N12125 Z-0.8
N12130 G1 Z-0.9 F1000
N12135 X-81.801 Y-27.786 Z-0.938
N12140 X-81.799 Y-27.808 Z-0.971
N12145 X-81.796 Y-27.84 Z-0.992
N12150 X-81.793 Y-27.878 Z-1
N12155 G3 X-81.754 Y-27.882 I0.02 J0.002
N12160 G1 X-81.666 Y-27.503 F480
N12165 X-81.64 Y-27.355
N12170 X-81.661 Y-27.207
N12175 X-81.715 Y-27.067
N12180 X-81.791 Y-26.938
N12185 X-81.883 Y-26.819
N12190 X-81.987 Y-26.707
N12195 X-82.118 Y-26.587
N12200 X-82.301 Y-26.444
N12205 X-82.501 Y-26.313
N12210 X-82.785 Y-26.158
N12215 X-83.108 Y-26.013
N12220 X-83.44 Y-25.891
N12225 X-83.778 Y-25.785
N12230 X-84.12 Y-25.692
N12235 X-84.465 Y-25.611
N12240 X-84.812 Y-25.541
N12245 X-85.161 Y-25.482
N12250 X-85.512 Y-25.437
N12255 X-85.821 Y-25.418
N12260 X-86.024 Y-25.421
N12265 X-86.173 Y-25.436
N12270 X-86.27 Y-25.455
N12275 X-86.358 Y-25.491
N12280 X-86.427 Y-25.557
N12285 X-86.465 Y-25.644
N12290 X-86.555 Y-26.032
N12295 G3 Y-26.071 I0.098 J-0.019 F1000
N12300 G1 X-86.547 Y-26.108 Z-0.992
N12305 X-86.541 Y-26.14 Z-0.971
N12310 X-86.536 Y-26.161 Z-0.938
N12315 X-86.535 Y-26.169 Z-0.9
N12320 G0 Z5
N12325 X-81.715 Y-27.4
N12330 Z-0.8
N12335 G1 Z-0.9 F1000
N12340 X-81.714 Y-27.407 Z-0.938
N12345 X-81.712 Y-27.429 Z-0.971
N12350 X-81.709 Y-27.461 Z-0.992
N12355 X-81.705 Y-27.499 Z-1
N12360 G3 X-81.666 Y-27.503 I0.02 J0.002
N12365 G1 X-81.576 Y-27.112 F480
N12370 X-81.549 Y-26.964
N12375 X-81.573 Y-26.816
N12380 X-81.629 Y-26.677
N12385 X-81.706 Y-26.548
N12390 X-81.798 Y-26.43
N12395 X-81.906 Y-26.315
N12400 X-82.035 Y-26.198
N12405 X-82.221 Y-26.054
N12410 X-82.426 Y-25.921
N12415 X-82.711 Y-25.766
N12420 X-83.034 Y-25.623
N12425 X-83.367 Y-25.501
N12430 X-83.705 Y-25.396
N12435 X-84.047 Y-25.303
N12440 X-84.391 Y-25.222
N12445 X-84.738 Y-25.152
N12450 X-85.088 Y-25.094
N12455 X-85.439 Y-25.049
N12460 X-85.744 Y-25.031
N12465 X-85.938 Y-25.034
N12470 X-86.087 Y-25.049
N12475 X-86.181 Y-25.068
N12480 X-86.269 Y-25.104
N12485 X-86.337 Y-25.17
N12490 X-86.376 Y-25.256
N12495 X-86.465 Y-25.644
N12500 G3 Y-25.683 I0.098 J-0.019 F1000
N12505 G1 X-86.457 Y-25.72 Z-0.992
N12510 X-86.451 Y-25.752 Z-0.971
N12515 X-86.447 Y-25.773 Z-0.938
N12520 X-86.445 Y-25.781 Z-0.9
N12525 G0 Z5
N12530 X-81.624 Y-27.009
N12535 Z-0.8
N12540 G1 Z-0.9 F1000
N12545 X-81.623 Y-27.017 Z-0.938
N12550 X-81.621 Y-27.038 Z-0.971
N12555 X-81.618 Y-27.07 Z-0.992
N12560 X-81.615 Y-27.109 Z-1
N12565 G3 X-81.576 Y-27.112 I0.02 J0.002
N12570 G1 X-81.547 Y-26.996 F480
N12575 X-81.524 Y-26.916
N12580 X-81.505 Y-26.874
N12585 X-81.484 Y-26.836
N12590 X-81.446 Y-26.77
N12595 X-81.423 Y-26.622
N12600 X-81.447 Y-26.474
N12605 X-81.502 Y-26.335
N12610 X-81.578 Y-26.205
N12615 X-81.668 Y-26.085
N12620 X-81.768 Y-25.974
N12625 X-81.903 Y-25.846
N12630 X-82.07 Y-25.713
N12635 X-82.276 Y-25.573
N12640 X-82.554 Y-25.416
N12645 X-82.875 Y-25.267
N12650 X-83.206 Y-25.141
N12655 X-83.543 Y-25.032
N12660 X-83.884 Y-24.937
N12665 X-84.228 Y-24.853
N12670 X-84.574 Y-24.78
N12675 X-84.923 Y-24.718
N12680 X-85.273 Y-24.669
N12685 X-85.582 Y-24.645
N12690 X-85.815
N12695 X-85.965 Y-24.657
N12700 X-86.112 Y-24.683
N12705 X-86.118 Y-24.685
N12710 X-86.194 Y-24.725
N12715 X-86.252 Y-24.788
N12720 X-86.286 Y-24.867
N12725 X-86.376 Y-25.256
N12730 G3 Y-25.296 I0.098 J-0.019 F1000
N12735 G1 X-86.368 Y-25.333 Z-0.992
N12740 X-86.361 Y-25.365 Z-0.971
N12745 X-86.357 Y-25.386 Z-0.938
N12750 X-86.356 Y-25.394 Z-0.9
N12755 G0 Z5
N12760 X-81.489 Y-26.722
N12765 Z-0.8
N12770 G1 Z-0.9 F1000
N12775 X-81.492 Y-26.729 Z-0.938
N12780 X-81.498 Y-26.75 Z-0.971
N12785 X-81.507 Y-26.781 Z-0.992
N12790 X-81.519 Y-26.818 Z-1
N12795 G3 X-81.484 Y-26.836 I0.019 J-0.006
N12800 G1 X-81.457 Y-26.797 F480
N12805 X-81.425 Y-26.759
N12810 X-81.344 Y-26.688
N12815 X-81.288 Y-26.639
N12820 X-81.231 Y-26.5
N12825 X-81.224 Y-26.35
N12830 X-81.253 Y-26.203
N12835 X-81.306 Y-26.063
N12840 X-81.378 Y-25.931
N12845 X-81.463 Y-25.807
N12850 X-81.565 Y-25.685
N12855 X-81.699 Y-25.549
N12860 X-81.848 Y-25.421
N12865 X-82.056 Y-25.269
N12870 X-82.32 Y-25.106
N12875 X-82.636 Y-24.945
N12880 X-82.963 Y-24.81
N12885 X-83.298 Y-24.694
N12890 X-83.637 Y-24.593
N12895 X-83.98 Y-24.504
N12900 X-84.325 Y-24.426
N12905 X-84.673 Y-24.358
N12910 X-85.022 Y-24.303
N12915 X-85.374 Y-24.264
N12920 X-85.63 Y-24.255
N12925 X-85.818 Y-24.264
N12930 X-85.966 Y-24.282
N12935 X-86.014 Y-24.294
N12940 X-86.096 Y-24.332
N12945 X-86.16 Y-24.397
N12950 X-86.196 Y-24.48
N12955 X-86.286 Y-24.867
N12960 G3 X-86.285 Y-24.906 I0.098 J-0.019 F1000
N12965 G1 X-86.278 Y-24.943 Z-0.992
N12970 X-86.271 Y-24.975 Z-0.971
N12975 X-86.267 Y-24.996 Z-0.938
N12980 X-86.265 Y-25.004 Z-0.9
N12985 G0 Z5
N12990 X-81.332 Y-26.57
N12995 Z-0.8
N13000 G1 Z-0.9 F1000
N13005 X-81.336 Y-26.577 Z-0.938
N13010 X-81.344 Y-26.597 Z-0.971
N13015 X-81.358 Y-26.627 Z-0.992
N13020 X-81.373 Y-26.662 Z-1
N13025 G3 X-81.344 Y-26.688 I0.019 J-0.008
N13030 G1 X-81.322 Y-26.675 F480
N13035 X-81.264 Y-26.644
N13040 X-81.22 Y-26.628
N13045 X-81.15 Y-26.599
N13050 X-81.041 Y-26.497
N13055 X-80.986 Y-26.357
N13060 X-80.972 Y-26.208
N13065 X-80.989 Y-26.059
N13070 X-81.03 Y-25.914
N13075 X-81.089 Y-25.777
N13080 X-81.163 Y-25.646
N13085 X-81.247 Y-25.522
N13090 X-81.354 Y-25.391
N13095 X-81.497 Y-25.242
N13100 X-81.659 Y-25.098
N13105 X-81.869 Y-24.939
N13110 X-82.138 Y-24.768
N13115 X-82.451 Y-24.602
N13120 X-82.776 Y-24.462
N13125 X-83.109 Y-24.341
N13130 X-83.447 Y-24.235
N13135 X-83.789 Y-24.142
N13140 X-84.133 Y-24.061
N13145 X-84.48 Y-23.99
N13150 X-84.829 Y-23.93
N13155 X-85.181 Y-23.885
N13160 X-85.47 Y-23.868
N13165 X-85.68 Y-23.872
N13170 X-85.829 Y-23.887
N13175 X-85.914 Y-23.905
N13180 X-86.001 Y-23.941
N13185 X-86.069 Y-24.007
N13190 X-86.107 Y-24.093
N13195 X-86.196 Y-24.48
N13200 G3 Y-24.519 I0.098 J-0.019 F1000
N13205 G1 X-86.188 Y-24.557 Z-0.992
N13210 X-86.182 Y-24.589 Z-0.971
N13215 X-86.178 Y-24.61 Z-0.938
N13220 X-86.176 Y-24.617 Z-0.9
N13225 G0 Z5
N13230 X-81.159 Y-26.532
N13235 Z-0.8
N13240 G1 Z-0.9 F1000
N13245 X-81.165 Y-26.537 Z-0.938
N13250 X-81.182 Y-26.55 Z-0.971
N13255 X-81.208 Y-26.57 Z-0.992
N13260 X-81.238 Y-26.593 Z-1
N13265 G3 X-81.22 Y-26.628 I0.012 J-0.016
N13270 G1 X-81.183 Y-26.615 F480
N13275 X-81.143 Y-26.607
N13280 X-81.103 Y-26.603
N13285 X-81.059 Y-26.602
N13290 X-80.984 Y-26.597
N13295 X-80.849 Y-26.531
N13300 X-80.758 Y-26.412
N13305 X-80.706 Y-26.272
N13310 X-80.686 Y-26.123
N13315 X-80.693 Y-25.973
N13320 X-80.721 Y-25.826
N13325 X-80.766 Y-25.683
N13330 X-80.826 Y-25.545
N13335 X-80.898 Y-25.413
N13340 X-80.993 Y-25.27
N13345 X-81.113 Y-25.117
N13350 X-81.256 Y-24.961
N13355 X-81.426 Y-24.804
N13360 X-81.65 Y-24.628
N13365 X-81.925 Y-24.445
N13370 X-82.234 Y-24.274
N13375 X-82.557 Y-24.127
N13380 X-82.887 Y-24
N13385 X-83.223 Y-23.889
N13390 X-83.564 Y-23.791
N13395 X-83.907 Y-23.705
N13400 X-84.253 Y-23.63
N13405 X-84.601 Y-23.565
N13410 X-84.952 Y-23.514
N13415 X-85.277 Y-23.484
N13420 X-85.519 Y-23.481
N13425 X-85.668 Y-23.491
N13430 X-85.816 Y-23.515
N13435 X-85.842 Y-23.522
N13440 X-85.921 Y-23.561
N13445 X-85.982 Y-23.625
N13450 X-86.017 Y-23.706
N13455 X-86.107 Y-24.093
N13460 G3 Y-24.132 I0.098 J-0.019 F1000
N13465 G1 X-86.099 Y-24.17 Z-0.992
N13470 X-86.093 Y-24.202 Z-0.971
N13475 X-86.088 Y-24.223 Z-0.938
N13480 X-86.087 Y-24.23 Z-0.9
N13485 G0 Z5
N13490 X-80.97 Y-26.53
N13495 Z-0.8
N13500 G1 Z-0.9 F1000
N13505 X-80.978 Y-26.533 Z-0.938
N13510 X-80.998 Y-26.54 Z-0.971
N13515 X-81.029 Y-26.551 Z-0.992
N13520 X-81.065 Y-26.563 Z-1
N13525 G3 X-81.059 Y-26.602 I0.007 J-0.019
N13530 G1 X-80.862 Y-26.599 F480
N13535 X-80.817
N13540 X-80.742 Y-26.595
N13545 X-80.605 Y-26.535
N13550 X-80.503 Y-26.425
N13555 X-80.434 Y-26.292
N13560 X-80.395 Y-26.147
N13565 X-80.38 Y-25.998
N13570 X-80.386 Y-25.848
N13575 X-80.41 Y-25.7
N13580 X-80.45 Y-25.555
N13585 X-80.465 Y-25.516
N13590 X-80.508 Y-25.444
N13595 X-80.572 Y-25.389
N13600 X-80.651 Y-25.36
N13605 X-80.66 Y-25.358
N13610 X-80.701 Y-25.347
N13615 X-80.781 Y-25.311
N13620 X-80.826 Y-25.285
N13625 X-80.862 Y-25.258
N13630 X-80.897 Y-25.226
N13635 X-80.942 Y-25.175
N13640 X-80.962 Y-25.146
N13645 X-81.005 Y-25.065
N13650 X-81.022 Y-25.017
N13655 X-81.032 Y-24.985
N13660 X-81.039 Y-24.945
N13665 X-81.064 Y-24.797
N13670 X-81.141 Y-24.668
N13675 X-81.232 Y-24.549
N13680 X-81.352 Y-24.425
N13685 X-81.485 Y-24.307
N13690 X-81.689 Y-24.155
N13695 X-81.929 Y-24.003
N13700 X-82.243 Y-23.839
N13705 X-82.569 Y-23.699
N13710 X-82.901 Y-23.578
N13715 X-83.239 Y-23.472
N13720 X-83.58 Y-23.378
N13725 X-83.925 Y-23.295
N13730 X-84.271 Y-23.223
N13735 X-84.62 Y-23.162
N13740 X-84.971 Y-23.116
N13745 X-85.271 Y-23.095
N13750 X-85.485 Y-23.097
N13755 X-85.634 Y-23.111
N13760 X-85.733 Y-23.13
N13765 X-85.821 Y-23.166
N13770 X-85.889 Y-23.232
N13775 X-85.928 Y-23.319
N13780 X-86.017 Y-23.706
N13785 G3 Y-23.745 I0.098 J-0.019 F1000
N13790 G1 X-86.01 Y-23.783 Z-0.992
N13795 X-86.003 Y-23.815 Z-0.971
N13800 X-85.999 Y-23.836 Z-0.938
N13805 X-85.997 Y-23.843 Z-0.9
N13810 G0 Z5
N13815 X-81.118 Y-24.863
N13820 Z-0.8
N13825 G1 Z-0.9 F1000
N13830 X-81.115 Y-24.87 Z-0.938
N13835 X-81.106 Y-24.89 Z-0.971
N13840 X-81.092 Y-24.919 Z-0.992
N13845 X-81.077 Y-24.954 Z-1
N13850 G3 X-81.039 Y-24.945 I0.018 J0.008
N13855 G1 X-81.043 Y-24.904 F480
N13860 X-81.044 Y-24.864
N13865 X-81.042 Y-24.824
N13870 X-81.028 Y-24.743
N13875 X-81.022 Y-24.72
N13880 X-80.996 Y-24.572
N13885 X-81.027 Y-24.425
N13890 X-81.091 Y-24.29
N13895 X-81.176 Y-24.166
N13900 X-81.275 Y-24.053
N13905 X-81.402 Y-23.933
N13910 X-81.552 Y-23.812
N13915 X-81.762 Y-23.669
N13920 X-82.035 Y-23.513
N13925 X-82.356 Y-23.363
N13930 X-82.686 Y-23.236
N13935 X-83.022 Y-23.124
N13940 X-83.362 Y-23.025
N13945 X-83.705 Y-22.938
N13950 X-84.051 Y-22.862
N13955 X-84.399 Y-22.796
N13960 X-84.749 Y-22.744
N13965 X-85.083 Y-22.711
N13970 X-85.326 Y-22.707
N13975 X-85.476 Y-22.716
N13980 X-85.624 Y-22.738
N13985 X-85.659 Y-22.748
N13990 X-85.741 Y-22.786
N13995 X-85.803 Y-22.851
N14000 X-85.839 Y-22.933
N14005 X-85.928 Y-23.319
N14010 G3 Y-23.358 I0.098 J-0.019 F1000
N14015 G1 X-85.92 Y-23.396 Z-0.992
N14020 X-85.914 Y-23.428 Z-0.971
N14025 X-85.909 Y-23.449 Z-0.938
N14030 X-85.908 Y-23.456 Z-0.9
N14035 G0 Z5
N14040 X-81.071 Y-24.617
N14045 Z-0.8
N14050 G1 Z-0.9 F1000
N14055 X-81.07 Y-24.624 Z-0.938
N14060 X-81.068 Y-24.646 Z-0.971
N14065 X-81.065 Y-24.678 Z-0.992
N14070 X-81.062 Y-24.716 Z-1
N14075 G3 X-81.022 Y-24.72 I0.02 J0.002
N14080 G1 X-80.942 Y-24.371 F480
N14085 X-80.916 Y-24.224
N14090 X-80.941 Y-24.076
N14095 X-80.999 Y-23.938
N14100 X-81.08 Y-23.811
N14105 X-81.175 Y-23.695
N14110 X-81.283 Y-23.587
N14115 X-81.433 Y-23.458
N14120 X-81.606 Y-23.332
N14125 X-81.854 Y-23.18
N14130 X-82.17 Y-23.02
N14135 X-82.498 Y-22.886
N14140 X-82.832 Y-22.77
N14145 X-83.171 Y-22.667
N14150 X-83.513 Y-22.577
N14155 X-83.858 Y-22.497
N14160 X-84.205 Y-22.427
N14165 X-84.555 Y-22.37
N14170 X-84.907 Y-22.329
N14175 X-85.173 Y-22.319
N14180 X-85.354 Y-22.326
N14185 X-85.503 Y-22.345
N14190 X-85.563 Y-22.359
N14195 X-85.647 Y-22.396
N14200 X-85.712 Y-22.461
N14205 X-85.749 Y-22.546
N14210 X-85.839 Y-22.933
N14215 G3 X-85.838 Y-22.972 I0.098 J-0.019 F1000
N14220 G1 X-85.831 Y-23.01 Z-0.992
N14225 X-85.824 Y-23.041 Z-0.971
N14230 X-85.82 Y-23.063 Z-0.938
N14235 X-85.819 Y-23.07 Z-0.9
N14240 G0 Z5
N14245 X-80.99 Y-24.269
N14250 Z-0.8
N14255 G1 Z-0.9 F1000
N14260 Y-24.276 Z-0.938
N14265 X-80.988 Y-24.298 Z-0.971
N14270 X-80.985 Y-24.33 Z-0.992
N14275 X-80.981 Y-24.368 Z-1
N14280 G3 X-80.942 Y-24.371 I0.02 J0.002
N14285 G1 X-80.85 Y-23.975 F480
N14290 X-80.824 Y-23.827
N14295 X-80.857 Y-23.681
N14300 X-80.92 Y-23.545
N14305 X-81.003 Y-23.419
N14310 X-81.099 Y-23.304
N14315 X-81.211 Y-23.193
N14320 X-81.359 Y-23.066
N14325 X-81.558 Y-22.923
N14330 X-81.787 Y-22.785
N14335 X-82.103 Y-22.626
N14340 X-82.431 Y-22.493
N14345 X-82.766 Y-22.377
N14350 X-83.105 Y-22.275
N14355 X-83.448 Y-22.185
N14360 X-83.793 Y-22.106
N14365 X-84.14 Y-22.037
N14370 X-84.49 Y-21.981
N14375 X-84.841 Y-21.941
N14380 X-85.112 Y-21.932
N14385 X-85.269 Y-21.939
N14390 X-85.418 Y-21.958
N14395 X-85.474 Y-21.972
N14400 X-85.558 Y-22.009
N14405 X-85.623 Y-22.075
N14410 X-85.66 Y-22.159
N14415 X-85.749 Y-22.546
N14420 G3 Y-22.585 I0.098 J-0.019 F1000
N14425 G1 X-85.741 Y-22.622 Z-0.992
N14430 X-85.735 Y-22.654 Z-0.971
N14435 X-85.731 Y-22.675 Z-0.938
N14440 X-85.729 Y-22.683 Z-0.9
N14445 G0 Z5
N14450 X-80.899 Y-23.872
N14455 Z-0.8
N14460 G1 Z-0.9 F1000
N14465 X-80.898 Y-23.88 Z-0.938
N14470 X-80.896 Y-23.901 Z-0.971
N14475 X-80.893 Y-23.934 Z-0.992
N14480 X-80.89 Y-23.972 Z-1
N14485 G3 X-80.85 Y-23.975 I0.02 J0.002
N14490 G1 X-80.768 Y-23.617 F480
N14495 X-80.741 Y-23.469
N14500 X-80.767 Y-23.322
N14505 X-80.825 Y-23.183
N14510 X-80.905 Y-23.056
N14515 X-80.999 Y-22.939
N14520 X-81.103 Y-22.831
N14525 X-81.249 Y-22.703
N14530 X-81.418 Y-22.575
N14535 X-81.649 Y-22.43
N14540 X-81.95 Y-22.272
N14545 X-82.275 Y-22.133
N14550 X-82.609 Y-22.014
N14555 X-82.947 Y-21.909
N14560 X-83.289 Y-21.817
N14565 X-83.633 Y-21.735
N14570 X-83.98 Y-21.664
N14575 X-84.329 Y-21.604
N14580 X-84.68 Y-21.559
N14585 X-84.96 Y-21.545
N14590 X-85.153 Y-21.55
N14595 X-85.302 Y-21.567
N14600 X-85.38 Y-21.583
N14605 X-85.466 Y-21.62
N14610 X-85.532 Y-21.686
N14615 X-85.57 Y-21.771
N14620 X-85.66 Y-22.159
N14625 G3 Y-22.198 I0.098 J-0.019 F1000
N14630 G1 X-85.652 Y-22.235 Z-0.992
N14635 X-85.645 Y-22.267 Z-0.971
N14640 X-85.641 Y-22.288 Z-0.938
N14645 X-85.64 Y-22.296 Z-0.9
N14650 G0 Z5
N14655 X-80.816 Y-23.514
N14660 Z-0.8
N14665 G1 Z-0.9 F1000
N14670 X-80.815 Y-23.522 Z-0.938
N14675 X-80.813 Y-23.543 Z-0.971
N14680 X-80.81 Y-23.575 Z-0.992
N14685 X-80.807 Y-23.614 Z-1
N14690 G3 X-80.768 Y-23.617 I0.02 J0.002
N14695 G1 X-80.683 Y-23.251 F480
N14700 X-80.657 Y-23.103
N14705 X-80.678 Y-22.955
N14710 X-80.733 Y-22.815
N14715 X-80.811 Y-22.687
N14720 X-80.903 Y-22.568
N14725 X-81.006 Y-22.459
N14730 X-81.143 Y-22.335
N14735 X-81.321 Y-22.199
N14740 X-81.535 Y-22.061
N14745 X-81.828 Y-21.904
N14750 X-82.153 Y-21.762
N14755 X-82.485 Y-21.641
N14760 X-82.823 Y-21.534
N14765 X-83.164 Y-21.44
N14770 X-83.508 Y-21.357
N14775 X-83.855 Y-21.284
N14780 X-84.204 Y-21.223
N14785 X-84.555 Y-21.176
N14790 X-84.851 Y-21.158
N14795 X-85.048 Y-21.162
N14800 X-85.198 Y-21.177
N14805 X-85.287 Y-21.195
N14810 X-85.374 Y-21.231
N14815 X-85.442 Y-21.298
N14820 X-85.481 Y-21.384
N14825 X-85.57 Y-21.771
N14830 G3 Y-21.81 I0.098 J-0.019 F1000
N14835 G1 X-85.562 Y-21.848 Z-0.992
N14840 X-85.556 Y-21.88 Z-0.971
N14845 X-85.552 Y-21.901 Z-0.938
N14850 X-85.55 Y-21.908 Z-0.9
N14855 G0 Z5
N14860 X-80.731 Y-23.148
N14865 Z-0.8
N14870 G1 Z-0.9 F1000
N14875 Y-23.155 Z-0.938
N14880 X-80.729 Y-23.177 Z-0.971
N14885 X-80.726 Y-23.209 Z-0.992
N14890 X-80.722 Y-23.247 Z-1
N14895 G3 X-80.683 Y-23.251 I0.02 J0.002
N14900 G1 X-80.59 Y-22.848 F480
N14905 X-80.564 Y-22.701
N14910 X-80.593 Y-22.554
N14915 X-80.653 Y-22.416
N14920 X-80.732 Y-22.289
N14925 X-80.826 Y-22.172
N14930 X-80.939 Y-22.055
N14935 X-81.074 Y-21.936
N14940 X-81.269 Y-21.79
N14945 X-81.486 Y-21.654
N14950 X-81.788 Y-21.496
N14955 X-82.114 Y-21.357
N14960 X-82.448 Y-21.238
N14965 X-82.786 Y-21.134
N14970 X-83.128 Y-21.041
N14975 X-83.472 Y-20.959
N14980 X-83.819 Y-20.888
N14985 X-84.168 Y-20.829
N14990 X-84.52 Y-20.786
N14995 X-84.8 Y-20.771
N15000 X-84.975 Y-20.777
N15005 X-85.124 Y-20.793
N15010 X-85.2 Y-20.81
N15015 X-85.287 Y-20.846
N15020 X-85.353 Y-20.912
N15025 X-85.391 Y-20.998
N15030 X-85.481 Y-21.384
N15035 G3 X-85.48 Y-21.423 I0.098 J-0.019 F1000
N15040 G1 X-85.473 Y-21.461 Z-0.992
N15045 X-85.466 Y-21.492 Z-0.971
N15050 X-85.462 Y-21.514 Z-0.938
N15055 X-85.461 Y-21.521 Z-0.9
N15060 G0 Z5
N15065 X-80.638 Y-22.746
N15070 Z-0.8
N15075 G1 Z-0.9 F1000
N15080 Y-22.753 Z-0.938
N15085 X-80.636 Y-22.775 Z-0.971
N15090 X-80.633 Y-22.807 Z-0.992
N15095 X-80.629 Y-22.845 Z-1
N15100 G3 X-80.59 Y-22.848 I0.02 J0.002
N15105 G1 X-80.507 Y-22.49 F480
N15110 X-80.481 Y-22.343
N15115 X-80.502 Y-22.194
N15120 X-80.556 Y-22.054
N15125 X-80.632 Y-21.925
N15130 X-80.724 Y-21.807
N15135 X-80.826 Y-21.697
N15140 X-80.965 Y-21.571
N15145 X-81.134 Y-21.439
N15150 X-81.35 Y-21.298
N15155 X-81.639 Y-21.141
N15160 X-81.963 Y-20.997
N15165 X-82.295 Y-20.875
N15170 X-82.632 Y-20.767
N15175 X-82.973 Y-20.672
N15180 X-83.317 Y-20.588
N15185 X-83.663 Y-20.515
N15190 X-84.012 Y-20.452
N15195 X-84.363 Y-20.404
N15200 X-84.655 Y-20.385
N15205 X-84.862 Y-20.388
N15210 X-85.011 Y-20.403
N15215 X-85.107 Y-20.421
N15220 X-85.195 Y-20.457
N15225 X-85.263 Y-20.524
N15230 X-85.302 Y-20.61
N15235 X-85.391 Y-20.998
N15240 G3 Y-21.037 I0.098 J-0.019 F1000
N15245 G1 X-85.384 Y-21.074 Z-0.992
N15250 X-85.377 Y-21.106 Z-0.971
N15255 X-85.373 Y-21.127 Z-0.938
N15260 X-85.371 Y-21.135 Z-0.9
N15265 G0 Z5
N15270 X-80.556 Y-22.387
N15275 Z-0.8
N15280 G1 Z-0.9 F1000
N15285 X-80.555 Y-22.395 Z-0.938
N15290 X-80.553 Y-22.417 Z-0.971
N15295 X-80.55 Y-22.449 Z-0.992
N15300 X-80.546 Y-22.487 Z-1
N15305 G3 X-80.507 Y-22.49 I0.02 J0.002
N15310 G1 X-80.414 Y-22.088 F480
N15315 X-80.388 Y-21.94
N15320 X-80.416 Y-21.793
N15325 X-80.475 Y-21.655
N15330 X-80.553 Y-21.527
N15335 X-80.647 Y-21.41
N15340 X-80.76 Y-21.292
N15345 X-80.893 Y-21.173
N15350 X-81.086 Y-21.027
N15355 X-81.304 Y-20.889
N15360 X-81.601 Y-20.731
N15365 X-81.926 Y-20.592
N15370 X-82.26 Y-20.471
N15375 X-82.597 Y-20.366
N15380 X-82.939 Y-20.272
N15385 X-83.283 Y-20.19
N15390 X-83.63 Y-20.118
N15395 X-83.979 Y-20.058
N15400 X-84.33 Y-20.014
N15405 X-84.613 Y-19.998
N15410 X-84.792 Y-20.003
N15415 X-84.941 Y-20.019
N15420 X-85.02 Y-20.036
N15425 X-85.107 Y-20.072
N15430 X-85.174 Y-20.138
N15435 X-85.213 Y-20.224
N15440 X-85.302 Y-20.61
N15445 G3 Y-20.649 I0.098 J-0.019 F1000
N15450 G1 X-85.294 Y-20.687 Z-0.992
N15455 X-85.288 Y-20.719 Z-0.971
N15460 X-85.283 Y-20.74 Z-0.938
N15465 X-85.282 Y-20.747 Z-0.9
N15470 G0 Z5
N15475 X-80.463 Y-21.985
N15480 Z-0.8
N15485 G1 Z-0.9 F1000
N15490 X-80.462 Y-21.993 Z-0.938
N15495 X-80.46 Y-22.014 Z-0.971
N15500 X-80.457 Y-22.047 Z-0.992
N15505 X-80.453 Y-22.085 Z-1
N15510 G3 X-80.414 Y-22.088 I0.02 J0.002
N15515 G1 X-80.33 Y-21.722 F480
N15520 X-80.303 Y-21.574
N15525 X-80.325 Y-21.426
N15530 X-80.38 Y-21.286
N15535 X-80.456 Y-21.157
N15540 X-80.548 Y-21.039
N15545 X-80.65 Y-20.929
N15550 X-80.788 Y-20.803
N15555 X-80.962 Y-20.668
N15560 X-81.176 Y-20.528
N15565 X-81.465 Y-20.37
N15570 X-81.789 Y-20.226
N15575 X-82.121 Y-20.103
N15580 X-82.458 Y-19.995
N15585 X-82.799 Y-19.9
N15590 X-83.143 Y-19.815
N15595 X-83.489 Y-19.742
N15600 X-83.838 Y-19.679
N15605 X-84.188 Y-19.631
N15610 X-84.482 Y-19.612
N15615 X-84.684 Y-19.615
N15620 X-84.834 Y-19.63
N15625 X-84.928 Y-19.648
N15630 X-85.016 Y-19.684
N15635 X-85.084 Y-19.75
N15640 X-85.123 Y-19.837
N15645 X-85.213 Y-20.224
N15650 G3 X-85.212 Y-20.263 I0.098 J-0.019 F1000
N15655 G1 X-85.205 Y-20.301 Z-0.992
N15660 X-85.198 Y-20.333 Z-0.971
N15665 X-85.194 Y-20.354 Z-0.938
N15670 X-85.192 Y-20.361 Z-0.9
N15675 G0 Z5
N15680 X-80.378 Y-21.619
N15685 Z-0.8
N15690 G1 Z-0.9 F1000
N15695 X-80.377 Y-21.627 Z-0.938
N15700 X-80.375 Y-21.648 Z-0.971
N15705 X-80.372 Y-21.68 Z-0.992
N15710 X-80.369 Y-21.719 Z-1
N15715 G3 X-80.33 Y-21.722 I0.02 J0.002
N15720 G1 X-80.237 Y-21.32 F480
N15725 X-80.21 Y-21.172
N15730 X-80.239 Y-21.025
N15735 X-80.298 Y-20.887
N15740 X-80.377 Y-20.759
N15745 X-80.47 Y-20.642
N15750 X-80.583 Y-20.523
N15755 X-80.717 Y-20.404
N15760 X-80.91 Y-20.258
N15765 X-81.128 Y-20.119
N15770 X-81.426 Y-19.961
N15775 X-81.751 Y-19.821
N15780 X-82.084 Y-19.7
N15785 X-82.422 Y-19.594
N15790 X-82.764 Y-19.5
N15795 X-83.108 Y-19.418
N15800 X-83.455 Y-19.345
N15805 X-83.803 Y-19.285
N15810 X-84.155 Y-19.241
N15815 X-84.436 Y-19.226
N15820 X-84.614 Y-19.23
N15825 X-84.763 Y-19.246
N15830 X-84.842 Y-19.263
N15835 X-84.929 Y-19.299
N15840 X-84.996 Y-19.365
N15845 X-85.034 Y-19.451
N15850 X-85.123 Y-19.837
N15855 G3 Y-19.876 I0.098 J-0.019 F1000
N15860 G1 X-85.115 Y-19.914 Z-0.992
N15865 X-85.109 Y-19.946 Z-0.971
N15870 X-85.105 Y-19.967 Z-0.938
N15875 X-85.103 Y-19.974 Z-0.9
N15880 G0 Z5
N15885 X-80.285 Y-21.217
N15890 Z-0.8
N15895 G1 Z-0.9 F1000
N15900 X-80.284 Y-21.224 Z-0.938
N15905 X-80.282 Y-21.246 Z-0.971
N15910 X-80.279 Y-21.278 Z-0.992
N15915 X-80.276 Y-21.316 Z-1
N15920 G3 X-80.237 Y-21.32 I0.02 J0.002
N15925 G1 X-80.145 Y-20.922 F480
N15930 X-80.118 Y-20.775
N15935 X-80.152 Y-20.629
N15940 X-80.213 Y-20.492
N15945 X-80.293 Y-20.365
N15950 X-80.388 Y-20.249
N15955 X-80.498 Y-20.135
N15960 X-80.64 Y-20.009
N15965 X-80.837 Y-19.862
N15970 X-81.052 Y-19.727
N15975 X-81.36 Y-19.565
N15980 X-81.686 Y-19.427
N15985 X-82.019 Y-19.307
N15990 X-82.357 Y-19.202
N15995 X-82.699 Y-19.109
N16000 X-83.043 Y-19.026
N16005 X-83.39 Y-18.955
N16010 X-83.739 Y-18.896
N16015 X-84.091 Y-18.853
N16020 X-84.364 Y-18.84
N16025 X-84.534 Y-18.845
N16030 X-84.683 Y-18.862
N16035 X-84.755 Y-18.878
N16040 X-84.84 Y-18.914
N16045 X-84.907 Y-18.98
N16050 X-84.945 Y-19.065
N16055 X-85.034 Y-19.451
N16060 G3 Y-19.49 I0.098 J-0.019 F1000
N16065 G1 X-85.026 Y-19.528 Z-0.992
N16070 X-85.02 Y-19.56 Z-0.971
N16075 X-85.015 Y-19.581 Z-0.938
N16080 X-85.014 Y-19.588 Z-0.9
N16085 G0 Z5
N16090 X-80.193 Y-20.82
N16095 Z-0.8
N16100 G1 Z-0.9 F1000
N16105 X-80.192 Y-20.827 Z-0.938
N16110 X-80.19 Y-20.849 Z-0.971
N16115 X-80.187 Y-20.881 Z-0.992
N16120 X-80.184 Y-20.919 Z-1
N16125 G3 X-80.145 Y-20.922 I0.02 J0.002
N16130 G1 X-80.061 Y-20.559 F480
N16135 X-80.034 Y-20.412
N16140 X-80.06 Y-20.264
N16145 X-80.117 Y-20.125
N16150 X-80.195 Y-19.997
N16155 X-80.288 Y-19.879
N16160 X-80.39 Y-19.769
N16165 X-80.53 Y-19.642
N16170 X-80.704 Y-19.509
N16175 X-80.924 Y-19.365
N16180 X-81.218 Y-19.206
N16185 X-81.542 Y-19.063
N16190 X-81.874 Y-18.94
N16195 X-82.212 Y-18.833
N16200 X-82.553 Y-18.738
N16205 X-82.897 Y-18.653
N16210 X-83.243 Y-18.58
N16215 X-83.592 Y-18.518
N16220 X-83.943 Y-18.471
N16225 X-84.23 Y-18.453
N16230 X-84.425 Y-18.457
N16235 X-84.575 Y-18.472
N16240 X-84.662 Y-18.49
N16245 X-84.749 Y-18.526
N16250 X-84.817 Y-18.592
N16255 X-84.855 Y-18.679
N16260 X-84.945 Y-19.065
N16265 G3 Y-19.104 I0.098 J-0.019 F1000
N16270 G1 X-84.937 Y-19.142 Z-0.992
N16275 X-84.93 Y-19.174 Z-0.971
N16280 X-84.926 Y-19.195 Z-0.938
N16285 X-84.925 Y-19.202 Z-0.9
N16290 G0 Z5
N16295 X-80.109 Y-20.456
N16300 Z-0.8
N16305 G1 Z-0.9 F1000
N16310 Y-20.464 Z-0.938
N16315 X-80.107 Y-20.485 Z-0.971
N16320 X-80.104 Y-20.518 Z-0.992
N16325 X-80.1 Y-20.556 Z-1
N16330 G3 X-80.061 Y-20.559 I0.02 J0.002
N16335 G1 X-79.968 Y-20.157 F480
N16340 X-79.941 Y-20.009
N16345 X-79.974 Y-19.863
N16350 X-80.035 Y-19.726
N16355 X-80.114 Y-19.599
N16360 X-80.209 Y-19.482
N16365 X-80.323 Y-19.363
N16370 X-80.461 Y-19.241
N16375 X-80.66 Y-19.093
N16380 X-80.881 Y-18.953
N16385 X-81.188 Y-18.793
N16390 X-81.514 Y-18.654
N16395 X-81.847 Y-18.534
N16400 X-82.185 Y-18.429
N16405 X-82.527 Y-18.336
N16410 X-82.871 Y-18.253
N16415 X-83.218 Y-18.182
N16420 X-83.567 Y-18.122
N16425 X-83.918 Y-18.08
N16430 X-84.187 Y-18.067
N16435 X-84.357 Y-18.073
N16440 X-84.506 Y-18.09
N16445 X-84.576 Y-18.105
N16450 X-84.662 Y-18.142
N16455 X-84.728 Y-18.207
N16460 X-84.766 Y-18.293
N16465 X-84.855 Y-18.679
N16470 G3 Y-18.718 I0.098 J-0.019 F1000
N16475 G1 X-84.847 Y-18.755 Z-0.992
N16480 X-84.841 Y-18.787 Z-0.971
N16485 X-84.837 Y-18.808 Z-0.938
N16490 X-84.835 Y-18.816 Z-0.9
N16495 G0 Z5
N16500 X-80.016 Y-20.054
N16505 Z-0.8
N16510 G1 Z-0.9 F1000
N16515 Y-20.062 Z-0.938
N16520 X-80.014 Y-20.083 Z-0.971
N16525 X-80.011 Y-20.115 Z-0.992
N16530 X-80.007 Y-20.154 Z-1
N16535 G3 X-79.968 Y-20.157 I0.02 J0.002
N16540 G1 X-79.883 Y-19.791 F480
N16545 X-79.857 Y-19.643
N16550 X-79.882 Y-19.495
N16555 X-79.939 Y-19.356
N16560 X-80.017 Y-19.228
N16565 X-80.11 Y-19.11
N16570 X-80.212 Y-19.001
N16575 X-80.354 Y-18.872
N16580 X-80.527 Y-18.739
N16585 X-80.75 Y-18.594
N16590 X-81.044 Y-18.434
N16595 X-81.368 Y-18.291
N16600 X-81.7 Y-18.169
N16605 X-82.037 Y-18.061
N16610 X-82.378 Y-17.965
N16615 X-82.722 Y-17.881
N16620 X-83.069 Y-17.807
N16625 X-83.417 Y-17.745
N16630 X-83.768 Y-17.698
N16635 X-84.054 Y-17.681
N16640 X-84.249 Y-17.685
N16645 X-84.398 Y-17.7
N16650 X-84.484 Y-17.718
N16655 X-84.571 Y-17.754
N16660 X-84.638 Y-17.82
N16665 X-84.677 Y-17.906
N16670 X-84.766 Y-18.293
N16675 G3 Y-18.332 I0.098 J-0.019 F1000
N16680 G1 X-84.758 Y-18.369 Z-0.992
N16685 X-84.752 Y-18.401 Z-0.971
N16690 X-84.748 Y-18.423 Z-0.938
N16695 X-84.746 Y-18.43 Z-0.9
N16700 G0 Z5
N16705 X-79.932 Y-19.688
N16710 Z-0.8
N16715 G1 Z-0.9 F1000
N16720 X-79.931 Y-19.695 Z-0.938
N16725 X-79.929 Y-19.717 Z-0.971
N16730 X-79.926 Y-19.749 Z-0.992
N16735 X-79.922 Y-19.787 Z-1
N16740 G3 X-79.883 Y-19.791 I0.02 J0.002
N16745 G1 X-79.79 Y-19.388 F480
N16750 X-79.764 Y-19.241
N16755 X-79.796 Y-19.094
N16760 X-79.857 Y-18.957
N16765 X-79.936 Y-18.83
N16770 X-80.031 Y-18.713
N16775 X-80.145 Y-18.595
N16780 X-80.283 Y-18.472
N16785 X-80.482 Y-18.323
N16790 X-80.702 Y-18.184
N16795 X-81.009 Y-18.023
N16800 X-81.335 Y-17.884
N16805 X-81.668 Y-17.764
N16810 X-82.006 Y-17.658
N16815 X-82.348 Y-17.565
N16820 X-82.692 Y-17.482
N16825 X-83.039 Y-17.41
N16830 X-83.388 Y-17.35
N16835 X-83.739 Y-17.307
N16840 X-84.008 Y-17.294
N16845 X-84.178 Y-17.3
N16850 X-84.327 Y-17.317
N16855 X-84.398 Y-17.333
N16860 X-84.483 Y-17.369
N16865 X-84.55 Y-17.435
N16870 X-84.588 Y-17.52
N16875 X-84.677 Y-17.906
N16880 G3 Y-17.945 I0.098 J-0.019 F1000
N16885 G1 X-84.669 Y-17.983 Z-0.992
N16890 X-84.662 Y-18.014 Z-0.971
N16895 X-84.658 Y-18.036 Z-0.938
N16900 X-84.657 Y-18.043 Z-0.9
N16905 G0 Z5
N16910 X-79.839 Y-19.286
N16915 Z-0.8
N16920 G1 Z-0.9 F1000
N16925 X-79.838 Y-19.293 Z-0.938
N16930 X-79.836 Y-19.315 Z-0.971
N16935 X-79.833 Y-19.347 Z-0.992
N16940 X-79.829 Y-19.385 Z-1
N16945 G3 X-79.79 Y-19.388 I0.02 J0.002
N16950 G1 X-79.707 Y-19.03 F480
N16955 X-79.681 Y-18.883
N16960 X-79.703 Y-18.734
N16965 X-79.758 Y-18.595
N16970 X-79.835 Y-18.466
N16975 X-79.927 Y-18.347
N16980 X-80.029 Y-18.237
N16985 X-80.17 Y-18.108
N16990 X-80.338 Y-17.977
N16995 X-80.559 Y-17.832
N17000 X-80.85 Y-17.672
N17005 X-81.173 Y-17.528
N17010 X-81.504 Y-17.404
N17015 X-81.841 Y-17.295
N17020 X-82.182 Y-17.199
N17025 X-82.526 Y-17.113
N17030 X-82.872 Y-17.039
N17035 X-83.22 Y-16.975
N17040 X-83.571 Y-16.927
N17045 X-83.857 Y-16.908
N17050 X-84.062 Y-16.912
N17055 X-84.211 Y-16.926
N17060 X-84.303 Y-16.945
N17065 X-84.391 Y-16.981
N17070 X-84.46 Y-17.047
N17075 X-84.498 Y-17.133
N17080 X-84.588 Y-17.52
N17085 G3 X-84.587 Y-17.559 I0.098 J-0.019 F1000
N17090 G1 X-84.58 Y-17.597 Z-0.992
N17095 X-84.573 Y-17.629 Z-0.971
N17100 X-84.569 Y-17.65 Z-0.938
N17105 X-84.567 Y-17.657 Z-0.9
N17110 G0 Z5
N17115 X-79.756 Y-18.927
N17120 Z-0.8
N17125 G1 Z-0.9 F1000
N17130 X-79.755 Y-18.935 Z-0.938
N17135 X-79.753 Y-18.957 Z-0.971
N17140 X-79.75 Y-18.989 Z-0.992
N17145 X-79.747 Y-19.027 Z-1
N17150 G3 X-79.707 Y-19.03 I0.02 J0.002
N17155 G1 X-79.614 Y-18.628 F480
N17160 X-79.588 Y-18.48
N17165 X-79.617 Y-18.333
N17170 X-79.676 Y-18.195
N17175 X-79.755 Y-18.068
N17180 X-79.848 Y-17.95
N17185 X-79.961 Y-17.831
N17190 X-80.097 Y-17.71
N17195 X-80.292 Y-17.562
N17200 X-80.511 Y-17.422
N17205 X-80.812 Y-17.262
N17210 X-81.137 Y-17.121
N17215 X-81.47 Y-17
N17220 X-81.808 Y-16.893
N17225 X-82.149 Y-16.798
N17230 X-82.493 Y-16.715
N17235 X-82.839 Y-16.642
N17240 X-83.188 Y-16.581
N17245 X-83.539 Y-16.536
N17250 X-83.817 Y-16.522
N17255 X-83.992 Y-16.527
N17260 X-84.141 Y-16.543
N17265 X-84.217 Y-16.559
N17270 X-84.304 Y-16.596
N17275 X-84.371 Y-16.662
N17280 X-84.409 Y-16.748
N17285 X-84.498 Y-17.133
N17290 G3 Y-17.172 I0.098 J-0.019 F1000
N17295 G1 X-84.49 Y-17.21 Z-0.992
N17300 X-84.484 Y-17.242 Z-0.971
N17305 X-84.48 Y-17.263 Z-0.938
N17310 X-84.478 Y-17.27 Z-0.9
N17315 G0 Z5
N17320 X-79.663 Y-18.525
N17325 Z-0.8
N17330 G1 Z-0.9 F1000
N17335 X-79.662 Y-18.533 Z-0.938
N17340 X-79.66 Y-18.554 Z-0.971
N17345 X-79.657 Y-18.587 Z-0.992
N17350 X-79.654 Y-18.625 Z-1
N17355 G3 X-79.614 Y-18.628 I0.02 J0.002
N17360 G1 X-79.53 Y-18.262 F480
N17365 X-79.503 Y-18.114
N17370 X-79.526 Y-17.966
N17375 X-79.581 Y-17.826
N17380 X-79.657 Y-17.697
N17385 X-79.749 Y-17.579
N17390 X-79.851 Y-17.468
N17395 X-79.99 Y-17.34
N17400 X-80.162 Y-17.206
N17405 X-80.379 Y-17.063
N17410 X-80.67 Y-16.903
N17415 X-80.993 Y-16.758
N17420 X-81.325 Y-16.634
N17425 X-81.661 Y-16.524
N17430 X-82.002 Y-16.428
N17435 X-82.346 Y-16.342
N17440 X-82.692 Y-16.267
N17445 X-83.04 Y-16.204
N17450 X-83.391 Y-16.155
N17455 X-83.681 Y-16.136
N17460 X-83.882 Y-16.139
N17465 X-84.032 Y-16.153
N17470 X-84.125 Y-16.172
N17475 X-84.213 Y-16.208
N17480 X-84.281 Y-16.274
N17485 X-84.32 Y-16.361
N17490 X-84.409 Y-16.748
N17495 G3 Y-16.787 I0.098 J-0.019 F1000
N17500 G1 X-84.401 Y-16.824 Z-0.992
N17505 X-84.395 Y-16.856 Z-0.971
N17510 X-84.39 Y-16.877 Z-0.938
N17515 X-84.389 Y-16.885 Z-0.9
N17520 G0 Z5
N17525 X-79.578 Y-18.159
N17530 Z-0.8
N17535 G1 Z-0.9 F1000
N17540 Y-18.167 Z-0.938
N17545 X-79.575 Y-18.188 Z-0.971
N17550 X-79.572 Y-18.22 Z-0.992
N17555 X-79.569 Y-18.259 Z-1
N17560 G3 X-79.53 Y-18.262 I0.02 J0.002
N17565 G1 X-79.437 Y-17.86 F480
N17570 X-79.41 Y-17.712
N17575 X-79.439 Y-17.565
N17580 X-79.498 Y-17.427
N17585 X-79.577 Y-17.299
N17590 X-79.67 Y-17.181
N17595 X-79.782 Y-17.062
N17600 X-79.917 Y-16.942
N17605 X-80.112 Y-16.793
N17610 X-80.329 Y-16.654
N17615 X-80.63 Y-16.493
N17620 X-80.955 Y-16.352
N17625 X-81.288 Y-16.23
N17630 X-81.625 Y-16.123
N17635 X-81.966 Y-16.028
N17640 X-82.31 Y-15.944
N17645 X-82.657 Y-15.871
N17650 X-83.005 Y-15.809
N17655 X-83.356 Y-15.765
N17660 X-83.635 Y-15.75
N17665 X-83.811 Y-15.754
N17670 X-83.961 Y-15.77
N17675 X-84.038 Y-15.787
N17680 X-84.125 Y-15.823
N17685 X-84.192 Y-15.889
N17690 X-84.23 Y-15.975
N17695 X-84.32 Y-16.361
N17700 G3 X-84.319 Y-16.4 I0.098 J-0.019 F1000
N17705 G1 X-84.312 Y-16.437 Z-0.992
N17710 X-84.305 Y-16.469 Z-0.971
N17715 X-84.301 Y-16.49 Z-0.938
N17720 X-84.299 Y-16.498 Z-0.9
N17725 G0 Z5
N17730 X-79.485 Y-17.757
N17735 Z-0.8
N17740 G1 Z-0.9 F1000
N17745 Y-17.764 Z-0.938
N17750 X-79.482 Y-17.786 Z-0.971
N17755 X-79.479 Y-17.818 Z-0.992
N17760 X-79.476 Y-17.856 Z-1
N17765 G3 X-79.437 Y-17.86 I0.02 J0.002
N17770 G1 X-79.344 Y-17.457 F480
N17775 X-79.317 Y-17.31
N17780 X-79.352 Y-17.164
N17785 X-79.414 Y-17.027
N17790 X-79.495 Y-16.901
N17795 X-79.59 Y-16.784
N17800 X-79.701 Y-16.669
N17805 X-79.844 Y-16.543
N17810 X-80.044 Y-16.393
N17815 X-80.261 Y-16.256
N17820 X-80.574 Y-16.092
N17825 X-80.9 Y-15.954
N17830 X-81.233 Y-15.834
N17835 X-81.571 Y-15.728
N17840 X-81.912 Y-15.634
N17845 X-82.256 Y-15.551
N17850 X-82.603 Y-15.478
N17855 X-82.952 Y-15.419
N17860 X-83.303 Y-15.376
N17865 X-83.569 Y-15.364
N17870 X-83.735 Y-15.369
N17875 X-83.884 Y-15.387
N17880 X-83.952 Y-15.402
N17885 X-84.038 Y-15.439
N17890 X-84.104 Y-15.504
N17895 X-84.141 Y-15.589
N17900 X-84.23 Y-15.975
N17905 G3 Y-16.014 I0.098 J-0.019 F1000
N17910 G1 X-84.223 Y-16.052 Z-0.992
N17915 X-84.216 Y-16.083 Z-0.971
N17920 X-84.212 Y-16.105 Z-0.938
N17925 X-84.21 Y-16.112 Z-0.9
N17930 G0 Z5
N17935 X-79.392 Y-17.354
N17940 Z-0.8
N17945 G1 Z-0.9 F1000
N17950 Y-17.362 Z-0.938
N17955 X-79.39 Y-17.383 Z-0.971
N17960 X-79.386 Y-17.416 Z-0.992
N17965 X-79.383 Y-17.454 Z-1
N17970 G3 X-79.344 Y-17.457 I0.02 J0.002
N17975 G1 X-79.261 Y-17.099 F480
N17980 X-79.235 Y-16.951
N17985 X-79.259 Y-16.804
N17990 X-79.316 Y-16.665
N17995 X-79.393 Y-16.536
N18000 X-79.486 Y-16.418
N18005 X-79.588 Y-16.308
N18010 X-79.729 Y-16.179
N18015 X-79.898 Y-16.048
N18020 X-80.123 Y-15.901
N18025 X-80.416 Y-15.741
N18030 X-80.74 Y-15.596
N18035 X-81.071 Y-15.472
N18040 X-81.408 Y-15.364
N18045 X-81.749 Y-15.267
N18050 X-82.093 Y-15.181
N18055 X-82.439 Y-15.107
N18060 X-82.787 Y-15.044
N18065 X-83.138 Y-14.995
N18070 X-83.422 Y-14.978
N18075 X-83.621 Y-14.981
N18080 X-83.77 Y-14.996
N18085 X-83.858 Y-15.014
N18090 X-83.946 Y-15.05
N18095 X-84.013 Y-15.116
N18100 X-84.052 Y-15.203
N18105 X-84.141 Y-15.589
N18110 G3 Y-15.628 I0.098 J-0.019 F1000
N18115 G1 X-84.133 Y-15.666 Z-0.992
N18120 X-84.127 Y-15.698 Z-0.971
N18125 X-84.123 Y-15.719 Z-0.938
N18130 X-84.121 Y-15.726 Z-0.9
N18135 G0 Z5
N18140 X-79.309 Y-16.996
N18145 Z-0.8
N18150 G1 Z-0.9 F1000
N18155 Y-17.004 Z-0.938
N18160 X-79.307 Y-17.025 Z-0.971
N18165 X-79.304 Y-17.058 Z-0.992
N18170 X-79.3 Y-17.096 Z-1
N18175 G3 X-79.261 Y-17.099 I0.02 J0.002
N18180 G1 X-79.172 Y-16.713 F480
N18185 X-79.145 Y-16.566
N18190 X-79.171 Y-16.418
N18195 X-79.228 Y-16.279
N18200 X-79.305 Y-16.151
N18205 X-79.397 Y-16.032
N18210 X-79.505 Y-15.918
N18215 X-79.641 Y-15.794
N18220 X-79.833 Y-15.646
N18225 X-80.04 Y-15.511
N18230 X-80.339 Y-15.349
N18235 X-80.663 Y-15.206
N18240 X-80.995 Y-15.083
N18245 X-81.332 Y-14.974
N18250 X-81.672 Y-14.878
N18255 X-82.016 Y-14.793
N18260 X-82.362 Y-14.718
N18265 X-82.711 Y-14.656
N18270 X-83.062 Y-14.609
N18275 X-83.353 Y-14.591
N18280 X-83.535 Y-14.595
N18285 X-83.684 Y-14.61
N18290 X-83.769 Y-14.628
N18295 X-83.856 Y-14.664
N18300 X-83.924 Y-14.73
N18305 X-83.963 Y-14.816
N18310 X-84.052 Y-15.203
N18315 G3 Y-15.242 I0.098 J-0.019 F1000
N18320 G1 X-84.044 Y-15.279 Z-0.992
N18325 X-84.038 Y-15.311 Z-0.971
N18330 X-84.033 Y-15.332 Z-0.938
N18335 X-84.032 Y-15.34 Z-0.9
N18340 G0 Z5
N18345 X-79.22 Y-16.611
N18350 Z-0.8
N18355 G1 Z-0.9 F1000
N18360 Y-16.618 Z-0.938
N18365 X-79.218 Y-16.64 Z-0.971
N18370 X-79.215 Y-16.672 Z-0.992
N18375 X-79.211 Y-16.71 Z-1
N18380 G3 X-79.172 Y-16.713 I0.02 J0.002
N18385 G1 X-79.082 Y-16.326 F480
N18390 X-79.056 Y-16.179
N18395 X-79.082 Y-16.031
N18400 X-79.14 Y-15.892
N18405 X-79.217 Y-15.764
N18410 X-79.31 Y-15.646
N18415 X-79.415 Y-15.534
N18420 X-79.55 Y-15.41
N18425 X-79.737 Y-15.266
N18430 X-79.946 Y-15.129
N18435 X-80.244 Y-14.967
N18440 X-80.567 Y-14.824
N18445 X-80.899 Y-14.7
N18450 X-81.236 Y-14.591
N18455 X-81.577 Y-14.494
N18460 X-81.92 Y-14.409
N18465 X-82.266 Y-14.334
N18470 X-82.615 Y-14.271
N18475 X-82.966 Y-14.224
N18480 X-83.255 Y-14.206
