%
(Baasje)
(Test file1)
(T1 D=0.5 CR=0 - ZMIN=-1.5 - flat end mill)
N10 G90 G94
N15 G17
N20 G21
N25 M9
N30 G28

(2D Adaptive3)
N40 T1 M6
N45 S5000 M3
N50 G54
N55 M8
N65 G0 X13.016 Y-0.943
N70 G43 Z15
N75 Z5
N80 Z-1.4
N85 G1 Z-1.45 F1000
N90 X13.013 Y-0.937 Z-1.475
N95 X13.004 Y-0.921 Z-1.493
N100 X12.993 Y-0.899 Z-1.5
N105 G3 X12.762 Y-0.75 I-0.241 J-0.12
N110 G1 X12.717
N115 X12.68 Y-0.752
N120 X12.593 Y-0.874
N125 X12.565 Y-1.022
N130 X12.545 Y-1.298
N135 X12.549 Y-1.736
N140 X12.546 Y-2.173
N145 X12.549 Y-2.61
N150 X12.547 Y-3.048
N155 X12.548 Y-3.485
N160 Y-3.633
N165 X12.563 Y-3.691
N170 X12.606 Y-3.734
N175 X12.664 Y-3.75
N180 G0 Z5
N185 X12.727 Y-0.819
N190 Z-1.4
N195 G1 Z-1.45 F1000
N200 X12.726 Y-0.812 Z-1.475
N205 X12.724 Y-0.794 Z-1.493
N210 X12.72 Y-0.769 Z-1.5
N215 X12.717 Y-0.75
N220 X12.618
N225 X12.58 Y-0.752
N230 X12.517 Y-0.791
N235 X12.422 Y-0.908
N240 X12.381 Y-1.052
N245 X12.359 Y-1.2
N250 X12.342 Y-1.541
N255 X12.355 Y-1.979
N260 X12.34 Y-2.416
N265 X12.355 Y-2.853
N270 X12.34 Y-3.29
N275 X12.348 Y-3.52
N280 X12.364 Y-3.669
N285 X12.373 Y-3.685
N290 X12.398 Y-3.719
N295 X12.435 Y-3.742
N300 X12.477 Y-3.75
N305 X12.664
N310 G0 Z5
N315 X12.628 Y-0.819
N320 Z-1.4
N325 G1 Z-1.45 F1000
N330 X12.627 Y-0.812 Z-1.475
N335 X12.624 Y-0.794 Z-1.493
N340 X12.621 Y-0.769 Z-1.5
N345 X12.618 Y-0.75
N350 X12.488
N355 X12.414 Y-0.754
N360 X12.351 Y-0.794
N365 X12.252 Y-0.907
N370 X12.199 Y-1.047
N375 X12.171 Y-1.195
N380 X12.15 Y-1.406
N385 X12.141 Y-1.844
N390 X12.158 Y-2.281
N395 X12.152 Y-2.39
N400 X12.144 Y-2.827
N405 X12.15 Y-3.265
N410 X12.148 Y-3.436
N415 X12.158 Y-3.586
N420 X12.179 Y-3.663
N425 X12.202 Y-3.708
N430 X12.242 Y-3.739
N435 X12.291 Y-3.75
N440 X12.477
N445 G0 Z5
N450 X12.498 Y-0.819
N455 Z-1.4
N460 G1 Z-1.45 F1000
N465 X12.497 Y-0.812 Z-1.475
N470 X12.495 Y-0.794 Z-1.493
N475 X12.491 Y-0.769 Z-1.5
N480 X12.488 Y-0.75
N485 X12.32
N490 X12.245 Y-0.754
N495 X12.117 Y-0.832
N500 X12.041 Y-0.961
N505 X11.997 Y-1.105
N510 X11.97 Y-1.256
N515 X11.945 Y-1.524
N520 X11.94 Y-1.961
N525 X11.967 Y-2.398
N530 X11.945 Y-2.66
N535 Y-3.097
N540 X11.951 Y-3.435
N545 X11.966 Y-3.585
N550 X11.989 Y-3.666
N555 X12.013 Y-3.709
N560 X12.053 Y-3.739
N565 X12.101 Y-3.75
N570 X12.291
N575 G0 Z5
N580 X12.33 Y-0.819
N585 Z-1.4
N590 G1 Z-1.45 F1000
N595 X12.329 Y-0.812 Z-1.475
N600 X12.326 Y-0.794 Z-1.493
N605 X12.323 Y-0.769 Z-1.5
N610 X12.32 Y-0.75
N615 X12.121
N620 X12.084 Y-0.752
N625 X12.016 Y-0.783
N630 X11.902 Y-0.881
N635 X11.835 Y-1.015
N640 X11.795 Y-1.16
N645 X11.764 Y-1.353
N650 X11.74 Y-1.649
N655 X11.741 Y-2.062
N660 X11.777 Y-2.498
N665 X11.757 Y-2.647
N670 X11.74 Y-2.992
N675 X11.753 Y-3.419
N680 X11.769 Y-3.568
N685 X11.796 Y-3.665
N690 X11.82 Y-3.709
N695 X11.86 Y-3.739
N700 X11.909 Y-3.75
N705 X12.101
N710 G0 Z5
N715 X12.131 Y-0.819
N720 Z-1.4
N725 G1 Z-1.45 F1000
N730 X12.13 Y-0.812 Z-1.475
N735 X12.127 Y-0.794 Z-1.493
N740 X12.124 Y-0.769 Z-1.5
N745 X12.121 Y-0.75
N750 X11.967
N755 X11.892 Y-0.754
N760 X11.759 Y-0.823
N765 X11.675 Y-0.947
N770 X11.622 Y-1.087
N775 X11.587 Y-1.233
N780 X11.555 Y-1.465
N785 X11.536 Y-1.787
N790 X11.544 Y-2.162
N795 X11.588 Y-2.597
N800 X11.561 Y-2.755
N805 X11.547 Y-2.918
N810 X11.544 Y-3.268
N815 X11.557 Y-3.443
N820 X11.579 Y-3.592
N825 X11.604 Y-3.669
N830 X11.629 Y-3.711
N835 X11.668 Y-3.74
N840 X11.715 Y-3.75
N845 X11.909
N850 G0 Z5
N855 X11.977 Y-0.819
N860 Z-1.4
N865 G1 Z-1.45 F1000
N870 X11.976 Y-0.812 Z-1.475
N875 X11.973 Y-0.794 Z-1.493
N880 X11.97 Y-0.769 Z-1.5
N885 X11.967 Y-0.75
N890 X11.755
N895 X11.68 Y-0.754
N900 X11.554 Y-0.835
N905 X11.475 Y-0.962
N910 X11.423 Y-1.103
N915 X11.386 Y-1.272
N920 X11.352 Y-1.51
N925 X11.336 Y-1.78
N930 X11.344 Y-2.17
N935 X11.388 Y-2.605
N940 X11.362 Y-2.782
N945 X11.343 Y-3.07
N950 X11.347 Y-3.302
N955 X11.362 Y-3.462
N960 X11.388 Y-3.61
N965 X11.412 Y-3.673
N970 X11.436 Y-3.714
N975 X11.475 Y-3.74
N980 X11.521 Y-3.75
N985 X11.715
N990 G0 Z5
N995 X11.765 Y-0.819
N1000 Z-1.4
N1005 G1 Z-1.45 F1000
N1010 X11.764 Y-0.812 Z-1.475
N1015 X11.761 Y-0.794 Z-1.493
N1020 X11.758 Y-0.769 Z-1.5
N1025 X11.755 Y-0.75
N1030 X11.556
N1035 X11.519 Y-0.752
N1040 X11.383 Y-0.815
N1045 X11.296 Y-0.937
N1050 X11.24 Y-1.076
N1055 X11.197 Y-1.237
N1060 X11.166 Y-1.411
N1065 X11.142 Y-1.662
N1070 X11.137 Y-2.021
N1075 X11.165 Y-2.457
N1080 X11.175 Y-2.895
N1085 X11.156 Y-3.043
N1090 X11.15 Y-3.204
N1095 X11.157 Y-3.374
N1100 X11.175 Y-3.523
N1105 X11.209 Y-3.669
N1110 X11.219 Y-3.688
N1115 X11.245 Y-3.721
N1120 X11.281 Y-3.742
N1125 X11.322 Y-3.75
N1130 X11.521
N1135 G0 Z5
N1140 X11.566 Y-0.819
N1145 Z-1.4
N1150 G1 Z-1.45 F1000
N1155 X11.565 Y-0.812 Z-1.475
N1160 X11.563 Y-0.794 Z-1.493
N1165 X11.559 Y-0.769 Z-1.5
N1170 X11.556 Y-0.75
N1175 X11.396
N1180 X11.321 Y-0.754
N1185 X11.185 Y-0.818
N1190 X11.1 Y-0.942
N1195 X11.044 Y-1.081
N1200 X11.005 Y-1.226
N1205 X10.967 Y-1.429
N1210 X10.944 Y-1.652
N1215 X10.936 Y-1.997
N1220 X10.961 Y-2.434
N1225 X10.977 Y-2.871
N1230 X10.958 Y-3.063
N1235 X10.955 Y-3.252
N1240 X10.964 Y-3.41
N1245 X10.986 Y-3.558
N1250 X11.013 Y-3.663
N1255 X11.037 Y-3.708
N1260 X11.077 Y-3.739
N1265 X11.126 Y-3.75
N1270 X11.322
N1275 G0 Z5
N1280 X11.405 Y-0.819
N1285 Z-1.4
N1290 G1 Z-1.45 F1000
N1295 Y-0.812 Z-1.475
N1300 X11.402 Y-0.794 Z-1.493
N1305 X11.398 Y-0.769 Z-1.5
N1310 X11.396 Y-0.75
N1315 X11.197
N1320 X11.122 Y-0.754
N1325 X10.988 Y-0.822
N1330 X10.904 Y-0.946
N1335 X10.847 Y-1.085
N1340 X10.805 Y-1.241
N1345 X10.768 Y-1.439
N1350 X10.743 Y-1.681
N1355 X10.736 Y-2.001
N1360 X10.761 Y-2.438
N1365 X10.777 Y-2.875
N1370 X10.759 Y-3.086
N1375 Y-3.277
N1380 X10.772 Y-3.437
N1385 X10.796 Y-3.585
N1390 X10.821 Y-3.668
N1395 X10.845 Y-3.711
N1400 X10.885 Y-3.74
N1405 X10.933 Y-3.75
N1410 X11.126
N1415 G0 Z5
N1420 X11.207 Y-0.819
N1425 Z-1.4
N1430 G1 Z-1.45 F1000
N1435 X11.206 Y-0.812 Z-1.475
N1440 X11.203 Y-0.794 Z-1.493
N1445 X11.2 Y-0.769 Z-1.5
N1450 X11.197 Y-0.75
N1455 X10.998
N1460 X10.923 Y-0.754
N1465 X10.791 Y-0.825
N1470 X10.707 Y-0.949
N1475 X10.651 Y-1.088
N1480 X10.608 Y-1.245
N1485 X10.569 Y-1.451
N1490 X10.544 Y-1.681
N1495 X10.536 Y-1.99
N1500 X10.56 Y-2.427
N1505 X10.577 Y-2.864
N1510 X10.561 Y-3.086
N1515 X10.562 Y-3.284
N1520 X10.576 Y-3.445
N1525 X10.601 Y-3.593
N1530 X10.628 Y-3.671
N1535 X10.652 Y-3.712
N1540 X10.691 Y-3.74
N1545 X10.738 Y-3.75
N1550 X10.933
N1555 G0 Z5
N1560 X11.008 Y-0.819
N1565 Z-1.4
N1570 G1 Z-1.45 F1000
N1575 X11.007 Y-0.812 Z-1.475
N1580 X11.005 Y-0.794 Z-1.493
N1585 X11.001 Y-0.769 Z-1.5
N1590 X10.998 Y-0.75
N1595 X10.799
N1600 X10.725 Y-0.754
N1605 X10.594 Y-0.827
N1610 X10.51 Y-0.952
N1615 X10.454 Y-1.091
N1620 X10.409 Y-1.252
N1625 X10.37 Y-1.456
N1630 X10.344 Y-1.689
N1635 X10.336 Y-1.983
N1640 X10.359 Y-2.42
N1645 X10.377 Y-2.857
N1650 X10.362 Y-3.083
N1655 X10.365 Y-3.285
N1660 X10.38 Y-3.449
N1665 X10.406 Y-3.596
N1670 X10.432 Y-3.672
N1675 X10.457 Y-3.713
N1680 X10.496 Y-3.74
N1685 X10.542 Y-3.75
N1690 X10.738
N1695 G0 Z5
N1700 X10.809 Y-0.819
N1705 Z-1.4
N1710 G1 Z-1.45 F1000
N1715 X10.808 Y-0.812 Z-1.475
N1720 X10.806 Y-0.794 Z-1.493
N1725 X10.802 Y-0.769 Z-1.5
N1730 X10.799 Y-0.75
N1735 X10.601
N1740 X10.526 Y-0.754
N1745 X10.396 Y-0.83
N1750 X10.313 Y-0.954
N1755 X10.257 Y-1.093
N1760 X10.211 Y-1.255
N1765 X10.171 Y-1.459
N1770 X10.145 Y-1.691
N1775 X10.136 Y-1.973
N1780 X10.177 Y-2.847
N1785 X10.163 Y-3.078
N1790 X10.167 Y-3.283
N1795 X10.183 Y-3.45
N1800 X10.21 Y-3.597
N1805 X10.236 Y-3.672
N1810 X10.261 Y-3.713
N1815 X10.3 Y-3.74
N1820 X10.346 Y-3.75
N1825 X10.542
N1830 G0 Z5
N1835 X10.611 Y-0.819
N1840 Z-1.4
N1845 G1 Z-1.45 F1000
N1850 X10.61 Y-0.812 Z-1.475
N1855 X10.607 Y-0.794 Z-1.493
N1860 X10.604 Y-0.769 Z-1.5
N1865 X10.601 Y-0.75
N1870 X10.402
N1875 X10.327 Y-0.754
N1880 X10.199 Y-0.832
N1885 X10.116 Y-0.956
N1890 X10.059 Y-1.095
N1895 X10.013 Y-1.258
N1900 X9.973 Y-1.463
N1905 X9.946 Y-1.696
N1910 X9.936 Y-1.966
N1915 X9.956 Y-2.403
N1920 X9.977 Y-2.84
N1925 X9.964 Y-3.072
N1930 X9.968 Y-3.28
N1935 X9.985 Y-3.449
N1940 X10.013 Y-3.597
N1945 X10.04 Y-3.673
N1950 X10.065 Y-3.713
N1955 X10.103 Y-3.74
N1960 X10.15 Y-3.75
N1965 X10.346
N1970 G0 Z5
N1975 X10.412 Y-0.819
N1980 Z-1.4
N1985 G1 Z-1.45 F1000
N1990 X10.411 Y-0.812 Z-1.475
N1995 X10.408 Y-0.794 Z-1.493
N2000 X10.405 Y-0.769 Z-1.5
N2005 X10.402 Y-0.75
N2010 X10.203
N2015 X10.128 Y-0.754
N2020 X10.001 Y-0.833
N2025 X9.918 Y-0.958
N2030 X9.862 Y-1.097
N2035 X9.815 Y-1.261
N2040 X9.774 Y-1.466
N2045 X9.746 Y-1.7
N2050 X9.736 Y-1.959
N2055 X9.755 Y-2.396
N2060 X9.777 Y-2.833
N2065 X9.764 Y-3.068
N2070 X9.769 Y-3.278
N2075 X9.787 Y-3.449
N2080 X9.815 Y-3.596
N2085 X9.843 Y-3.673
N2090 X9.868 Y-3.713
N2095 X9.906 Y-3.74
N2100 X9.953 Y-3.75
N2105 X10.15
N2110 G0 Z5
N2115 X10.213 Y-0.819
N2120 Z-1.4
N2125 G1 Z-1.45 F1000
N2130 X10.212 Y-0.812 Z-1.475
N2135 X10.21 Y-0.794 Z-1.493
N2140 X10.206 Y-0.769 Z-1.5
N2145 X10.203 Y-0.75
N2150 X10.005
N2155 X9.93 Y-0.754
N2160 X9.803 Y-0.834
N2165 X9.721 Y-0.96
N2170 X9.664 Y-1.098
N2175 X9.616 Y-1.263
N2180 X9.574 Y-1.47
N2185 X9.546 Y-1.705
N2190 X9.536 Y-1.953
N2195 X9.554 Y-2.39
N2200 X9.577 Y-2.827
N2205 X9.564 Y-3.064
N2210 X9.57 Y-3.276
N2215 X9.589 Y-3.448
N2220 X9.617 Y-3.596
N2225 X9.645 Y-3.673
N2230 X9.67 Y-3.713
N2235 X9.709 Y-3.74
N2240 X9.755 Y-3.75
N2245 X9.953
N2250 G0 Z5
N2255 X10.015 Y-0.819
N2260 Z-1.4
N2265 G1 Z-1.45 F1000
N2270 X10.014 Y-0.812 Z-1.475
N2275 X10.011 Y-0.794 Z-1.493
N2280 X10.007 Y-0.769 Z-1.5
N2285 X10.005 Y-0.75
N2290 X9.836
N2295 X9.761 Y-0.754
N2300 X9.625 Y-0.818
N2305 X9.537 Y-0.938
N2310 X9.475 Y-1.075
N2315 X9.426 Y-1.234
N2320 X9.384 Y-1.42
N2325 X9.354 Y-1.633
N2330 X9.339 Y-1.886
N2335 X9.347 Y-2.323
N2340 X9.376 Y-2.76
N2345 X9.364 Y-3.09
N2350 X9.374 Y-3.309
N2355 X9.395 Y-3.469
N2360 X9.426 Y-3.616
N2365 X9.45 Y-3.676
N2370 X9.475 Y-3.715
N2375 X9.513 Y-3.741
N2380 X9.558 Y-3.75
N2385 X9.755
N2390 G0 Z5
N2395 X9.846 Y-0.819
N2400 Z-1.4
N2405 G1 Z-1.45 F1000
N2410 X9.845 Y-0.812 Z-1.475
N2415 X9.842 Y-0.794 Z-1.493
N2420 X9.839 Y-0.769 Z-1.5
N2425 X9.836 Y-0.75
N2430 X9.637
N2435 X9.562 Y-0.754
N2440 X9.427 Y-0.818
N2445 X9.338 Y-0.939
N2450 X9.277 Y-1.076
N2455 X9.23 Y-1.227
N2460 X9.187 Y-1.416
N2465 X9.154 Y-1.645
N2470 X9.139 Y-1.881
N2475 X9.147 Y-2.319
N2480 X9.175 Y-2.755
N2485 X9.164 Y-3.095
N2490 X9.175 Y-3.304
N2495 X9.197 Y-3.473
N2500 X9.228 Y-3.62
N2505 X9.252 Y-3.678
N2510 X9.277 Y-3.716
N2515 X9.315 Y-3.741
N2520 X9.36 Y-3.75
N2525 X9.558
N2530 G0 Z5
N2535 X9.647 Y-0.819
N2540 Z-1.4
N2545 G1 Z-1.45 F1000
N2550 X9.646 Y-0.812 Z-1.475
N2555 X9.644 Y-0.794 Z-1.493
N2560 X9.64 Y-0.769 Z-1.5
N2565 X9.637 Y-0.75
N2570 X9.439
N2575 X9.364 Y-0.754
N2580 X9.229 Y-0.819
N2585 X9.14 Y-0.94
N2590 X9.079 Y-1.077
N2595 X9.031 Y-1.228
N2600 X8.987 Y-1.426
N2605 X8.954 Y-1.652
N2610 X8.939 Y-1.897
N2615 X8.947 Y-2.335
N2620 X8.975 Y-2.771
N2625 X8.965 Y-3.076
N2630 X8.974 Y-3.287
N2635 X8.996 Y-3.465
N2640 X9.027 Y-3.612
N2645 X9.053 Y-3.677
N2650 X9.078 Y-3.715
N2655 X9.116 Y-3.741
N2660 X9.161 Y-3.75
N2665 X9.36
N2670 G0 Z5
N2675 X9.448 Y-0.819
N2680 Z-1.4
N2685 G1 Z-1.45 F1000
N2690 Y-0.812 Z-1.475
N2695 X9.445 Y-0.794 Z-1.493
N2700 X9.441 Y-0.769 Z-1.5
N2705 X9.439 Y-0.75
N2710 X9.24
N2715 X9.165 Y-0.754
N2720 X9.03 Y-0.819
N2725 X8.942 Y-0.94
N2730 X8.88 Y-1.077
N2735 X8.832 Y-1.233
N2740 X8.787 Y-1.432
N2745 X8.754 Y-1.662
N2750 X8.739 Y-1.907
N2755 X8.747 Y-2.344
N2760 X8.776 Y-2.78
N2765 X8.765 Y-3.064
N2770 X8.774 Y-3.279
N2775 X8.796 Y-3.459
N2780 X8.826 Y-3.606
N2785 X8.854 Y-3.676
N2790 X8.879 Y-3.715
N2795 X8.917 Y-3.741
N2800 X8.962 Y-3.75
N2805 X9.161
N2810 G0 Z5
N2815 X9.25 Y-0.819
N2820 Z-1.4
N2825 G1 Z-1.45 F1000
N2830 X9.249 Y-0.812 Z-1.475
N2835 X9.246 Y-0.794 Z-1.493
N2840 X9.243 Y-0.769 Z-1.5
N2845 X9.24 Y-0.75
N2850 X9.041
N2855 X8.966 Y-0.754
N2860 X8.832 Y-0.82
N2865 X8.743 Y-0.941
N2870 X8.682 Y-1.078
N2875 X8.633 Y-1.235
N2880 X8.587 Y-1.436
N2885 X8.554 Y-1.666
N2890 X8.539 Y-1.906
N2895 X8.547 Y-2.344
N2900 X8.575 Y-2.78
N2905 X8.565 Y-3.062
N2910 X8.574 Y-3.28
N2915 X8.596 Y-3.457
N2920 X8.627 Y-3.604
N2925 X8.655 Y-3.675
N2930 X8.68 Y-3.715
N2935 X8.718 Y-3.741
N2940 X8.763 Y-3.75
N2945 X8.962
N2950 G0 Z5
N2955 X9.051 Y-0.819
N2960 Z-1.4
N2965 G1 Z-1.45 F1000
N2970 X9.05 Y-0.812 Z-1.475
N2975 X9.048 Y-0.794 Z-1.493
N2980 X9.044 Y-0.769 Z-1.5
N2985 X9.041 Y-0.75
N2990 X8.842
N2995 X8.768 Y-0.754
N3000 X8.633 Y-0.82
N3005 X8.545 Y-0.941
N3010 X8.483 Y-1.078
N3015 X8.434 Y-1.237
N3020 X8.388 Y-1.439
N3025 X8.355 Y-1.668
N3030 X8.339 Y-1.907
N3035 X8.347 Y-2.344
N3040 X8.375 Y-2.781
N3045 X8.365 Y-3.06
N3050 X8.375 Y-3.277
N3055 X8.397 Y-3.455
N3060 X8.428 Y-3.602
N3065 X8.456 Y-3.675
N3070 X8.481 Y-3.714
N3075 X8.519 Y-3.741
N3080 X8.565 Y-3.75
N3085 X8.763
N3090 G0 Z5
N3095 X8.852 Y-0.819
N3100 Z-1.4
N3105 G1 Z-1.45 F1000
N3110 X8.851 Y-0.812 Z-1.475
N3115 X8.849 Y-0.794 Z-1.493
N3120 X8.845 Y-0.769 Z-1.5
N3125 X8.842 Y-0.75
N3130 X8.644
N3135 X8.569 Y-0.754
N3140 X8.435 Y-0.821
N3145 X8.346 Y-0.942
N3150 X8.285 Y-1.079
N3155 X8.235 Y-1.238
N3160 X8.189 Y-1.439
N3165 X8.155 Y-1.668
N3170 X8.14 Y-1.906
N3175 X8.147 Y-2.344
N3180 X8.174 Y-2.78
N3185 X8.165 Y-3.059
N3190 X8.175 Y-3.277
N3195 X8.198 Y-3.455
N3200 X8.229 Y-3.602
N3205 X8.257 Y-3.675
N3210 X8.282 Y-3.714
N3215 X8.32 Y-3.741
N3220 X8.366 Y-3.75
N3225 X8.565
N3230 G0 Z5
N3235 X8.654 Y-0.819
N3240 Z-1.4
N3245 G1 Z-1.45 F1000
N3250 X8.653 Y-0.812 Z-1.475
N3255 X8.65 Y-0.794 Z-1.493
N3260 X8.647 Y-0.769 Z-1.5
N3265 X8.644 Y-0.75
N3270 X8.445
N3275 X8.37 Y-0.754
N3280 X8.236 Y-0.821
N3285 X8.148 Y-0.942
N3290 X8.086 Y-1.079
N3295 X8.036 Y-1.238
N3300 X7.989 Y-1.439
N3305 X7.956 Y-1.667
N3310 X7.94 Y-1.906
N3315 X7.946 Y-2.343
N3320 X7.973 Y-2.78
N3325 X7.965 Y-3.059
N3330 X7.975 Y-3.277
N3335 X7.998 Y-3.455
N3340 X8.03 Y-3.602
N3345 X8.058 Y-3.675
N3350 X8.083 Y-3.714
N3355 X8.121 Y-3.741
N3360 X8.167 Y-3.75
N3365 X8.366
N3370 G0 Z5
N3375 X8.455 Y-0.819
N3380 Z-1.4
N3385 G1 Z-1.45 F1000
N3390 X8.454 Y-0.812 Z-1.475
N3395 X8.451 Y-0.794 Z-1.493
N3400 X8.448 Y-0.769 Z-1.5
N3405 X8.445 Y-0.75
N3410 X8.246
N3415 X8.171 Y-0.754
N3420 X8.037 Y-0.821
N3425 X7.949 Y-0.942
N3430 X7.888 Y-1.079
N3435 X7.837 Y-1.238
N3440 X7.79 Y-1.439
N3445 X7.756 Y-1.667
N3450 X7.74 Y-1.906
N3455 X7.746 Y-2.343
N3460 X7.773 Y-2.78
N3465 X7.765 Y-3.059
N3470 X7.776 Y-3.276
N3475 X7.799 Y-3.455
N3480 X7.83 Y-3.601
N3485 X7.859 Y-3.675
N3490 X7.884 Y-3.714
N3495 X7.922 Y-3.741
N3500 X7.968 Y-3.75
N3505 X8.167
N3510 G0 Z5
N3515 X8.256 Y-0.819
N3520 Z-1.4
N3525 G1 Z-1.45 F1000
N3530 X8.255 Y-0.812 Z-1.475
N3535 X8.253 Y-0.794 Z-1.493
N3540 X8.249 Y-0.769 Z-1.5
N3545 X8.246 Y-0.75
N3550 X8.048
N3555 X7.973 Y-0.754
N3560 X7.839 Y-0.821
N3565 X7.75 Y-0.942
N3570 X7.689 Y-1.079
N3575 X7.638 Y-1.238
N3580 X7.591 Y-1.439
N3585 X7.557 Y-1.667
N3590 X7.541 Y-1.906
N3595 X7.546 Y-2.344
N3600 X7.573 Y-2.78
N3605 X7.565 Y-3.059
N3610 X7.576 Y-3.276
N3615 X7.6 Y-3.455
N3620 X7.631 Y-3.601
N3625 X7.66 Y-3.675
N3630 X7.685 Y-3.714
N3635 X7.723 Y-3.741
N3640 X7.768 Y-3.75
N3645 X7.968
N3650 G0 Z5
N3655 X8.058 Y-0.819
N3660 Z-1.4
N3665 G1 Z-1.45 F1000
N3670 X8.057 Y-0.812 Z-1.475
N3675 X8.054 Y-0.794 Z-1.493
N3680 X8.05 Y-0.769 Z-1.5
N3685 X8.048 Y-0.75
N3690 X7.849
N3695 X7.774 Y-0.754
N3700 X7.64 Y-0.821
N3705 X7.552 Y-0.942
N3710 X7.49 Y-1.079
N3715 X7.439 Y-1.238
N3720 X7.392 Y-1.439
N3725 X7.357 Y-1.668
N3730 X7.341 Y-1.907
N3735 X7.346 Y-2.345
N3740 X7.372 Y-2.781
N3745 X7.365 Y-3.059
N3750 X7.376 Y-3.277
N3755 X7.4 Y-3.455
N3760 X7.432 Y-3.602
N3765 X7.46 Y-3.675
N3770 X7.485 Y-3.714
N3775 X7.524 Y-3.741
N3780 X7.569 Y-3.75
N3785 X7.768
N3790 G0 Z5
N3795 X7.859 Y-0.819
N3800 Z-1.4
N3805 G1 Z-1.45 F1000
N3810 X7.858 Y-0.812 Z-1.475
N3815 X7.855 Y-0.794 Z-1.493
N3820 X7.852 Y-0.769 Z-1.5
N3825 X7.849 Y-0.75
N3830 X7.65
N3835 X7.575 Y-0.754
N3840 X7.441 Y-0.821
N3845 X7.353 Y-0.942
N3850 X7.291 Y-1.079
N3855 X7.24 Y-1.238
N3860 X7.193 Y-1.439
N3865 X7.158 Y-1.668
N3870 X7.141 Y-1.908
N3875 X7.145 Y-2.345
N3880 X7.172 Y-2.782
N3885 X7.164 Y-3.059
N3890 X7.176 Y-3.277
N3895 X7.201 Y-3.456
N3900 X7.233 Y-3.602
N3905 X7.261 Y-3.675
N3910 X7.286 Y-3.715
N3915 X7.324 Y-3.741
N3920 X7.37 Y-3.75
N3925 X7.569
N3930 G0 Z5
N3935 X7.66 Y-0.819
N3940 Z-1.4
N3945 G1 Z-1.45 F1000
N3950 X7.659 Y-0.812 Z-1.475
N3955 X7.657 Y-0.794 Z-1.493
N3960 X7.653 Y-0.769 Z-1.5
N3965 X7.65 Y-0.75
N3970 X7.452
N3975 X7.377 Y-0.754
N3980 X7.243 Y-0.821
N3985 X7.154 Y-0.942
N3990 X7.092 Y-1.079
N3995 X7.041 Y-1.238
N4000 X6.993 Y-1.44
N4005 X6.958 Y-1.668
N4010 X6.941 Y-1.908
N4015 X6.945 Y-2.346
N4020 X6.971 Y-2.782
N4025 X6.964 Y-3.061
N4030 X6.977 Y-3.279
N4035 X7.001 Y-3.457
N4040 X7.033 Y-3.604
N4045 X7.062 Y-3.676
N4050 X7.087 Y-3.715
N4055 X7.125 Y-3.741
N4060 X7.17 Y-3.75
N4065 X7.37
N4070 G0 Z5
N4075 X7.461 Y-0.819
N4080 Z-1.4
N4085 G1 Z-1.45 F1000
N4090 X7.46 Y-0.812 Z-1.475
N4095 X7.458 Y-0.794 Z-1.493
N4100 X7.454 Y-0.769 Z-1.5
N4105 X7.452 Y-0.75
N4110 X7.253
N4115 X7.178 Y-0.754
N4120 X7.044 Y-0.821
N4125 X6.955 Y-0.942
N4130 X6.893 Y-1.079
N4135 X6.842 Y-1.238
N4140 X6.794 Y-1.439
N4145 X6.759 Y-1.668
N4150 X6.741 Y-1.908
N4155 X6.745 Y-2.346
N4160 X6.771 Y-2.782
N4165 X6.764 Y-3.062
N4170 X6.777 Y-3.28
N4175 X6.802 Y-3.459
N4180 X6.834 Y-3.605
N4185 X6.862 Y-3.676
N4190 X6.887 Y-3.715
N4195 X6.925 Y-3.741
N4200 X6.971 Y-3.75
N4205 X7.17
N4210 G0 Z5
N4215 X7.263 Y-0.819
N4220 Z-1.4
N4225 G1 Z-1.45 F1000
N4230 X7.262 Y-0.812 Z-1.475
N4235 X7.259 Y-0.794 Z-1.493
N4240 X7.256 Y-0.769 Z-1.5
N4245 X7.253 Y-0.75
N4250 X7.054
N4255 X6.979 Y-0.754
N4260 X6.845 Y-0.821
N4265 X6.756 Y-0.942
N4270 X6.694 Y-1.078
N4275 X6.642 Y-1.238
N4280 X6.594 Y-1.439
N4285 X6.559 Y-1.668
N4290 X6.542 Y-1.908
N4295 X6.545 Y-2.345
N4300 X6.57 Y-2.782
N4305 X6.564 Y-3.065
N4310 X6.577 Y-3.283
N4315 X6.603 Y-3.461
N4320 X6.635 Y-3.607
N4325 X6.663 Y-3.676
N4330 X6.688 Y-3.715
N4335 X6.726 Y-3.741
N4340 X6.771 Y-3.75
N4345 X6.971
N4350 G0 Z5
N4355 X7.064 Y-0.819
N4360 Z-1.4
N4365 G1 Z-1.45 F1000
N4370 X7.063 Y-0.812 Z-1.475
N4375 X7.06 Y-0.794 Z-1.493
N4380 X7.057 Y-0.769 Z-1.5
N4385 X7.054 Y-0.75
N4390 X6.855
N4395 X6.78 Y-0.754
N4400 X6.646 Y-0.821
N4405 X6.557 Y-0.941
N4410 X6.495 Y-1.078
N4415 X6.443 Y-1.237
N4420 X6.395 Y-1.439
N4425 X6.359 Y-1.668
N4430 X6.342 Y-1.908
N4435 X6.345 Y-2.345
N4440 X6.37 Y-2.782
N4445 X6.364 Y-3.068
N4450 X6.378 Y-3.285
N4455 X6.403 Y-3.463
N4460 X6.436 Y-3.61
N4465 X6.463 Y-3.677
N4470 X6.488 Y-3.715
N4475 X6.526 Y-3.741
N4480 X6.571 Y-3.75
N4485 X6.771
N4490 G0 Z5
N4495 X6.865 Y-0.819
N4500 Z-1.4
N4505 G1 Z-1.45 F1000
N4510 X6.864 Y-0.812 Z-1.475
N4515 X6.862 Y-0.794 Z-1.493
N4520 X6.858 Y-0.769 Z-1.5
N4525 X6.855 Y-0.75
N4530 X6.657
N4535 X6.582 Y-0.754
N4540 X6.447 Y-0.82
N4545 X6.358 Y-0.941
N4550 X6.296 Y-1.077
N4555 X6.244 Y-1.237
N4560 X6.196 Y-1.438
N4565 X6.16 Y-1.667
N4570 X6.142 Y-1.907
N4575 X6.145 Y-2.345
N4580 X6.169 Y-2.781
N4585 X6.164 Y-3.071
N4590 X6.178 Y-3.289
N4595 X6.204 Y-3.466
N4600 X6.237 Y-3.612
N4605 X6.264 Y-3.677
N4610 X6.289 Y-3.715
N4615 X6.327 Y-3.741
N4620 X6.372 Y-3.75
N4625 X6.571
N4630 G0 Z5
N4635 X6.667 Y-0.819
N4640 Z-1.4
N4645 G1 Z-1.45 F1000
N4650 X6.666 Y-0.812 Z-1.475
N4655 X6.663 Y-0.794 Z-1.493
N4660 X6.659 Y-0.769 Z-1.5
N4665 X6.657 Y-0.75
N4670 X6.458
N4675 X6.383 Y-0.754
N4680 X6.249 Y-0.82
N4685 X6.159 Y-0.941
N4690 X6.097 Y-1.077
N4695 X6.045 Y-1.236
N4700 X5.996 Y-1.438
N4705 X5.96 Y-1.667
N4710 X5.942 Y-1.907
N4715 X5.944 Y-2.344
N4720 X5.969 Y-2.781
N4725 X5.964 Y-3.075
N4730 X5.979 Y-3.292
N4735 X6.005 Y-3.469
N4740 X6.038 Y-3.615
N4745 X6.064 Y-3.678
N4750 X6.089 Y-3.716
N4755 X6.127 Y-3.741
N4760 X6.172 Y-3.75
N4765 X6.372
N4770 G0 Z5
N4775 X6.468 Y-0.819
N4780 Z-1.4
N4785 G1 Z-1.45 F1000
N4790 X6.467 Y-0.812 Z-1.475
N4795 X6.464 Y-0.794 Z-1.493
N4800 X6.461 Y-0.769 Z-1.5
N4805 X6.458 Y-0.75
N4810 X6.259
N4815 X6.184 Y-0.754
N4820 X6.05 Y-0.82
N4825 X5.96 Y-0.94
N4830 X5.898 Y-1.076
N4835 X5.845 Y-1.236
N4840 X5.797 Y-1.437
N4845 X5.761 Y-1.666
N4850 X5.742 Y-1.906
N4855 X5.744 Y-2.343
N4860 X5.768 Y-2.78
N4865 X5.764 Y-3.079
N4870 X5.779 Y-3.296
N4875 X5.805 Y-3.473
N4880 X5.839 Y-3.619
N4885 X5.864 Y-3.679
N4890 X5.89 Y-3.716
N4895 X5.927 Y-3.741
N4900 X5.972 Y-3.75
N4905 X6.172
N4910 G0 Z5
N4915 X6.269 Y-0.819
N4920 Z-1.4
N4925 G1 Z-1.45 F1000
N4930 X6.268 Y-0.812 Z-1.475
N4935 X6.266 Y-0.794 Z-1.493
N4940 X6.262 Y-0.769 Z-1.5
N4945 X6.259 Y-0.75
N4950 X6.061
N4955 X5.986 Y-0.754
N4960 X5.851 Y-0.819
N4965 X5.761 Y-0.94
N4970 X5.698 Y-1.076
N4975 X5.646 Y-1.235
N4980 X5.597 Y-1.436
N4985 X5.561 Y-1.665
N4990 X5.543 Y-1.905
N4995 X5.544 Y-2.343
N5000 X5.568 Y-2.779
N5005 X5.564 Y-3.083
N5010 X5.579 Y-3.3
N5015 X5.606 Y-3.476
N5020 X5.64 Y-3.622
N5025 X5.665 Y-3.679
N5030 X5.69 Y-3.716
N5035 X5.728 Y-3.741
N5040 X5.772 Y-3.75
N5045 X5.972
N5050 G0 Z5
N5055 X6.07 Y-0.819
N5060 Z-1.4
N5065 G1 Z-1.45 F1000
N5070 Y-0.812 Z-1.475
N5075 X6.067 Y-0.794 Z-1.493
N5080 X6.063 Y-0.769 Z-1.5
N5085 X6.061 Y-0.75
N5090 X5.862
N5095 X5.787 Y-0.754
N5100 X5.652 Y-0.819
N5105 X5.562 Y-0.939
N5110 X5.499 Y-1.075
N5115 X5.447 Y-1.234
N5120 X5.398 Y-1.436
N5125 X5.361 Y-1.664
N5130 X5.343 Y-1.904
N5135 X5.344 Y-2.342
N5140 X5.367 Y-2.779
N5145 X5.364 Y-3.088
N5150 X5.38 Y-3.304
N5155 X5.407 Y-3.48
N5160 X5.441 Y-3.626
N5165 X5.465 Y-3.68
N5170 X5.49 Y-3.717
N5175 X5.528 Y-3.741
N5180 X5.572 Y-3.75
N5185 X5.772
N5190 G0 Z5
N5195 X5.872 Y-0.819
N5200 Z-1.4
N5205 G1 Z-1.45 F1000
N5210 X5.871 Y-0.812 Z-1.475
N5215 X5.868 Y-0.794 Z-1.493
N5220 X5.865 Y-0.769 Z-1.5
N5225 X5.862 Y-0.75
N5230 X5.663
N5235 X5.588 Y-0.754
N5240 X5.453 Y-0.818
N5245 X5.363 Y-0.939
N5250 X5.3 Y-1.075
N5255 X5.248 Y-1.233
N5260 X5.198 Y-1.435
N5265 X5.162 Y-1.664
N5270 X5.143 Y-1.903
N5275 X5.144 Y-2.341
N5280 X5.167 Y-2.778
N5285 X5.165 Y-3.093
N5290 X5.18 Y-3.309
N5295 X5.208 Y-3.485
N5300 X5.242 Y-3.631
N5305 X5.265 Y-3.681
N5310 X5.29 Y-3.717
N5315 X5.328 Y-3.742
N5320 X5.371 Y-3.75
N5325 X5.572
N5330 G0 Z5
N5335 X5.673 Y-0.819
N5340 Z-1.4
N5345 G1 Z-1.45 F1000
N5350 X5.672 Y-0.812 Z-1.475
N5355 X5.669 Y-0.794 Z-1.493
N5360 X5.666 Y-0.769 Z-1.5
N5365 X5.663 Y-0.75
N5370 X5.464
N5375 X5.39 Y-0.754
N5380 X5.254 Y-0.818
N5385 X5.164 Y-0.938
N5390 X5.101 Y-1.074
N5395 X5.048 Y-1.233
N5400 X4.999 Y-1.434
N5405 X4.962 Y-1.663
N5410 X4.943 Y-1.902
N5415 X4.944 Y-2.34
N5420 X4.966 Y-2.777
N5425 X4.965 Y-3.098
N5430 X4.981 Y-3.314
N5435 X5.008 Y-3.489
N5440 X5.043 Y-3.635
N5445 X5.065 Y-3.682
N5450 X5.09 Y-3.718
N5455 X5.127 Y-3.742
N5460 X5.171 Y-3.75
N5465 X5.371
N5470 G0 Z5
N5475 X5.474 Y-0.819
N5480 Z-1.4
N5485 G1 Z-1.45 F1000
N5490 X5.473 Y-0.812 Z-1.475
N5495 X5.471 Y-0.794 Z-1.493
N5500 X5.467 Y-0.769 Z-1.5
N5505 X5.464 Y-0.75
N5510 X5.266
N5515 X5.191 Y-0.754
N5520 X5.055 Y-0.817
N5525 X4.965 Y-0.937
N5530 X4.902 Y-1.073
N5535 X4.849 Y-1.232
N5540 X4.8 Y-1.433
N5545 X4.763 Y-1.661
N5550 X4.743 Y-1.901
N5555 Y-2.339
N5560 X4.766 Y-2.776
N5565 X4.765 Y-3.104
N5570 X4.781 Y-3.319
N5575 X4.809 Y-3.494
N5580 X4.844 Y-3.64
N5585 X4.864 Y-3.683
N5590 X4.89 Y-3.718
N5595 X4.927 Y-3.742
N5600 X4.97 Y-3.75
N5605 X5.171
N5610 G0 Z5
N5615 X5.276 Y-0.819
N5620 Z-1.4
N5625 G1 Z-1.45 F1000
N5630 X5.275 Y-0.812 Z-1.475
N5635 X5.272 Y-0.794 Z-1.493
N5640 X5.269 Y-0.769 Z-1.5
N5645 X5.266 Y-0.75
N5650 X5.067
N5655 X4.992 Y-0.754
N5660 X4.856 Y-0.817
N5665 X4.766 Y-0.937
N5670 X4.702 Y-1.073
N5675 X4.65 Y-1.231
N5680 X4.6 Y-1.432
N5685 X4.563 Y-1.66
N5690 X4.543 Y-1.9
N5695 Y-2.338
N5700 X4.565 Y-2.775
N5705 Y-3.11
N5710 X4.582 Y-3.325
N5715 X4.61 Y-3.499
N5720 X4.646 Y-3.645
N5725 X4.664 Y-3.684
N5730 X4.69 Y-3.719
N5735 X4.727 Y-3.742
N5740 X4.769 Y-3.75
N5745 X4.97
N5750 G0 Z5
N5755 X5.077 Y-0.819
N5760 Z-1.4
N5765 G1 Z-1.45 F1000
N5770 X5.076 Y-0.812 Z-1.475
N5775 X5.073 Y-0.794 Z-1.493
N5780 X5.07 Y-0.769 Z-1.5
N5785 X5.067 Y-0.75
N5790 X4.868
N5795 X4.793 Y-0.754
N5800 X4.657 Y-0.816
N5805 X4.567 Y-0.936
N5810 X4.503 Y-1.072
N5815 X4.45 Y-1.23
N5820 X4.401 Y-1.43
N5825 X4.363 Y-1.659
N5830 X4.344 Y-1.899
N5835 X4.343 Y-2.336
N5840 X4.365 Y-2.773
N5845 Y-3.116
N5850 X4.382 Y-3.331
N5855 X4.411 Y-3.505
N5860 X4.447 Y-3.65
N5865 X4.464 Y-3.685
N5870 X4.489 Y-3.719
N5875 X4.526 Y-3.742
N5880 X4.568 Y-3.75
N5885 X4.769
N5890 G0 Z5
N5895 X4.878 Y-0.819
N5900 Z-1.4
N5905 G1 Z-1.45 F1000
N5910 X4.877 Y-0.812 Z-1.475
N5915 X4.875 Y-0.794 Z-1.493
N5920 X4.871 Y-0.769 Z-1.5
N5925 X4.868 Y-0.75
N5930 X4.67
N5935 X4.595 Y-0.754
N5940 X4.458 Y-0.816
N5945 X4.367 Y-0.935
N5950 X4.304 Y-1.071
N5955 X4.251 Y-1.229
N5960 X4.201 Y-1.429
N5965 X4.164 Y-1.658
N5970 X4.144 Y-1.898
N5975 X4.143 Y-2.335
N5980 X4.164 Y-2.772
N5985 X4.165 Y-3.122
N5990 X4.183 Y-3.337
N5995 X4.212 Y-3.51
N6000 X4.248 Y-3.656
N6005 X4.263 Y-3.686
N6010 X4.289 Y-3.72
N6015 X4.325 Y-3.742
N6020 X4.367 Y-3.75
N6025 X4.568
N6030 G0 Z5
N6035 X4.68 Y-0.819
N6040 Z-1.4
N6045 G1 Z-1.45 F1000
N6050 X4.679 Y-0.812 Z-1.475
N6055 X4.676 Y-0.794 Z-1.493
N6060 X4.672 Y-0.769 Z-1.5
N6065 X4.67 Y-0.75
N6070 X4.471
N6075 X4.396 Y-0.754
N6080 X4.259 Y-0.815
N6085 X4.168 Y-0.934
N6090 X4.104 Y-1.07
N6095 X4.051 Y-1.228
N6100 X4.002 Y-1.428
N6105 X3.964 Y-1.656
N6110 X3.944 Y-1.896
N6115 X3.943 Y-2.334
N6120 X3.964 Y-2.771
N6125 X3.965 Y-3.129
N6130 X3.984 Y-3.343
N6135 X4.012 Y-3.516
N6140 X4.049 Y-3.662
N6145 X4.062 Y-3.687
N6150 X4.088 Y-3.721
N6155 X4.124 Y-3.742
N6160 X4.166 Y-3.75
N6165 X4.367
N6170 G0 Z5
N6175 X4.481 Y-0.819
N6180 Z-1.4
N6185 G1 Z-1.45 F1000
N6190 X4.48 Y-0.812 Z-1.475
N6195 X4.477 Y-0.794 Z-1.493
N6200 X4.474 Y-0.769 Z-1.5
N6205 X4.471 Y-0.75
N6210 X4.272
N6215 X4.197 Y-0.754
N6220 X4.06 Y-0.814
N6225 X3.969 Y-0.934
N6230 X3.905 Y-1.069
N6235 X3.852 Y-1.226
N6240 X3.802 Y-1.427
N6245 X3.764 Y-1.655
N6250 X3.744 Y-1.895
N6255 X3.743 Y-2.332
N6260 X3.764 Y-2.769
N6265 X3.766 Y-3.135
N6270 X3.784 Y-3.349
N6275 X3.813 Y-3.523
N6280 X3.85 Y-3.668
N6285 X3.861 Y-3.689
N6290 X3.887 Y-3.721
N6295 X3.923 Y-3.743
N6300 X3.964 Y-3.75
N6305 X4.166
N6310 G0 Z5
N6315 X4.282 Y-0.819
N6320 Z-1.4
N6325 G1 Z-1.45 F1000
N6330 X4.281 Y-0.812 Z-1.475
N6335 X4.279 Y-0.794 Z-1.493
N6340 X4.275 Y-0.769 Z-1.5
N6345 X4.272 Y-0.75
N6350 X4.073
N6355 X3.999 Y-0.754
N6360 X3.861 Y-0.814
N6365 X3.77 Y-0.933
N6370 X3.706 Y-1.068
N6375 X3.653 Y-1.225
N6380 X3.603 Y-1.425
N6385 X3.565 Y-1.654
N6390 X3.544 Y-1.894
N6395 X3.543 Y-2.331
N6400 X3.563 Y-2.768
N6405 X3.566 Y-3.142
N6410 X3.585 Y-3.356
N6415 X3.614 Y-3.53
N6420 X3.651 Y-3.675
N6425 X3.66 Y-3.69
N6430 X3.686 Y-3.722
N6435 X3.721 Y-3.743
N6440 X3.761 Y-3.75
N6445 X3.964
N6450 G0 Z5
N6455 X4.083 Y-0.819
N6460 Z-1.4
N6465 G1 Z-1.45 F1000
N6470 X4.082 Y-0.812 Z-1.475
N6475 X4.08 Y-0.794 Z-1.493
N6480 X4.076 Y-0.769 Z-1.5
N6485 X4.073 Y-0.75
N6490 X3.875
N6495 X3.8 Y-0.754
N6500 X3.662 Y-0.813
N6505 X3.571 Y-0.932
N6510 X3.506 Y-1.067
N6515 X3.453 Y-1.224
N6520 X3.403 Y-1.424
N6525 X3.365 Y-1.652
N6530 X3.345 Y-1.892
N6535 X3.342 Y-2.33
N6540 X3.363 Y-2.766
N6545 X3.366 Y-3.15
N6550 X3.385 Y-3.363
N6555 X3.415 Y-3.537
N6560 X3.452 Y-3.682
N6565 X3.458 Y-3.692
N6570 X3.484 Y-3.723
N6575 X3.519 Y-3.743
N6580 X3.559 Y-3.75
N6585 X3.761
N6590 G0 Z5
N6595 X3.885 Y-0.819
N6600 Z-1.4
N6605 G1 Z-1.45 F1000
N6610 X3.884 Y-0.812 Z-1.475
N6615 X3.881 Y-0.794 Z-1.493
N6620 X3.878 Y-0.769 Z-1.5
N6625 X3.875 Y-0.75
N6630 X3.676
N6635 X3.601 Y-0.754
N6640 X3.463 Y-0.812
N6645 X3.371 Y-0.931
N6650 X3.307 Y-1.066
N6655 X3.254 Y-1.223
N6660 X3.204 Y-1.423
N6665 X3.165 Y-1.651
N6670 X3.145 Y-1.891
N6675 X3.142 Y-2.328
N6680 X3.162 Y-2.765
N6685 X3.167 Y-3.157
N6690 X3.186 Y-3.371
N6695 X3.216 Y-3.544
N6700 X3.253 Y-3.689
N6705 X3.256 Y-3.694
N6710 X3.282 Y-3.724
N6715 X3.317 Y-3.743
N6720 X3.356 Y-3.75
N6725 X3.559
N6730 G0 Z5
N6735 X3.686 Y-0.819
N6740 Z-1.4
N6745 G1 Z-1.45 F1000
N6750 X3.685 Y-0.812 Z-1.475
N6755 X3.682 Y-0.794 Z-1.493
N6760 X3.679 Y-0.769 Z-1.5
N6765 X3.676 Y-0.75
N6770 X3.477
N6775 X3.402 Y-0.754
N6780 X3.264 Y-0.812
N6785 X3.172 Y-0.93
N6790 X3.108 Y-1.065
N6795 X3.054 Y-1.222
N6800 X3.004 Y-1.421
N6805 X2.966 Y-1.649
N6810 X2.945 Y-1.889
N6815 X2.942 Y-2.326
N6820 X2.962 Y-2.763
N6825 X2.967 Y-3.165
N6830 X2.987 Y-3.378
N6835 X3.017 Y-3.552
N6840 X3.046 Y-3.663
N6845 X3.069 Y-3.708
N6850 X3.109 Y-3.739
N6855 X3.159 Y-3.75
N6860 X3.356
N6865 G0 Z5
N6870 X3.487 Y-0.819
N6875 Z-1.4
N6880 G1 Z-1.45 F1000
N6885 X3.486 Y-0.812 Z-1.475
N6890 X3.484 Y-0.794 Z-1.493
N6895 X3.48 Y-0.769 Z-1.5
N6900 X3.477 Y-0.75
N6905 X3.279
N6910 X3.204 Y-0.754
N6915 X3.065 Y-0.811
N6920 X2.973 Y-0.929
N6925 X2.908 Y-1.065
N6930 X2.855 Y-1.22
N6935 X2.805 Y-1.42
N6940 X2.766 Y-1.647
N6945 X2.745 Y-1.887
N6950 X2.742 Y-2.325
N6955 X2.762 Y-2.762
N6960 X2.767 Y-3.173
N6965 X2.787 Y-3.386
N6970 X2.813 Y-3.534
N6975 X2.851 Y-3.679
N6980 X2.858 Y-3.691
N6985 X2.884 Y-3.723
N6990 X2.919 Y-3.743
N6995 X2.959 Y-3.75
N7000 X3.159
N7005 G0 Z5
N7010 X3.289 Y-0.819
N7015 Z-1.4
N7020 G1 Z-1.45 F1000
N7025 X3.288 Y-0.812 Z-1.475
N7030 X3.285 Y-0.794 Z-1.493
N7035 X3.281 Y-0.769 Z-1.5
N7040 X3.279 Y-0.75
N7045 X3.05
N7050 X2.975 Y-0.754
N7055 X2.847 Y-0.831
N7060 X2.76 Y-0.954
N7065 X2.698 Y-1.091
N7070 X2.647 Y-1.247
N7075 X2.599 Y-1.451
N7080 X2.563 Y-1.684
N7085 X2.541 Y-1.978
N7090 X2.544 Y-2.415
N7095 X2.567 Y-2.852
N7100 X2.566 Y-3.127
N7105 X2.583 Y-3.352
N7110 X2.611 Y-3.525
N7115 X2.646 Y-3.671
N7120 X2.656 Y-3.689
N7125 X2.682 Y-3.721
N7130 X2.718 Y-3.743
N7135 X2.759 Y-3.75
N7140 X2.959
N7145 G0 Z5
N7150 X3.06 Y-0.819
N7155 Z-1.4
N7160 G1 Z-1.45 F1000
N7165 X3.059 Y-0.812 Z-1.475
N7170 X3.056 Y-0.794 Z-1.493
N7175 X3.053 Y-0.769 Z-1.5
N7180 X3.05 Y-0.75
N7185 X2.851
N7190 X2.776 Y-0.754
N7195 X2.647 Y-0.83
N7200 X2.561 Y-0.953
N7205 X2.499 Y-1.089
N7210 X2.446 Y-1.252
N7215 X2.398 Y-1.458
N7220 X2.36 Y-1.704
N7225 X2.341 Y-1.978
N7230 X2.345 Y-2.415
N7235 X2.366 Y-2.852
N7240 Y-3.139
N7245 X2.384 Y-3.357
N7250 X2.412 Y-3.531
N7255 X2.448 Y-3.677
N7260 X2.455 Y-3.69
N7265 X2.481 Y-3.722
N7270 X2.517 Y-3.743
N7275 X2.557 Y-3.75
N7280 X2.759
N7285 G0 Z5
N7290 X2.861 Y-0.819
N7295 Z-1.4
N7300 G1 Z-1.45 F1000
N7305 X2.86 Y-0.812 Z-1.475
N7310 X2.858 Y-0.794 Z-1.493
N7315 X2.854 Y-0.769 Z-1.5
N7320 X2.851 Y-0.75
N7325 X2.652
N7330 X2.578 Y-0.754
N7335 X2.448 Y-0.829
N7340 X2.361 Y-0.952
N7345 X2.3 Y-1.088
N7350 X2.247 Y-1.252
N7355 X2.196 Y-1.465
N7360 X2.16 Y-1.704
N7365 X2.141 Y-1.97
N7370 X2.144 Y-2.408
N7375 X2.165 Y-2.845
N7380 X2.166 Y-3.151
N7385 X2.185 Y-3.367
N7390 X2.213 Y-3.539
N7395 X2.25 Y-3.685
N7400 X2.254 Y-3.692
N7405 X2.28 Y-3.723
N7410 X2.315 Y-3.743
N7415 X2.355 Y-3.75
N7420 X2.557
N7425 G0 Z5
N7430 X2.662 Y-0.819
N7435 Z-1.4
N7440 G1 Z-1.45 F1000
N7445 X2.661 Y-0.812 Z-1.475
N7450 X2.659 Y-0.794 Z-1.493
N7455 X2.655 Y-0.769 Z-1.5
N7460 X2.652 Y-0.75
N7465 X2.454
N7470 X2.379 Y-0.754
N7475 X2.249 Y-0.828
N7480 X2.162 Y-0.951
N7485 X2.1 Y-1.087
N7490 X2.046 Y-1.255
N7495 X1.996 Y-1.466
N7500 X1.959 Y-1.704
N7505 X1.941 Y-1.962
N7510 X1.944 Y-2.399
N7515 X1.964 Y-2.836
N7520 X1.967 Y-3.162
N7525 X1.986 Y-3.377
N7530 X2.015 Y-3.548
N7535 X2.053 Y-3.694
N7540 X2.079 Y-3.724
N7545 X2.113 Y-3.743
N7550 X2.152 Y-3.75
N7555 X2.355
N7560 G0 Z5
N7565 X2.464 Y-0.819
N7570 Z-1.4
N7575 G1 Z-1.45 F1000
N7580 X2.463 Y-0.812 Z-1.475
N7585 X2.46 Y-0.794 Z-1.493
N7590 X2.457 Y-0.769 Z-1.5
N7595 X2.454 Y-0.75
N7600 X2.255
N7605 X2.18 Y-0.754
N7610 X2.05 Y-0.828
N7615 X1.963 Y-0.95
N7620 X1.901 Y-1.087
N7625 X1.847 Y-1.253
N7630 X1.796 Y-1.463
N7635 X1.76 Y-1.697
N7640 X1.741 Y-1.949
N7645 X1.744 Y-2.386
N7650 X1.763 Y-2.823
N7655 X1.767 Y-3.174
N7660 X1.787 Y-3.388
N7665 X1.817 Y-3.558
N7670 X1.844 Y-3.663
N7675 X1.867 Y-3.708
N7680 X1.907 Y-3.739
N7685 X1.957 Y-3.75
N7690 X2.152
N7695 G0 Z5
N7700 X2.265 Y-0.819
N7705 Z-1.4
N7710 G1 Z-1.45 F1000
N7715 X2.264 Y-0.812 Z-1.475
N7720 X2.261 Y-0.794 Z-1.493
N7725 X2.258 Y-0.769 Z-1.5
N7730 X2.255 Y-0.75
N7735 X2.056
N7740 X1.981 Y-0.754
N7745 X1.851 Y-0.827
N7750 X1.763 Y-0.949
N7755 X1.702 Y-1.086
N7760 X1.647 Y-1.252
N7765 X1.597 Y-1.459
N7770 X1.56 Y-1.694
N7775 X1.541 Y-1.938
N7780 X1.543 Y-2.375
N7785 X1.562 Y-2.812
N7790 X1.568 Y-3.186
N7795 X1.588 Y-3.398
N7800 X1.614 Y-3.546
N7805 X1.654 Y-3.69
N7810 X1.656 Y-3.694
N7815 X1.682 Y-3.724
N7820 X1.717 Y-3.743
N7825 X1.756 Y-3.75
N7830 X1.957
N7835 G0 Z5
N7840 X2.066 Y-0.819
N7845 Z-1.4
N7850 G1 Z-1.45 F1000
N7855 X2.065 Y-0.812 Z-1.475
N7860 X2.063 Y-0.794 Z-1.493
N7865 X2.059 Y-0.769 Z-1.5
N7870 X2.056 Y-0.75
N7875 X1.858
N7880 X1.783 Y-0.754
N7885 X1.652 Y-0.826
N7890 X1.564 Y-0.948
N7895 X1.502 Y-1.085
N7900 X1.448 Y-1.25
N7905 X1.397 Y-1.457
N7910 X1.36 Y-1.69
N7915 X1.342 Y-1.93
N7920 X1.343 Y-2.367
N7925 X1.361 Y-2.804
N7930 X1.368 Y-3.196
N7935 X1.388 Y-3.393
N7940 X1.416 Y-3.553
N7945 X1.445 Y-3.663
N7950 X1.469 Y-3.708
N7955 X1.509 Y-3.739
N7960 X1.558 Y-3.75
N7965 X1.756
N7970 G0 Z5
N7975 X1.868 Y-0.819
N7980 Z-1.4
N7985 G1 Z-1.45 F1000
N7990 X1.867 Y-0.812 Z-1.475
N7995 X1.864 Y-0.794 Z-1.493
N8000 X1.86 Y-0.769 Z-1.5
N8005 X1.858 Y-0.75
N8010 X1.659
N8015 X1.584 Y-0.754
N8020 X1.452 Y-0.826
N8025 X1.365 Y-0.947
N8030 X1.302 Y-1.084
N8035 X1.248 Y-1.248
N8040 X1.198 Y-1.454
N8045 X1.161 Y-1.685
N8050 X1.142 Y-1.925
N8055 X1.143 Y-2.363
N8060 X1.161 Y-2.8
N8065 X1.168 Y-3.197
N8070 X1.189 Y-3.4
N8075 X1.215 Y-3.547
N8080 X1.256 Y-3.692
N8085 X1.258 Y-3.695
N8090 X1.284 Y-3.724
N8095 X1.318 Y-3.743
N8100 X1.357 Y-3.75
N8105 X1.558
N8110 G0 Z5
N8115 X1.669 Y-0.819
N8120 Z-1.4
N8125 G1 Z-1.45 F1000
N8130 X1.668 Y-0.812 Z-1.475
N8135 X1.665 Y-0.794 Z-1.493
N8140 X1.662 Y-0.769 Z-1.5
N8145 X1.659 Y-0.75
N8150 X1.46
N8155 X1.385 Y-0.754
N8160 X1.253 Y-0.825
N8165 X1.165 Y-0.947
N8170 X1.103 Y-1.083
N8175 X1.048 Y-1.246
N8180 X0.998 Y-1.451
N8185 X0.961 Y-1.682
N8190 X0.942 Y-1.921
N8195 X0.943 Y-2.359
N8200 X0.96 Y-2.796
N8205 X0.969 Y-3.2
N8210 X0.988 Y-3.396
N8215 X1.018 Y-3.555
N8220 X1.047 Y-3.663
N8225 X1.07 Y-3.708
N8230 X1.11 Y-3.739
N8235 X1.159 Y-3.75
N8240 X1.357
N8245 G0 Z5
N8250 X1.47 Y-0.819
N8255 Z-1.4
N8260 G1 Z-1.45 F1000
N8265 X1.469 Y-0.812 Z-1.475
N8270 X1.467 Y-0.794 Z-1.493
N8275 X1.463 Y-0.769 Z-1.5
N8280 X1.46 Y-0.75
N8285 X1.262
N8290 X1.187 Y-0.754
N8295 X1.054 Y-0.824
N8300 X0.966 Y-0.946
N8305 X0.903 Y-1.082
N8310 X0.849 Y-1.244
N8315 X0.799 Y-1.449
N8320 X0.762 Y-1.679
N8325 X0.742 Y-1.918
N8330 Y-2.356
N8335 X0.76 Y-2.793
N8340 X0.769 Y-3.2
N8345 X0.789 Y-3.402
N8350 X0.817 Y-3.549
N8355 X0.857 Y-3.693
N8360 X0.885 Y-3.724
N8365 X0.919 Y-3.743
N8370 X0.957 Y-3.75
N8375 X1.159
N8380 G0 Z5
N8385 X1.271 Y-0.819
N8390 Z-1.4
N8395 G1 Z-1.45 F1000
N8400 X1.27 Y-0.812 Z-1.475
N8405 X1.268 Y-0.794 Z-1.493
N8410 X1.264 Y-0.769 Z-1.5
N8415 X1.262 Y-0.75
N8420 X1.063
N8425 X0.988 Y-0.754
N8430 X0.855 Y-0.823
N8435 X0.766 Y-0.944
N8440 X0.704 Y-1.081
N8445 X0.65 Y-1.243
N8450 X0.599 Y-1.446
N8455 X0.562 Y-1.676
N8460 X0.543 Y-1.917
N8465 X0.542 Y-2.354
N8470 X0.56 Y-2.791
N8475 X0.569 Y-3.203
N8480 X0.589 Y-3.397
N8485 X0.619 Y-3.556
N8490 X0.647 Y-3.664
N8495 X0.671 Y-3.708
N8500 X0.711 Y-3.739
N8505 X0.76 Y-3.75
N8510 X0.957
N8515 G0 Z5
N8520 X1.073 Y-0.819
N8525 Z-1.4
N8530 G1 Z-1.45 F1000
N8535 X1.072 Y-0.812 Z-1.475
N8540 X1.069 Y-0.794 Z-1.493
N8545 X1.066 Y-0.769 Z-1.5
N8550 X1.063 Y-0.75
N8555 X0.864
N8560 X0.789 Y-0.754
N8565 X0.656 Y-0.823
N8570 X0.567 Y-0.943
N8575 X0.504 Y-1.08
N8580 X0.45 Y-1.241
N8585 X0.4 Y-1.444
N8590 X0.362 Y-1.674
N8595 X0.343 Y-1.915
N8600 X0.342 Y-2.352
N8605 X0.359 Y-2.789
N8610 X0.369 Y-3.202
N8615 X0.39 Y-3.403
N8620 X0.418 Y-3.551
N8625 X0.459 Y-3.696
N8630 X0.485 Y-3.725
N8635 X0.519 Y-3.743
N8640 X0.558 Y-3.75
N8645 X0.76
N8650 G0 Z5
N8655 X0.874 Y-0.819
N8660 Z-1.4
N8665 G1 Z-1.45 F1000
N8670 X0.873 Y-0.812 Z-1.475
N8675 X0.87 Y-0.794 Z-1.493
N8680 X0.867 Y-0.769 Z-1.5
N8685 X0.864 Y-0.75
N8690 X0.665
N8695 X0.591 Y-0.754
N8700 X0.457 Y-0.822
N8705 X0.368 Y-0.942
N8710 X0.304 Y-1.078
N8715 X0.251 Y-1.239
N8720 X0.2 Y-1.442
N8725 X0.163 Y-1.673
N8730 X0.143 Y-1.913
N8735 X0.142 Y-2.351
N8740 X0.159 Y-2.788
N8745 X0.169 Y-3.205
N8750 X0.19 Y-3.399
N8755 X0.219 Y-3.558
N8760 X0.248 Y-3.664
N8765 X0.272 Y-3.709
N8770 X0.312 Y-3.739
N8775 X0.361 Y-3.75
N8780 X0.558
N8785 G0 Z5
N8790 X0.675 Y-0.819
N8795 Z-1.4
N8800 G1 Z-1.45 F1000
N8805 X0.674 Y-0.812 Z-1.475
N8810 X0.672 Y-0.794 Z-1.493
N8815 X0.668 Y-0.769 Z-1.5
N8820 X0.665 Y-0.75
N8825 X0.467
N8830 X0.392 Y-0.754
N8835 X0.258 Y-0.821
N8840 X0.168 Y-0.941
N8845 X0.105 Y-1.077
N8850 X0.051 Y-1.238
N8855 X0.001 Y-1.441
N8860 X-0.037 Y-1.671
N8865 X-0.057 Y-1.911
N8870 X-0.058 Y-2.349
N8875 X-0.041 Y-2.786
N8880 X-0.031 Y-3.204
N8885 X-0.009 Y-3.405
N8890 X0.018 Y-3.553
N8895 X0.051 Y-3.666
N8900 X0.075 Y-3.709
N8905 X0.114 Y-3.739
N8910 X0.163 Y-3.75
N8915 X0.361
N8920 G0 Z5
N8925 X0.477 Y-0.819
N8930 Z-1.4
N8935 G1 Z-1.45 F1000
N8940 X0.476 Y-0.812 Z-1.475
N8945 X0.473 Y-0.794 Z-1.493
N8950 X0.47 Y-0.769 Z-1.5
N8955 X0.467 Y-0.75
N8960 X0.268
N8965 X0.193 Y-0.754
N8970 X0.059 Y-0.82
N8975 X-0.031 Y-0.94
N8980 X-0.095 Y-1.076
N8985 X-0.149 Y-1.236
N8990 X-0.199 Y-1.439
N8995 X-0.237 Y-1.669
N9000 X-0.257 Y-1.909
N9005 X-0.258 Y-2.347
N9010 X-0.242 Y-2.784
N9015 X-0.231 Y-3.207
N9020 X-0.21 Y-3.401
N9025 X-0.182 Y-3.548
N9030 X-0.14 Y-3.693
N9035 X-0.139 Y-3.695
N9040 X-0.112 Y-3.724
N9045 X-0.078 Y-3.743
N9050 X-0.04 Y-3.75
N9055 X0.163
N9060 G0 Z5
N9065 X0.278 Y-0.819
N9070 Z-1.4
N9075 G1 Z-1.45 F1000
N9080 X0.277 Y-0.812 Z-1.475
N9085 X0.274 Y-0.794 Z-1.493
N9090 X0.271 Y-0.769 Z-1.5
N9095 X0.268 Y-0.75
N9100 X0.069
N9105 X-0.006 Y-0.754
N9110 X-0.141 Y-0.819
N9115 X-0.231 Y-0.939
N9120 X-0.294 Y-1.075
N9125 X-0.348 Y-1.235
N9130 X-0.399 Y-1.437
N9135 X-0.437 Y-1.667
N9140 X-0.457 Y-1.907
N9145 X-0.458 Y-2.345
N9150 X-0.442 Y-2.782
N9155 X-0.43 Y-3.206
N9160 X-0.41 Y-3.398
N9165 X-0.38 Y-3.556
N9170 X-0.35 Y-3.664
N9175 X-0.327 Y-3.709
N9180 X-0.287 Y-3.739
N9185 X-0.238 Y-3.75
N9190 X-0.04
N9195 G0 Z5
N9200 X0.079 Y-0.819
N9205 Z-1.4
N9210 G1 Z-1.45 F1000
N9215 X0.078 Y-0.812 Z-1.475
N9220 X0.076 Y-0.794 Z-1.493
N9225 X0.072 Y-0.769 Z-1.5
N9230 X0.069 Y-0.75
N9235 X-0.129
N9240 X-0.204 Y-0.754
N9245 X-0.34 Y-0.818
N9250 X-0.43 Y-0.938
N9255 X-0.494 Y-1.074
N9260 X-0.548 Y-1.233
N9265 X-0.598 Y-1.435
N9270 X-0.636 Y-1.665
N9275 X-0.657 Y-1.905
N9280 X-0.658 Y-2.342
N9285 X-0.642 Y-2.78
N9290 X-0.63 Y-3.205
N9295 X-0.609 Y-3.405
N9300 X-0.581 Y-3.552
N9305 X-0.548 Y-3.666
N9310 X-0.524 Y-3.71
N9315 X-0.484 Y-3.739
N9320 X-0.436 Y-3.75
N9325 X-0.238
N9330 G0 Z5
N9335 X-0.12 Y-0.819
N9340 Z-1.4
N9345 G1 Z-1.45 F1000
N9350 Y-0.812 Z-1.475
N9355 X-0.123 Y-0.794 Z-1.493
N9360 X-0.127 Y-0.769 Z-1.5
N9365 X-0.129 Y-0.75
N9370 X-0.328
N9375 X-0.403 Y-0.754
N9380 X-0.539 Y-0.817
N9385 X-0.629 Y-0.937
N9390 X-0.693 Y-1.073
N9395 X-0.747 Y-1.232
N9400 X-0.798 Y-1.433
N9405 X-0.836 Y-1.663
N9410 X-0.856 Y-1.903
N9415 X-0.858 Y-2.34
N9420 X-0.842 Y-2.777
N9425 X-0.83 Y-3.207
N9430 X-0.809 Y-3.401
N9435 X-0.781 Y-3.548
N9440 X-0.739 Y-3.692
N9445 X-0.737 Y-3.695
N9450 X-0.711 Y-3.724
N9455 X-0.677 Y-3.743
N9460 X-0.639 Y-3.75
N9465 X-0.436
N9470 G0 Z5
N9475 X-0.318 Y-0.819
N9480 Z-1.4
N9485 G1 Z-1.45 F1000
N9490 X-0.319 Y-0.812 Z-1.475
N9495 X-0.322 Y-0.794 Z-1.493
N9500 X-0.325 Y-0.769 Z-1.5
N9505 X-0.328 Y-0.75
N9510 X-0.527
N9515 X-0.602 Y-0.754
N9520 X-0.738 Y-0.816
N9525 X-0.829 Y-0.936
N9530 X-0.893 Y-1.071
N9535 X-0.947 Y-1.23
N9540 X-0.997 Y-1.432
N9545 X-1.036 Y-1.661
N9550 X-1.056 Y-1.901
N9555 X-1.059 Y-2.338
N9560 X-1.043 Y-2.775
N9565 X-1.03 Y-3.206
N9570 X-1.009 Y-3.399
N9575 X-0.979 Y-3.557
N9580 X-0.949 Y-3.664
N9585 X-0.926 Y-3.709
N9590 X-0.886 Y-3.739
N9595 X-0.837 Y-3.75
N9600 X-0.639
N9605 G0 Z5
N9610 X-0.517 Y-0.819
N9615 Z-1.4
N9620 G1 Z-1.45 F1000
N9625 X-0.518 Y-0.812 Z-1.475
N9630 X-0.52 Y-0.794 Z-1.493
N9635 X-0.524 Y-0.769 Z-1.5
N9640 X-0.527 Y-0.75
N9645 X-0.726
N9650 X-0.8 Y-0.754
N9655 X-0.937 Y-0.816
N9660 X-1.028 Y-0.935
N9665 X-1.092 Y-1.07
N9670 X-1.146 Y-1.228
N9675 X-1.197 Y-1.43
N9680 X-1.235 Y-1.658
N9685 X-1.256 Y-1.899
N9690 X-1.259 Y-2.336
N9695 X-1.243 Y-2.773
N9700 X-1.23 Y-3.205
N9705 X-1.208 Y-3.405
N9710 X-1.18 Y-3.552
N9715 X-1.147 Y-3.666
N9720 X-1.123 Y-3.71
N9725 X-1.083 Y-3.739
N9730 X-1.035 Y-3.75
N9735 X-0.837
N9740 G0 Z5
N9745 X-0.716 Y-0.819
N9750 Z-1.4
N9755 G1 Z-1.45 F1000
N9760 X-0.717 Y-0.812 Z-1.475
N9765 X-0.719 Y-0.794 Z-1.493
N9770 X-0.723 Y-0.769 Z-1.5
N9775 X-0.726 Y-0.75
N9780 X-0.924
N9785 X-0.999 Y-0.754
N9790 X-1.136 Y-0.815
N9795 X-1.228 Y-0.934
N9800 X-1.292 Y-1.069
N9805 X-1.346 Y-1.227
N9810 X-1.396 Y-1.428
N9815 X-1.435 Y-1.656
N9820 X-1.456 Y-1.897
N9825 X-1.459 Y-2.334
N9830 X-1.443 Y-2.771
N9835 X-1.43 Y-3.207
N9840 X-1.409 Y-3.402
N9845 X-1.38 Y-3.549
N9850 X-1.338 Y-3.693
N9855 X-1.311 Y-3.725
N9860 X-1.276 Y-3.743
N9865 X-1.238 Y-3.75
N9870 X-1.035
N9875 G0 Z5
N9880 X-0.914 Y-0.819
N9885 Z-1.4
N9890 G1 Z-1.45 F1000
N9895 X-0.915 Y-0.812 Z-1.475
N9900 X-0.918 Y-0.794 Z-1.493
N9905 X-0.921 Y-0.769 Z-1.5
N9910 X-0.924 Y-0.75
N9915 X-1.123
N9920 X-1.198 Y-0.754
N9925 X-1.335 Y-0.814
N9930 X-1.427 Y-0.933
N9935 X-1.491 Y-1.068
N9940 X-1.545 Y-1.225
N9945 X-1.596 Y-1.426
N9950 X-1.635 Y-1.654
N9955 X-1.656 Y-1.894
N9960 X-1.659 Y-2.332
N9965 X-1.644 Y-2.769
N9970 X-1.63 Y-3.206
N9975 X-1.609 Y-3.399
N9980 X-1.578 Y-3.557
N9985 X-1.549 Y-3.665
N9990 X-1.525 Y-3.709
N9995 X-1.485 Y-3.739
N10000 X-1.436 Y-3.75
N10005 X-1.238
N10010 G0 Z5
N10015 X-1.113 Y-0.819
N10020 Z-1.4
N10025 G1 Z-1.45 F1000
N10030 X-1.114 Y-0.812 Z-1.475
N10035 X-1.117 Y-0.794 Z-1.493
N10040 X-1.12 Y-0.769 Z-1.5
N10045 X-1.123 Y-0.75
N10050 X-1.322
N10055 X-1.397 Y-0.754
N10060 X-1.534 Y-0.813
N10065 X-1.626 Y-0.931
N10070 X-1.691 Y-1.067
N10075 X-1.745 Y-1.224
N10080 X-1.795 Y-1.424
N10085 X-1.834 Y-1.652
N10090 X-1.856 Y-1.892
N10095 X-1.859 Y-2.33
N10100 X-1.844 Y-2.767
N10105 X-1.83 Y-3.204
N10110 X-1.808 Y-3.404
N10115 X-1.78 Y-3.552
N10120 X-1.738 Y-3.696
N10125 X-1.712 Y-3.725
N10130 X-1.677 Y-3.744
N10135 X-1.639 Y-3.75
N10140 X-1.436
N10145 G0 Z5
N10150 X-1.312 Y-0.819
N10155 Z-1.4
N10160 G1 Z-1.45 F1000
N10165 X-1.313 Y-0.812 Z-1.475
N10170 X-1.315 Y-0.794 Z-1.493
N10175 X-1.319 Y-0.769 Z-1.5
N10180 X-1.322 Y-0.75
N10185 X-1.52
N10190 X-1.595 Y-0.754
N10195 X-1.734 Y-0.812
N10200 X-1.826 Y-0.93
N10205 X-1.89 Y-1.066
N10210 X-1.944 Y-1.222
N10215 X-1.995 Y-1.422
N10220 X-2.034 Y-1.65
N10225 X-2.055 Y-1.89
N10230 X-2.059 Y-2.328
N10235 X-2.044 Y-2.765
N10240 X-2.03 Y-3.202
N10245 X-2.009 Y-3.396
N10250 X-1.979 Y-3.557
N10255 X-1.949 Y-3.664
N10260 X-1.926 Y-3.709
N10265 X-1.886 Y-3.739
N10270 X-1.837 Y-3.75
N10275 X-1.639
N10280 G0 Z5
N10285 X-1.51 Y-0.819
N10290 Z-1.4
N10295 G1 Z-1.45 F1000
N10300 X-1.511 Y-0.812 Z-1.475
N10305 X-1.514 Y-0.794 Z-1.493
N10310 X-1.518 Y-0.769 Z-1.5
N10315 X-1.52 Y-0.75
N10320 X-1.719
N10325 X-1.794 Y-0.754
N10330 X-1.933 Y-0.811
N10335 X-2.025 Y-0.929
N10340 X-2.09 Y-1.064
N10345 X-2.144 Y-1.22
N10350 X-2.195 Y-1.42
N10355 X-2.234 Y-1.648
N10360 X-2.255 Y-1.888
N10365 X-2.259 Y-2.326
N10370 X-2.244 Y-2.763
N10375 X-2.231 Y-3.2
N10380 X-2.209 Y-3.402
N10385 X-2.181 Y-3.55
N10390 X-2.139 Y-3.694
N10395 X-2.112 Y-3.725
N10400 X-2.078 Y-3.743
N10405 X-2.039 Y-3.75
N10410 X-1.837
N10415 G0 Z5
N10420 X-1.709 Y-0.819
N10425 Z-1.4
N10430 G1 Z-1.45 F1000
N10435 X-1.71 Y-0.812 Z-1.475
N10440 X-1.713 Y-0.794 Z-1.493
N10445 X-1.716 Y-0.769 Z-1.5
N10450 X-1.719 Y-0.75
N10455 X-1.956
N10460 X-1.993 Y-0.752
N10465 X-2.132 Y-0.809
N10470 X-2.224 Y-0.928
N10475 X-2.289 Y-1.063
N10480 X-2.343 Y-1.219
N10485 X-2.394 Y-1.418
N10490 X-2.433 Y-1.646
N10495 X-2.455 Y-1.886
N10500 X-2.459 Y-2.323
N10505 X-2.431 Y-3.198
N10510 X-2.41 Y-3.392
N10515 X-2.38 Y-3.555
N10520 X-2.35 Y-3.664
N10525 X-2.326 Y-3.709
N10530 X-2.286 Y-3.739
N10535 X-2.237 Y-3.75
N10540 X-2.039
N10545 G0 Z5
N10550 X-1.946 Y-0.819
N10555 Z-1.4
N10560 G1 Z-1.45 F1000
N10565 X-1.947 Y-0.812 Z-1.475
N10570 X-1.95 Y-0.794 Z-1.493
N10575 X-1.953 Y-0.769 Z-1.5
N10580 X-1.956 Y-0.75
N10585 X-2.155
N10590 X-2.192 Y-0.752
N10595 X-2.331 Y-0.808
N10600 X-2.424 Y-0.926
N10605 X-2.489 Y-1.061
N10610 X-2.542 Y-1.217
N10615 X-2.594 Y-1.416
N10620 X-2.633 Y-1.644
N10625 X-2.655 Y-1.884
N10630 X-2.66 Y-2.322
N10635 X-2.631 Y-3.196
N10640 X-2.609 Y-3.399
N10645 X-2.581 Y-3.547
N10650 X-2.54 Y-3.691
N10655 X-2.538 Y-3.695
N10660 X-2.512 Y-3.724
N10665 X-2.478 Y-3.743
N10670 X-2.439 Y-3.75
N10675 X-2.237
N10680 G0 Z5
N10685 X-2.145 Y-0.819
N10690 Z-1.4
N10695 G1 Z-1.45 F1000
N10700 X-2.146 Y-0.812 Z-1.475
N10705 X-2.148 Y-0.794 Z-1.493
N10710 X-2.152 Y-0.769 Z-1.5
N10715 X-2.155 Y-0.75
N10720 X-2.353
N10725 X-2.428 Y-0.754
N10730 X-2.555 Y-0.835
N10735 X-2.64 Y-0.958
N10740 X-2.702 Y-1.095
N10745 X-2.752 Y-1.25
N10750 X-2.801 Y-1.453
N10755 X-2.837 Y-1.687
N10760 X-2.86 Y-1.991
N10765 X-2.858 Y-2.429
N10770 X-2.84 Y-2.866
N10775 X-2.834 Y-3.085
N10780 X-2.819 Y-3.317
N10785 X-2.792 Y-3.493
N10790 X-2.758 Y-3.639
N10795 X-2.74 Y-3.68
N10800 X-2.715 Y-3.717
N10805 X-2.677 Y-3.741
N10810 X-2.633 Y-3.75
N10815 X-2.439
N10820 G0 Z5
N10825 X-2.343 Y-0.819
N10830 Z-1.4
N10835 G1 Z-1.45 F1000
N10840 X-2.344 Y-0.812 Z-1.475
N10845 X-2.347 Y-0.794 Z-1.493
N10850 X-2.351 Y-0.769 Z-1.5
N10855 X-2.353 Y-0.75
N10860 X-2.552
N10865 X-2.627 Y-0.754
N10870 X-2.754 Y-0.833
N10875 X-2.84 Y-0.957
N10880 X-2.901 Y-1.093
N10885 X-2.954 Y-1.257
N10890 X-3.003 Y-1.464
N10895 X-3.041 Y-1.716
N10900 X-3.061 Y-1.998
N10905 X-3.057 Y-2.435
N10910 X-3.041 Y-2.873
N10915 X-3.03 Y-3.198
N10920 X-3.004 Y-3.43
N10925 X-2.975 Y-3.577
N10930 X-2.943 Y-3.671
N10935 X-2.919 Y-3.712
N10940 X-2.88 Y-3.74
N10945 X-2.833 Y-3.75
N10950 X-2.633
N10955 G0 Z5
N10960 X-2.542 Y-0.819
N10965 Z-1.4
N10970 G1 Z-1.45 F1000
N10975 X-2.543 Y-0.812 Z-1.475
N10980 X-2.546 Y-0.794 Z-1.493
N10985 X-2.549 Y-0.769 Z-1.5
N10990 X-2.552 Y-0.75
N10995 X-2.751
N11000 X-2.826 Y-0.754
N11005 X-2.953 Y-0.832
N11010 X-3.039 Y-0.955
N11015 X-3.1 Y-1.092
N11020 X-3.154 Y-1.258
N11025 X-3.205 Y-1.474
N11030 X-3.241 Y-1.715
N11035 X-3.261 Y-1.992
N11040 X-3.257 Y-2.429
N11045 X-3.229 Y-3.217
N11050 X-3.206 Y-3.419
N11055 X-3.177 Y-3.566
N11060 X-3.143 Y-3.669
N11065 X-3.119 Y-3.711
N11070 X-3.08 Y-3.74
N11075 X-3.032 Y-3.75
N11080 X-2.833
N11085 G0 Z5
N11090 X-2.741 Y-0.819
N11095 Z-1.4
N11100 G1 Z-1.45 F1000
N11105 X-2.742 Y-0.812 Z-1.475
N11110 X-2.744 Y-0.794 Z-1.493
N11115 X-2.748 Y-0.769 Z-1.5
N11120 X-2.751 Y-0.75
N11125 X-2.949
N11130 X-3.024 Y-0.754
N11135 X-3.153 Y-0.831
N11140 X-3.239 Y-0.954
N11145 X-3.3 Y-1.091
N11150 X-3.355 Y-1.261
N11155 X-3.405 Y-1.474
N11160 X-3.442 Y-1.713
N11165 X-3.461 Y-1.984
N11170 X-3.457 Y-2.421
N11175 X-3.429 Y-3.221
N11180 X-3.407 Y-3.412
N11185 X-3.378 Y-3.559
N11190 X-3.344 Y-3.668
N11195 X-3.319 Y-3.711
N11200 X-3.28 Y-3.74
N11205 X-3.232 Y-3.75
N11210 X-3.032
N11215 G0 Z5
N11220 X-2.94 Y-0.819
N11225 Z-1.4
N11230 G1 Z-1.45 F1000
N11235 Y-0.812 Z-1.475
N11240 X-2.943 Y-0.794 Z-1.493
N11245 X-2.947 Y-0.769 Z-1.5
N11250 X-2.949 Y-0.75
N11255 X-3.148
N11260 X-3.223 Y-0.754
N11265 X-3.352 Y-0.83
N11270 X-3.438 Y-0.953
N11275 X-3.499 Y-1.09
N11280 X-3.554 Y-1.259
N11285 X-3.605 Y-1.47
N11290 X-3.641 Y-1.703
N11295 X-3.661 Y-1.969
N11300 X-3.658 Y-2.407
N11305 X-3.629 Y-3.219
N11310 X-3.607 Y-3.408
N11315 X-3.578 Y-3.555
N11320 X-3.544 Y-3.668
N11325 X-3.52 Y-3.711
N11330 X-3.48 Y-3.74
N11335 X-3.432 Y-3.75
N11340 X-3.232
N11345 G0 Z5
N11350 X-3.138 Y-0.819
N11355 Z-1.4
N11360 G1 Z-1.45 F1000
N11365 X-3.139 Y-0.812 Z-1.475
N11370 X-3.142 Y-0.794 Z-1.493
N11375 X-3.145 Y-0.769 Z-1.5
N11380 X-3.148 Y-0.75
N11385 X-3.347
N11390 X-3.422 Y-0.754
N11395 X-3.551 Y-0.83
N11400 X-3.637 Y-0.952
N11405 X-3.699 Y-1.089
N11410 X-3.754 Y-1.257
N11415 X-3.804 Y-1.465
N11420 X-3.841 Y-1.7
N11425 X-3.86 Y-1.957
N11430 X-3.858 Y-2.395
N11435 X-3.829 Y-3.217
N11440 X-3.807 Y-3.406
N11445 X-3.778 Y-3.553
N11450 X-3.744 Y-3.667
N11455 X-3.72 Y-3.71
N11460 X-3.68 Y-3.74
N11465 X-3.632 Y-3.75
N11470 X-3.432
N11475 G0 Z5
N11480 X-3.337 Y-0.819
N11485 Z-1.4
N11490 G1 Z-1.45 F1000
N11495 X-3.338 Y-0.812 Z-1.475
N11500 X-3.34 Y-0.794 Z-1.493
N11505 X-3.344 Y-0.769 Z-1.5
N11510 X-3.347 Y-0.75
N11515 X-3.546
N11520 X-3.62 Y-0.754
N11525 X-3.75 Y-0.829
N11530 X-3.837 Y-0.952
N11535 X-3.899 Y-1.088
N11540 X-3.953 Y-1.254
N11545 X-4.003 Y-1.462
N11550 X-4.041 Y-1.698
N11555 X-4.06 Y-1.946
N11560 X-4.058 Y-2.384
N11565 X-4.03 Y-3.215
N11570 X-4.007 Y-3.405
N11575 X-3.978 Y-3.552
N11580 X-3.934 Y-3.696
N11585 X-3.908 Y-3.725
N11590 X-3.874 Y-3.744
N11595 X-3.836 Y-3.75
N11600 X-3.632
N11605 G0 Z5
N11610 X-3.536 Y-0.819
N11615 Z-1.4
N11620 G1 Z-1.45 F1000
N11625 X-3.537 Y-0.812 Z-1.475
N11630 X-3.539 Y-0.794 Z-1.493
N11635 X-3.543 Y-0.769 Z-1.5
N11640 X-3.546 Y-0.75
N11645 X-3.731
N11650 X-3.806 Y-0.754
N11655 X-3.94 Y-0.82
N11660 X-4.03 Y-0.94
N11665 X-4.094 Y-1.076
N11670 X-4.149 Y-1.239
N11675 X-4.2 Y-1.443
N11680 X-4.236 Y-1.658
N11685 X-4.258 Y-1.911
N11690 X-4.26 Y-2.348
N11695 X-4.23 Y-3.207
N11700 X-4.208 Y-3.399
N11705 X-4.177 Y-3.557
N11710 X-4.147 Y-3.665
N11715 X-4.123 Y-3.709
N11720 X-4.083 Y-3.739
N11725 X-4.035 Y-3.75
N11730 X-3.836
N11735 G0 Z5
N11740 X-3.721 Y-0.819
N11745 Z-1.4
N11750 G1 Z-1.45 F1000
N11755 X-3.722 Y-0.812 Z-1.475
N11760 X-3.724 Y-0.794 Z-1.493
N11765 X-3.728 Y-0.769 Z-1.5
N11770 X-3.731 Y-0.75
N11775 X-3.943
N11780 X-4.018 Y-0.754
N11785 X-4.148 Y-0.828
N11790 X-4.235 Y-0.95
N11795 X-4.298 Y-1.086
N11800 X-4.352 Y-1.25
N11805 X-4.401 Y-1.448
N11810 X-4.439 Y-1.683
N11815 X-4.46 Y-1.946
N11820 X-4.459 Y-2.383
N11825 X-4.443 Y-2.821
N11830 X-4.431 Y-3.203
N11835 X-4.408 Y-3.403
N11840 X-4.379 Y-3.551
N11845 X-4.336 Y-3.696
N11850 X-4.31 Y-3.725
N11855 X-4.276 Y-3.744
N11860 X-4.238 Y-3.75
N11865 X-4.035
N11870 G0 Z5
N11875 X-3.933 Y-0.819
N11880 Z-1.4
N11885 G1 Z-1.45 F1000
N11890 X-3.934 Y-0.812 Z-1.475
N11895 X-3.937 Y-0.794 Z-1.493
N11900 X-3.94 Y-0.769 Z-1.5
N11905 X-3.943 Y-0.75
N11910 X-4.128
N11915 X-4.203 Y-0.754
N11920 X-4.338 Y-0.819
N11925 X-4.429 Y-0.938
N11930 X-4.493 Y-1.074
N11935 X-4.547 Y-1.231
N11940 X-4.598 Y-1.433
N11945 X-4.634 Y-1.649
N11950 X-4.658 Y-1.91
N11955 X-4.661 Y-2.348
N11960 X-4.645 Y-2.785
N11965 X-4.631 Y-3.205
N11970 X-4.609 Y-3.399
N11975 X-4.577 Y-3.56
N11980 X-4.548 Y-3.665
N11985 X-4.524 Y-3.709
N11990 X-4.484 Y-3.739
N11995 X-4.435 Y-3.75
N12000 X-4.238
N12005 G0 Z5
N12010 X-4.118 Y-0.819
N12015 Z-1.4
N12020 G1 Z-1.45 F1000
N12025 X-4.119 Y-0.812 Z-1.475
N12030 X-4.122 Y-0.794 Z-1.493
N12035 X-4.125 Y-0.769 Z-1.5
N12040 X-4.128 Y-0.75
N12045 X-4.327
N12050 X-4.402 Y-0.754
N12055 X-4.538 Y-0.817
N12060 X-4.628 Y-0.937
N12065 X-4.693 Y-1.072
N12070 X-4.747 Y-1.231
N12075 X-4.796 Y-1.426
N12080 X-4.836 Y-1.662
N12085 X-4.858 Y-1.907
N12090 X-4.861 Y-2.344
N12095 X-4.831 Y-3.207
N12100 X-4.807 Y-3.409
N12105 X-4.778 Y-3.557
N12110 X-4.745 Y-3.667
N12115 X-4.722 Y-3.71
N12120 X-4.682 Y-3.74
N12125 X-4.634 Y-3.75
N12130 X-4.435
N12135 G0 Z5
N12140 X-4.317 Y-0.819
N12145 Z-1.4
N12150 G1 Z-1.45 F1000
N12155 X-4.318 Y-0.812 Z-1.475
N12160 X-4.321 Y-0.794 Z-1.493
N12165 X-4.324 Y-0.769 Z-1.5
N12170 X-4.327 Y-0.75
N12175 X-4.526
N12180 X-4.6 Y-0.754
N12185 X-4.737 Y-0.816
N12190 X-4.828 Y-0.936
N12195 X-4.892 Y-1.071
N12200 X-4.945 Y-1.226
N12205 X-4.997 Y-1.43
N12210 X-5.036 Y-1.661
N12215 X-5.057 Y-1.903
N12220 X-5.061 Y-2.34
N12225 X-5.03 Y-3.213
N12230 X-5.008 Y-3.407
N12235 X-4.979 Y-3.554
N12240 X-4.945 Y-3.667
N12245 X-4.921 Y-3.71
N12250 X-4.881 Y-3.74
N12255 X-4.833 Y-3.75
N12260 X-4.634
N12265 G0 Z5
N12270 X-4.516 Y-0.819
N12275 Z-1.4
N12280 G1 Z-1.45 F1000
N12285 X-4.517 Y-0.812 Z-1.475
N12290 X-4.519 Y-0.794 Z-1.493
N12295 X-4.523 Y-0.769 Z-1.5
N12300 X-4.526 Y-0.75
N12305 X-4.724
N12310 X-4.799 Y-0.754
N12315 X-4.936 Y-0.815
N12320 X-5.027 Y-0.934
N12325 X-5.092 Y-1.07
N12330 X-5.146 Y-1.228
N12335 X-5.197 Y-1.431
N12340 X-5.236 Y-1.662
N12345 X-5.258 Y-1.906
N12350 X-5.261 Y-2.343
N12355 X-5.23 Y-3.213
N12360 X-5.208 Y-3.404
N12365 X-5.179 Y-3.552
N12370 X-5.135 Y-3.696
N12375 X-5.109 Y-3.725
N12380 X-5.075 Y-3.744
N12385 X-5.037 Y-3.75
N12390 X-4.833
N12395 G0 Z5
N12400 X-4.714 Y-0.819
N12405 Z-1.4
N12410 G1 Z-1.45 F1000
N12415 X-4.715 Y-0.812 Z-1.475
N12420 X-4.718 Y-0.794 Z-1.493
N12425 X-4.721 Y-0.769 Z-1.5
N12430 X-4.724 Y-0.75
N12435 X-4.923
N12440 X-4.998 Y-0.754
N12445 X-5.135 Y-0.814
N12450 X-5.227 Y-0.933
N12455 X-5.291 Y-1.068
N12460 X-5.346 Y-1.227
N12465 X-5.397 Y-1.429
N12470 X-5.436 Y-1.66
N12475 X-5.457 Y-1.899
N12480 X-5.461 Y-2.337
N12485 X-5.43 Y-3.211
N12490 X-5.408 Y-3.402
N12495 X-5.377 Y-3.56
N12500 X-5.347 Y-3.665
N12505 X-5.324 Y-3.709
N12510 X-5.284 Y-3.739
N12515 X-5.235 Y-3.75
N12520 X-5.037
N12525 G0 Z5
N12530 X-4.913 Y-0.819
N12535 Z-1.4
N12540 G1 Z-1.45 F1000
N12545 X-4.914 Y-0.812 Z-1.475
N12550 X-4.917 Y-0.794 Z-1.493
N12555 X-4.92 Y-0.769 Z-1.5
N12560 X-4.923 Y-0.75
N12565 X-5.122
N12570 X-5.197 Y-0.754
N12575 X-5.334 Y-0.813
N12580 X-5.426 Y-0.932
N12585 X-5.491 Y-1.067
N12590 X-5.545 Y-1.225
N12595 X-5.597 Y-1.427
N12600 X-5.636 Y-1.656
N12605 X-5.657 Y-1.895
N12610 X-5.661 Y-2.332
N12615 X-5.646 Y-2.769
N12620 X-5.631 Y-3.206
N12625 X-5.608 Y-3.405
N12630 X-5.579 Y-3.552
N12635 X-5.537 Y-3.696
N12640 X-5.511 Y-3.725
N12645 X-5.477 Y-3.744
N12650 X-5.438 Y-3.75
N12655 X-5.235
N12660 G0 Z5
N12665 X-5.112 Y-0.819
N12670 Z-1.4
N12675 G1 Z-1.45 F1000
N12680 X-5.113 Y-0.812 Z-1.475
N12685 X-5.115 Y-0.794 Z-1.493
N12690 X-5.119 Y-0.769 Z-1.5
N12695 X-5.122 Y-0.75
N12700 X-5.32
N12705 X-5.395 Y-0.754
N12710 X-5.533 Y-0.812
N12715 X-5.626 Y-0.931
N12720 X-5.69 Y-1.066
N12725 X-5.745 Y-1.223
N12730 X-5.796 Y-1.424
N12735 X-5.835 Y-1.652
N12740 X-5.857 Y-1.891
N12745 X-5.861 Y-2.329
N12750 X-5.847 Y-2.766
N12755 X-5.831 Y-3.203
N12760 X-5.809 Y-3.396
N12765 X-5.778 Y-3.558
N12770 X-5.749 Y-3.665
N12775 X-5.725 Y-3.709
N12780 X-5.685 Y-3.739
N12785 X-5.636 Y-3.75
N12790 X-5.438
N12795 G0 Z5
N12800 X-5.31 Y-0.819
N12805 Z-1.4
N12810 G1 Z-1.45 F1000
N12815 X-5.311 Y-0.812 Z-1.475
N12820 X-5.314 Y-0.794 Z-1.493
N12825 X-5.318 Y-0.769 Z-1.5
N12830 X-5.32 Y-0.75
N12835 X-5.519
N12840 X-5.594 Y-0.754
N12845 X-5.733 Y-0.811
N12850 X-5.825 Y-0.929
N12855 X-5.89 Y-1.064
N12860 X-5.944 Y-1.221
N12865 X-5.995 Y-1.421
N12870 X-6.035 Y-1.649
N12875 X-6.057 Y-1.888
N12880 X-6.061 Y-2.326
N12885 X-6.047 Y-2.763
N12890 X-6.031 Y-3.2
N12895 X-6.009 Y-3.402
N12900 X-5.98 Y-3.549
N12905 X-5.939 Y-3.693
N12910 X-5.911 Y-3.725
N12915 X-5.877 Y-3.743
N12920 X-5.839 Y-3.75
N12925 X-5.636
N12930 G0 Z5
N12935 X-5.509 Y-0.819
N12940 Z-1.4
N12945 G1 Z-1.45 F1000
N12950 X-5.51 Y-0.812 Z-1.475
N12955 X-5.513 Y-0.794 Z-1.493
N12960 X-5.516 Y-0.769 Z-1.5
N12965 X-5.519 Y-0.75
N12970 X-5.763
N12975 X-5.8 Y-0.752
N12980 X-5.936 Y-0.814
N12985 X-6.027 Y-0.933
N12990 X-6.092 Y-1.069
N12995 X-6.146 Y-1.226
N13000 X-6.197 Y-1.427
N13005 X-6.236 Y-1.656
N13010 X-6.258 Y-1.908
N13015 X-6.261 Y-2.346
N13020 X-6.239 Y-3.001
N13025 X-6.228 Y-3.24
N13030 X-6.203 Y-3.433
N13035 X-6.173 Y-3.579
N13040 X-6.146 Y-3.667
N13045 X-6.122 Y-3.71
N13050 X-6.082 Y-3.74
N13055 X-6.034 Y-3.75
N13060 X-5.839
N13065 G0 Z5
N13070 X-5.753 Y-0.819
N13075 Z-1.4
N13080 G1 Z-1.45 F1000
N13085 X-5.754 Y-0.812 Z-1.475
N13090 X-5.756 Y-0.794 Z-1.493
N13095 X-5.76 Y-0.769 Z-1.5
N13100 X-5.763 Y-0.75
N13105 X-5.961
N13110 X-5.999 Y-0.752
N13115 X-6.136 Y-0.813
N13120 X-6.227 Y-0.932
N13125 X-6.292 Y-1.067
N13130 X-6.345 Y-1.225
N13135 X-6.396 Y-1.426
N13140 X-6.436 Y-1.66
N13145 X-6.458 Y-1.902
N13150 X-6.461 Y-2.34
N13155 X-6.447 Y-2.777
N13160 X-6.431 Y-3.213
N13165 X-6.407 Y-3.416
N13170 X-6.377 Y-3.563
N13175 X-6.344 Y-3.668
N13180 X-6.32 Y-3.711
N13185 X-6.281 Y-3.74
N13190 X-6.233 Y-3.75
N13195 X-6.034
N13200 G0 Z5
N13205 X-5.951 Y-0.819
N13210 Z-1.4
N13215 G1 Z-1.45 F1000
N13220 X-5.952 Y-0.812 Z-1.475
N13225 X-5.955 Y-0.794 Z-1.493
N13230 X-5.958 Y-0.769 Z-1.5
N13235 X-5.961 Y-0.75
N13240 X-6.16
N13245 X-6.197 Y-0.752
N13250 X-6.335 Y-0.812
N13255 X-6.426 Y-0.931
N13260 X-6.491 Y-1.066
N13265 X-6.545 Y-1.223
N13270 X-6.597 Y-1.427
N13275 X-6.636 Y-1.658
N13280 X-6.657 Y-1.898
N13285 X-6.661 Y-2.336
N13290 X-6.647 Y-2.773
N13295 X-6.631 Y-3.21
N13300 X-6.609 Y-3.403
N13305 X-6.58 Y-3.55
N13310 X-6.537 Y-3.694
N13315 X-6.51 Y-3.725
N13320 X-6.475 Y-3.744
N13325 X-6.437 Y-3.75
N13330 X-6.233
N13335 G0 Z5
N13340 X-6.15 Y-0.819
N13345 Z-1.4
N13350 G1 Z-1.45 F1000
N13355 X-6.151 Y-0.812 Z-1.475
N13360 X-6.154 Y-0.794 Z-1.493
N13365 X-6.157 Y-0.769 Z-1.5
N13370 X-6.16 Y-0.75
N13375 X-6.359
N13380 X-6.396 Y-0.752
N13385 X-6.534 Y-0.811
N13390 X-6.626 Y-0.929
N13395 X-6.691 Y-1.065
N13400 X-6.745 Y-1.223
N13405 X-6.797 Y-1.425
N13410 X-6.836 Y-1.655
N13415 X-6.857 Y-1.895
N13420 X-6.861 Y-2.332
N13425 X-6.848 Y-2.77
N13430 X-6.831 Y-3.207
N13435 X-6.81 Y-3.398
N13440 X-6.779 Y-3.555
N13445 X-6.748 Y-3.665
N13450 X-6.725 Y-3.709
N13455 X-6.685 Y-3.739
N13460 X-6.636 Y-3.75
N13465 X-6.437
N13470 G0 Z5
N13475 X-6.349 Y-0.819
N13480 Z-1.4
N13485 G1 Z-1.45 F1000
N13490 X-6.35 Y-0.812 Z-1.475
N13495 X-6.352 Y-0.794 Z-1.493
N13500 X-6.356 Y-0.769 Z-1.5
N13505 X-6.359 Y-0.75
N13510 X-6.557
N13515 X-6.595 Y-0.752
N13520 X-6.733 Y-0.81
N13525 X-6.825 Y-0.928
N13530 X-6.89 Y-1.063
N13535 X-6.944 Y-1.221
N13540 X-6.996 Y-1.422
N13545 X-7.035 Y-1.651
N13550 X-7.057 Y-1.889
N13555 X-7.061 Y-2.327
N13560 X-7.048 Y-2.764
N13565 X-7.031 Y-3.201
N13570 X-7.009 Y-3.4
N13575 X-6.981 Y-3.548
N13580 X-6.939 Y-3.692
N13585 X-6.937 Y-3.695
N13590 X-6.911 Y-3.724
N13595 X-6.877 Y-3.743
N13600 X-6.838 Y-3.75
N13605 X-6.636
N13610 G0 Z5
N13615 X-6.547 Y-0.819
N13620 Z-1.4
N13625 G1 Z-1.45 F1000
N13630 X-6.548 Y-0.812 Z-1.475
N13635 X-6.551 Y-0.794 Z-1.493
N13640 X-6.555 Y-0.769 Z-1.5
N13645 X-6.557 Y-0.75
N13650 X-6.756
N13655 X-6.793 Y-0.752
N13660 X-6.932 Y-0.809
N13665 X-7.025 Y-0.927
N13670 X-7.09 Y-1.062
N13675 X-7.144 Y-1.219
N13680 X-7.195 Y-1.419
N13685 X-7.235 Y-1.647
N13690 X-7.257 Y-1.886
N13695 X-7.261 Y-2.323
N13700 X-7.248 Y-2.76
N13705 X-7.232 Y-3.198
N13710 X-7.211 Y-3.392
N13715 X-7.18 Y-3.555
N13720 X-7.149 Y-3.664
N13725 X-7.126 Y-3.709
N13730 X-7.086 Y-3.739
N13735 X-7.037 Y-3.75
N13740 X-6.838
N13745 G0 Z5
N13750 X-6.746 Y-0.819
N13755 Z-1.4
N13760 G1 Z-1.45 F1000
N13765 X-6.747 Y-0.812 Z-1.475
N13770 X-6.75 Y-0.794 Z-1.493
N13775 X-6.753 Y-0.769 Z-1.5
N13780 X-6.756 Y-0.75
N13785 X-6.955
N13790 X-6.992 Y-0.752
N13795 X-7.131 Y-0.808
N13800 X-7.224 Y-0.926
N13805 X-7.289 Y-1.061
N13810 X-7.343 Y-1.217
N13815 X-7.395 Y-1.416
N13820 X-7.434 Y-1.644
N13825 X-7.456 Y-1.883
N13830 X-7.462 Y-2.321
N13835 X-7.448 Y-2.758
N13840 X-7.432 Y-3.195
N13845 X-7.41 Y-3.398
N13850 X-7.382 Y-3.546
N13855 X-7.341 Y-3.69
N13860 X-7.338 Y-3.695
N13865 X-7.312 Y-3.724
N13870 X-7.278 Y-3.743
N13875 X-7.239 Y-3.75
N13880 X-7.037
N13885 G0 Z5
N13890 X-6.945 Y-0.819
N13895 Z-1.4
N13900 G1 Z-1.45 F1000
N13905 X-6.946 Y-0.812 Z-1.475
N13910 X-6.948 Y-0.794 Z-1.493
N13915 X-6.952 Y-0.769 Z-1.5
N13920 X-6.955 Y-0.75
N13925 X-7.153
N13930 X-7.228 Y-0.754
N13935 X-7.355 Y-0.834
N13940 X-7.44 Y-0.958
N13945 X-7.502 Y-1.094
N13950 X-7.553 Y-1.249
N13955 X-7.602 Y-1.453
N13960 X-7.639 Y-1.685
N13965 X-7.662 Y-1.99
N13970 X-7.66 Y-2.427
N13975 X-7.636 Y-3.083
N13980 X-7.619 Y-3.32
N13985 X-7.592 Y-3.497
N13990 X-7.558 Y-3.643
N13995 X-7.54 Y-3.682
N14000 X-7.515 Y-3.718
N14005 X-7.477 Y-3.742
N14010 X-7.434 Y-3.75
N14015 X-7.239
N14020 G0 Z5
N14025 X-7.144 Y-0.819
N14030 Z-1.4
N14035 G1 Z-1.45 F1000
N14040 X-7.145 Y-0.812 Z-1.475
N14045 X-7.147 Y-0.794 Z-1.493
N14050 X-7.151 Y-0.769 Z-1.5
N14055 X-7.153 Y-0.75
N14060 X-7.352
N14065 X-7.427 Y-0.754
N14070 X-7.554 Y-0.833
N14075 X-7.64 Y-0.956
N14080 X-7.702 Y-1.093
N14085 X-7.755 Y-1.256
N14090 X-7.804 Y-1.463
N14095 X-7.842 Y-1.715
N14100 X-7.863 Y-1.996
N14105 X-7.859 Y-2.434
N14110 X-7.845 Y-2.871
N14115 X-7.83 Y-3.214
N14120 X-7.802 Y-3.448
N14125 X-7.772 Y-3.595
N14130 X-7.742 Y-3.674
N14135 X-7.717 Y-3.714
N14140 X-7.679 Y-3.741
N14145 X-7.633 Y-3.75
N14150 X-7.434
N14155 G0 Z5
N14160 X-7.342 Y-0.819
N14165 Z-1.4
N14170 G1 Z-1.45 F1000
N14175 X-7.343 Y-0.812 Z-1.475
N14180 X-7.346 Y-0.794 Z-1.493
N14185 X-7.349 Y-0.769 Z-1.5
N14190 X-7.352 Y-0.75
N14195 X-7.551
N14200 X-7.626 Y-0.754
N14205 X-7.754 Y-0.832
N14210 X-7.84 Y-0.955
N14215 X-7.901 Y-1.092
N14220 X-7.955 Y-1.257
N14225 X-8.006 Y-1.473
N14230 X-8.043 Y-1.714
N14235 X-8.063 Y-1.99
N14240 X-8.059 Y-2.428
N14245 X-8.045 Y-2.865
N14250 X-8.03 Y-3.232
N14255 X-8.005 Y-3.436
N14260 X-7.975 Y-3.583
N14265 X-7.943 Y-3.673
N14270 X-7.918 Y-3.713
N14275 X-7.879 Y-3.74
N14280 X-7.833 Y-3.75
N14285 X-7.633
N14290 G0 Z5
N14295 X-7.541 Y-0.819
N14300 Z-1.4
N14305 G1 Z-1.45 F1000
N14310 X-7.542 Y-0.812 Z-1.475
N14315 X-7.545 Y-0.794 Z-1.493
N14320 X-7.548 Y-0.769 Z-1.5
N14325 X-7.551 Y-0.75
N14330 X-7.75
N14335 X-7.824 Y-0.754
N14340 X-7.953 Y-0.831
N14345 X-8.039 Y-0.954
N14350 X-8.101 Y-1.09
N14355 X-8.156 Y-1.261
N14360 X-8.206 Y-1.474
N14365 X-8.243 Y-1.712
N14370 X-8.263 Y-1.982
N14375 X-8.259 Y-2.419
N14380 X-8.246 Y-2.857
N14385 X-8.23 Y-3.238
N14390 X-8.206 Y-3.428
N14395 X-8.176 Y-3.575
N14400 X-8.143 Y-3.671
N14405 X-8.119 Y-3.712
N14410 X-8.08 Y-3.74
N14415 X-8.033 Y-3.75
N14420 X-7.833
N14425 G0 Z5
N14430 X-7.74 Y-0.819
N14435 Z-1.4
N14440 G1 Z-1.45 F1000
N14445 X-7.741 Y-0.812 Z-1.475
N14450 X-7.743 Y-0.794 Z-1.493
N14455 X-7.747 Y-0.769 Z-1.5
N14460 X-7.75 Y-0.75
N14465 X-7.948
N14470 X-8.023 Y-0.754
N14475 X-8.152 Y-0.83
N14480 X-8.239 Y-0.953
N14485 X-8.3 Y-1.089
N14490 X-8.355 Y-1.258
N14495 X-8.406 Y-1.469
N14500 X-8.442 Y-1.702
N14505 X-8.462 Y-1.968
N14510 X-8.46 Y-2.405
N14515 X-8.446 Y-2.842
N14520 X-8.43 Y-3.234
N14525 X-8.407 Y-3.421
N14530 X-8.378 Y-3.568
N14535 X-8.344 Y-3.67
N14540 X-8.319 Y-3.712
N14545 X-8.28 Y-3.74
N14550 X-8.233 Y-3.75
N14555 X-8.033
N14560 G0 Z5
N14565 X-7.938 Y-0.819
N14570 Z-1.4
N14575 G1 Z-1.45 F1000
N14580 X-7.939 Y-0.812 Z-1.475
N14585 X-7.942 Y-0.794 Z-1.493
N14590 X-7.945 Y-0.769 Z-1.5
N14595 X-7.948 Y-0.75
N14600 X-8.147
N14605 X-8.222 Y-0.754
N14610 X-8.352 Y-0.829
N14615 X-8.438 Y-0.952
N14620 X-8.5 Y-1.088
N14625 X-8.555 Y-1.256
N14630 X-8.605 Y-1.464
N14635 X-8.642 Y-1.699
N14640 X-8.662 Y-1.955
N14645 X-8.66 Y-2.393
N14650 X-8.647 Y-2.83
N14655 X-8.631 Y-3.23
N14660 X-8.608 Y-3.417
N14665 X-8.578 Y-3.564
N14670 X-8.544 Y-3.669
N14675 X-8.52 Y-3.711
N14680 X-8.48 Y-3.74
N14685 X-8.433 Y-3.75
N14690 X-8.233
N14695 G0 Z5
N14700 X-8.137 Y-0.819
N14705 Z-1.4
N14710 G1 Z-1.45 F1000
N14715 X-8.138 Y-0.812 Z-1.475
N14720 X-8.141 Y-0.794 Z-1.493
N14725 X-8.144 Y-0.769 Z-1.5
N14730 X-8.147 Y-0.75
N14735 X-8.346
N14740 X-8.421 Y-0.754
N14745 X-8.551 Y-0.829
N14750 X-8.638 Y-0.951
N14755 X-8.699 Y-1.087
N14760 X-8.754 Y-1.253
N14765 X-8.805 Y-1.461
N14770 X-8.842 Y-1.697
N14775 X-8.862 Y-1.944
N14780 X-8.86 Y-2.382
N14785 X-8.847 Y-2.819
N14790 X-8.831 Y-3.226
N14795 X-8.808 Y-3.414
N14800 X-8.778 Y-3.561
N14805 X-8.744 Y-3.669
N14810 X-8.72 Y-3.711
N14815 X-8.681 Y-3.74
N14820 X-8.633 Y-3.75
N14825 X-8.433
N14830 G0 Z5
N14835 X-8.336 Y-0.819
N14840 Z-1.4
N14845 G1 Z-1.45 F1000
N14850 X-8.337 Y-0.812 Z-1.475
N14855 X-8.339 Y-0.794 Z-1.493
N14860 X-8.343 Y-0.769 Z-1.5
N14865 X-8.346 Y-0.75
N14870 X-8.544
N14875 X-8.619 Y-0.754
N14880 X-8.75 Y-0.828
N14885 X-8.837 Y-0.95
N14890 X-8.899 Y-1.086
N14895 X-8.954 Y-1.252
N14900 X-9.005 Y-1.46
N14905 X-9.042 Y-1.695
N14910 X-9.061 Y-1.937
N14915 Y-2.374
N14920 X-9.048 Y-2.812
N14925 X-9.031 Y-3.223
N14930 X-9.009 Y-3.411
N14935 X-8.979 Y-3.558
N14940 X-8.944 Y-3.668
N14945 X-8.92 Y-3.711
N14950 X-8.881 Y-3.74
N14955 X-8.833 Y-3.75
N14960 X-8.633
N14965 G0 Z5
N14970 X-8.535 Y-0.819
N14975 Z-1.4
N14980 G1 Z-1.45 F1000
N14985 Y-0.812 Z-1.475
N14990 X-8.538 Y-0.794 Z-1.493
N14995 X-8.542 Y-0.769 Z-1.5
N15000 X-8.544 Y-0.75
N15005 X-8.743
N15010 X-8.818 Y-0.754
N15015 X-8.949 Y-0.827
N15020 X-9.037 Y-0.949
N15025 X-9.099 Y-1.085
N15030 X-9.154 Y-1.251
N15035 X-9.205 Y-1.458
N15040 X-9.242 Y-1.691
N15045 X-9.261 Y-1.931
N15050 Y-2.369
N15055 X-9.248 Y-2.806
N15060 X-9.232 Y-3.219
N15065 X-9.209 Y-3.409
N15070 X-9.179 Y-3.556
N15075 X-9.144 Y-3.668
N15080 X-9.12 Y-3.711
N15085 X-9.081 Y-3.74
N15090 X-9.033 Y-3.75
N15095 X-8.833
N15100 G0 Z5
N15105 X-8.733 Y-0.819
N15110 Z-1.4
N15115 G1 Z-1.45 F1000
N15120 X-8.734 Y-0.812 Z-1.475
N15125 X-8.737 Y-0.794 Z-1.493
N15130 X-8.74 Y-0.769 Z-1.5
N15135 X-8.743 Y-0.75
N15140 X-8.942
N15145 X-9.017 Y-0.754
N15150 X-9.148 Y-0.826
N15155 X-9.236 Y-0.948
N15160 X-9.299 Y-1.084
N15165 X-9.353 Y-1.249
N15170 X-9.404 Y-1.455
N15175 X-9.442 Y-1.686
N15180 X-9.461 Y-1.926
N15185 Y-2.364
N15190 X-9.448 Y-2.801
N15195 X-9.432 Y-3.216
N15200 X-9.409 Y-3.406
N15205 X-9.379 Y-3.553
N15210 X-9.345 Y-3.667
N15215 X-9.321 Y-3.71
N15220 X-9.281 Y-3.74
N15225 X-9.233 Y-3.75
N15230 X-9.033
N15235 G0 Z5
N15240 X-8.932 Y-0.819
N15245 Z-1.4
N15250 G1 Z-1.45 F1000
N15255 X-8.933 Y-0.812 Z-1.475
N15260 X-8.935 Y-0.794 Z-1.493
N15265 X-8.939 Y-0.769 Z-1.5
N15270 X-8.942 Y-0.75
N15275 X-9.141
N15280 X-9.215 Y-0.754
N15285 X-9.347 Y-0.825
N15290 X-9.436 Y-0.947
N15295 X-9.498 Y-1.083
N15300 X-9.553 Y-1.247
N15305 X-9.604 Y-1.452
N15310 X-9.641 Y-1.682
N15315 X-9.661 Y-1.922
N15320 Y-2.359
N15325 X-9.648 Y-2.797
N15330 X-9.632 Y-3.214
N15335 X-9.61 Y-3.404
N15340 X-9.58 Y-3.551
N15345 X-9.536 Y-3.696
N15350 X-9.51 Y-3.725
N15355 X-9.476 Y-3.744
N15360 X-9.437 Y-3.75
N15365 X-9.233
N15370 G0 Z5
N15375 X-9.131 Y-0.819
N15380 Z-1.4
N15385 G1 Z-1.45 F1000
N15390 X-9.132 Y-0.812 Z-1.475
N15395 X-9.134 Y-0.794 Z-1.493
N15400 X-9.138 Y-0.769 Z-1.5
N15405 X-9.141 Y-0.75
N15410 X-9.339
N15415 X-9.414 Y-0.754
N15420 X-9.547 Y-0.824
N15425 X-9.635 Y-0.945
N15430 X-9.698 Y-1.082
N15435 X-9.753 Y-1.244
N15440 X-9.803 Y-1.449
N15445 X-9.841 Y-1.679
N15450 X-9.861 Y-1.919
N15455 Y-2.356
N15460 X-9.849 Y-2.794
N15465 X-9.833 Y-3.211
N15470 X-9.81 Y-3.403
N15475 X-9.778 Y-3.561
N15480 X-9.748 Y-3.666
N15485 X-9.724 Y-3.709
N15490 X-9.684 Y-3.739
N15495 X-9.636 Y-3.75
N15500 X-9.437
N15505 G0 Z5
N15510 X-9.329 Y-0.819
N15515 Z-1.4
N15520 G1 Z-1.45 F1000
N15525 X-9.33 Y-0.812 Z-1.475
N15530 X-9.333 Y-0.794 Z-1.493
N15535 X-9.336 Y-0.769 Z-1.5
N15540 X-9.339 Y-0.75
N15545 X-9.538
N15550 X-9.613 Y-0.754
N15555 X-9.746 Y-0.823
N15560 X-9.835 Y-0.944
N15565 X-9.898 Y-1.08
N15570 X-9.952 Y-1.242
N15575 X-10.003 Y-1.446
N15580 X-10.04 Y-1.676
N15585 X-10.06 Y-1.917
N15590 X-10.061 Y-2.354
N15595 X-10.049 Y-2.791
N15600 X-10.033 Y-3.209
N15605 X-10.009 Y-3.409
N15610 X-9.979 Y-3.556
N15615 X-9.946 Y-3.667
N15620 X-9.922 Y-3.71
N15625 X-9.882 Y-3.74
N15630 X-9.834 Y-3.75
N15635 X-9.636
N15640 G0 Z5
N15645 X-9.528 Y-0.819
N15650 Z-1.4
N15655 G1 Z-1.45 F1000
N15660 X-9.529 Y-0.812 Z-1.475
N15665 X-9.532 Y-0.794 Z-1.493
N15670 X-9.535 Y-0.769 Z-1.5
N15675 X-9.538 Y-0.75
N15680 X-9.737
N15685 X-9.812 Y-0.754
N15690 X-9.945 Y-0.822
N15695 X-10.034 Y-0.943
N15700 X-10.097 Y-1.079
N15705 X-10.152 Y-1.24
N15710 X-10.202 Y-1.444
N15715 X-10.24 Y-1.674
N15720 X-10.26 Y-1.915
N15725 X-10.261 Y-2.352
N15730 X-10.249 Y-2.789
N15735 X-10.233 Y-3.212
N15740 X-10.21 Y-3.406
N15745 X-10.18 Y-3.553
N15750 X-10.137 Y-3.696
N15755 X-10.111 Y-3.725
N15760 X-10.077 Y-3.744
N15765 X-10.039 Y-3.75
N15770 X-9.834
N15775 G0 Z5
N15780 X-9.727 Y-0.819
N15785 Z-1.4
N15790 G1 Z-1.45 F1000
N15795 X-9.728 Y-0.812 Z-1.475
N15800 X-9.73 Y-0.794 Z-1.493
N15805 X-9.734 Y-0.769 Z-1.5
N15810 X-9.737 Y-0.75
N15815 X-9.935
N15820 X-10.01 Y-0.754
N15825 X-10.144 Y-0.821
N15830 X-10.234 Y-0.942
N15835 X-10.297 Y-1.078
N15840 X-10.351 Y-1.239
N15845 X-10.402 Y-1.442
N15850 X-10.44 Y-1.672
N15855 X-10.46 Y-1.913
N15860 X-10.462 Y-2.35
N15865 X-10.449 Y-2.787
N15870 X-10.433 Y-3.211
N15875 X-10.41 Y-3.403
N15880 X-10.379 Y-3.561
N15885 X-10.349 Y-3.665
N15890 X-10.325 Y-3.709
N15895 X-10.285 Y-3.739
N15900 X-10.237 Y-3.75
N15905 X-10.039
N15910 G0 Z5
N15915 X-9.925 Y-0.819
N15920 Z-1.4
N15925 G1 Z-1.45 F1000
N15930 X-9.926 Y-0.812 Z-1.475
N15935 X-9.929 Y-0.794 Z-1.493
N15940 X-9.933 Y-0.769 Z-1.5
N15945 X-9.935 Y-0.75
N15950 X-10.134
N15955 X-10.209 Y-0.754
N15960 X-10.343 Y-0.82
N15965 X-10.433 Y-0.941
N15970 X-10.497 Y-1.076
N15975 X-10.551 Y-1.237
N15980 X-10.601 Y-1.44
N15985 X-10.64 Y-1.67
N15990 X-10.66 Y-1.911
N15995 X-10.662 Y-2.348
N16000 X-10.649 Y-2.785
N16005 X-10.633 Y-3.209
N16010 X-10.61 Y-3.41
N16015 X-10.58 Y-3.557
N16020 X-10.547 Y-3.667
N16025 X-10.523 Y-3.71
N16030 X-10.483 Y-3.74
N16035 X-10.435 Y-3.75
N16040 X-10.237
N16045 G0 Z5
N16050 X-10.124 Y-0.819
N16055 Z-1.4
N16060 G1 Z-1.45 F1000
N16065 X-10.125 Y-0.812 Z-1.475
N16070 X-10.128 Y-0.794 Z-1.493
N16075 X-10.131 Y-0.769 Z-1.5
N16080 X-10.134 Y-0.75
N16085 X-10.333
N16090 X-10.408 Y-0.754
N16095 X-10.543 Y-0.819
N16100 X-10.633 Y-0.939
N16105 X-10.696 Y-1.075
N16110 X-10.75 Y-1.235
N16115 X-10.801 Y-1.438
N16120 X-10.839 Y-1.668
N16125 X-10.86 Y-1.908
N16130 X-10.862 Y-2.346
N16135 X-10.85 Y-2.783
N16140 X-10.834 Y-3.212
N16145 X-10.811 Y-3.406
N16150 X-10.781 Y-3.553
N16155 X-10.738 Y-3.696
N16160 X-10.712 Y-3.725
N16165 X-10.678 Y-3.744
N16170 X-10.639 Y-3.75
N16175 X-10.435
N16180 G0 Z5
N16185 X-10.323 Y-0.819
N16190 Z-1.4
N16195 G1 Z-1.45 F1000
N16200 X-10.324 Y-0.812 Z-1.475
N16205 X-10.326 Y-0.794 Z-1.493
N16210 X-10.33 Y-0.769 Z-1.5
N16215 X-10.333 Y-0.75
N16220 X-10.531
N16225 X-10.606 Y-0.754
N16230 X-10.742 Y-0.818
N16235 X-10.832 Y-0.938
N16240 X-10.896 Y-1.074
N16245 X-10.95 Y-1.234
N16250 X-11.001 Y-1.436
N16255 X-11.039 Y-1.666
N16260 X-11.06 Y-1.906
N16265 X-11.062 Y-2.343
N16270 X-11.05 Y-2.781
N16275 X-11.034 Y-3.211
N16280 X-11.011 Y-3.403
N16285 X-10.979 Y-3.561
N16290 X-10.95 Y-3.665
N16295 X-10.926 Y-3.709
N16300 X-10.886 Y-3.739
N16305 X-10.837 Y-3.75
N16310 X-10.639
N16315 G0 Z5
N16320 X-10.522 Y-0.819
N16325 Z-1.4
N16330 G1 Z-1.45 F1000
N16335 X-10.523 Y-0.812 Z-1.475
N16340 X-10.525 Y-0.794 Z-1.493
N16345 X-10.529 Y-0.769 Z-1.5
N16350 X-10.531 Y-0.75
N16355 X-10.73
N16360 X-10.805 Y-0.754
N16365 X-10.941 Y-0.817
N16370 X-11.031 Y-0.937
N16375 X-11.095 Y-1.073
N16380 X-11.149 Y-1.232
N16385 X-11.2 Y-1.434
N16390 X-11.239 Y-1.663
N16395 X-11.26 Y-1.904
N16400 X-11.262 Y-2.341
N16405 X-11.25 Y-2.778
N16410 X-11.234 Y-3.209
N16415 X-11.21 Y-3.409
N16420 X-11.181 Y-3.556
N16425 X-11.148 Y-3.667
N16430 X-11.124 Y-3.71
N16435 X-11.084 Y-3.74
N16440 X-11.036 Y-3.75
N16445 X-10.837
N16450 G0 Z5
N16455 X-10.72 Y-0.819
N16460 Z-1.4
N16465 G1 Z-1.45 F1000
N16470 X-10.721 Y-0.812 Z-1.475
N16475 X-10.724 Y-0.794 Z-1.493
N16480 X-10.727 Y-0.769 Z-1.5
N16485 X-10.73 Y-0.75
N16490 X-10.929
N16495 X-11.004 Y-0.754
N16500 X-11.14 Y-0.817
N16505 X-11.231 Y-0.936
N16510 X-11.295 Y-1.071
N16515 X-11.349 Y-1.23
N16520 X-11.4 Y-1.432
N16525 X-11.439 Y-1.661
N16530 X-11.459 Y-1.901
N16535 X-11.462 Y-2.339
N16540 X-11.45 Y-2.776
N16545 X-11.434 Y-3.211
N16550 X-11.411 Y-3.405
N16555 X-11.382 Y-3.552
N16560 X-11.338 Y-3.696
N16565 X-11.312 Y-3.725
N16570 X-11.278 Y-3.744
N16575 X-11.24 Y-3.75
N16580 X-11.036
N16585 G0 Z5
N16590 X-10.919 Y-0.819
N16595 Z-1.4
N16600 G1 Z-1.45 F1000
N16605 X-10.92 Y-0.812 Z-1.475
N16610 X-10.923 Y-0.794 Z-1.493
N16615 X-10.926 Y-0.769 Z-1.5
N16620 X-10.929 Y-0.75
N16625 X-11.128
N16630 X-11.203 Y-0.754
N16635 X-11.339 Y-0.816
N16640 X-11.43 Y-0.935
N16645 X-11.495 Y-1.07
N16650 X-11.549 Y-1.229
N16655 X-11.599 Y-1.43
N16660 X-11.638 Y-1.659
N16665 X-11.659 Y-1.899
N16670 X-11.662 Y-2.336
N16675 X-11.65 Y-2.774
N16680 X-11.634 Y-3.21
N16685 X-11.612 Y-3.402
N16690 X-11.58 Y-3.56
N16695 X-11.55 Y-3.665
N16700 X-11.527 Y-3.709
N16705 X-11.487 Y-3.739
N16710 X-11.438 Y-3.75
N16715 X-11.24
N16720 G0 Z5
N16725 X-11.118 Y-0.819
N16730 Z-1.4
N16735 G1 Z-1.45 F1000
N16740 X-11.119 Y-0.812 Z-1.475
N16745 X-11.121 Y-0.794 Z-1.493
N16750 X-11.125 Y-0.769 Z-1.5
N16755 X-11.128 Y-0.75
N16760 X-11.326
N16765 X-11.401 Y-0.754
N16770 X-11.538 Y-0.815
N16775 X-11.63 Y-0.934
N16780 X-11.694 Y-1.069
N16785 X-11.748 Y-1.227
N16790 X-11.799 Y-1.428
N16795 X-11.838 Y-1.657
N16800 X-11.859 Y-1.897
N16805 X-11.862 Y-2.334
N16810 X-11.85 Y-2.771
N16815 X-11.835 Y-3.209
N16820 X-11.811 Y-3.409
N16825 X-11.782 Y-3.556
N16830 X-11.748 Y-3.667
N16835 X-11.724 Y-3.71
N16840 X-11.685 Y-3.74
N16845 X-11.637 Y-3.75
N16850 X-11.438
N16855 G0 Z5
N16860 X-11.316 Y-0.819
N16865 Z-1.4
N16870 G1 Z-1.45 F1000
N16875 X-11.317 Y-0.812 Z-1.475
N16880 X-11.32 Y-0.794 Z-1.493
N16885 X-11.324 Y-0.769 Z-1.5
N16890 X-11.326 Y-0.75
N16895 X-11.525
N16900 X-11.6 Y-0.754
N16905 X-11.737 Y-0.814
N16910 X-11.829 Y-0.932
N16915 X-11.894 Y-1.068
N16920 X-11.948 Y-1.225
N16925 X-11.999 Y-1.426
N16930 X-12.038 Y-1.654
N16935 X-12.059 Y-1.894
N16940 X-12.062 Y-2.332
N16945 X-12.051 Y-2.769
N16950 X-12.035 Y-3.206
N16955 X-12.013 Y-3.4
N16960 X-11.984 Y-3.547
N16965 X-11.941 Y-3.691
N16970 X-11.939 Y-3.695
N16975 X-11.913 Y-3.724
N16980 X-11.878 Y-3.743
N16985 X-11.84 Y-3.75
N16990 X-11.637
N16995 G0 Z5
N17000 X-11.515 Y-0.819
N17005 Z-1.4
N17010 G1 Z-1.45 F1000
N17015 X-11.516 Y-0.812 Z-1.475
N17020 X-11.519 Y-0.794 Z-1.493
N17025 X-11.522 Y-0.769 Z-1.5
N17030 X-11.525 Y-0.75
N17035 X-11.724
N17040 X-11.799 Y-0.754
N17045 X-11.937 Y-0.813
N17050 X-12.028 Y-0.931
N17055 X-12.093 Y-1.066
N17060 X-12.147 Y-1.223
N17065 X-12.198 Y-1.424
N17070 X-12.237 Y-1.652
N17075 X-12.259 Y-1.892
N17080 X-12.263 Y-2.33
N17085 X-12.251 Y-2.767
N17090 X-12.235 Y-3.204
N17095 X-12.213 Y-3.397
N17100 X-12.182 Y-3.556
N17105 X-12.151 Y-3.665
N17110 X-12.128 Y-3.709
N17115 X-12.088 Y-3.739
N17120 X-12.039 Y-3.75
N17125 X-11.84
N17130 G0 Z5
N17135 X-11.714 Y-0.819
N17140 Z-1.4
N17145 G1 Z-1.45 F1000
N17150 X-11.715 Y-0.812 Z-1.475
N17155 X-11.717 Y-0.794 Z-1.493
N17160 X-11.721 Y-0.769 Z-1.5
N17165 X-11.724 Y-0.75
N17170 X-11.922
N17175 X-11.997 Y-0.754
N17180 X-12.136 Y-0.812
N17185 X-12.228 Y-0.93
N17190 X-12.293 Y-1.065
N17195 X-12.347 Y-1.222
N17200 X-12.398 Y-1.422
N17205 X-12.416 Y-1.529
N17210 G3 X-12.324 Y-1.562 I0.05 J-0.007
N17215 G1 X-11.881 Y-0.826
N17220 G3 X-11.922 Y-0.75 I-0.043 J0.026
N17225 G1 X-12.121
N17230 X-12.271 Y-0.757
N17235 X-12.351 Y-0.832
N17240 G3 X-12.3 Y-0.914 I0.035 J-0.035
N17245 G1 X-12.106 Y-0.847
N17250 G3 X-12.121 Y-0.75 I-0.016 J0.047
N17255 G1 X-12.519
N17260 G0 Z5
N17265 X-13.016 Y-3.557
N17270 Z-1.4
N17275 G1 Z-1.45 F1000
N17280 X-13.013 Y-3.563 Z-1.475
N17285 X-13.004 Y-3.579 Z-1.493
N17290 X-12.993 Y-3.601 Z-1.5
N17295 G3 X-12.762 Y-3.75 I0.241 J0.12
N17300 G1 X-12.717
N17305 X-12.567 Y-3.743
N17310 X-12.548 Y-3.506
N17315 Y-3.068
N17320 G3 X-12.647 Y-3.061 I-0.05 J-0.002
N17325 G1 X-12.765 Y-3.691
N17330 G3 X-12.717 Y-3.75 I0.049 J-0.009
N17335 G1 X-12.039
N17340 X-12.02 Y-3.746
N17345 X-11.996 Y-3.74 Z-1.493
N17350 X-11.978 Y-3.736 Z-1.475
N17355 X-11.971 Y-3.734 Z-1.45
N17360 G0 Z15
N17370 M9
N17375 G28
N17380 M30
%
